;Header Start
;header_t Ype: laser
;tool_head: 20W Laser Module
;machine: Ra Y
;gcode_flavor: grbl
;renderMethod: line
;max_power: 650
;file_total_lines: 90043
;estimated_time(s): 5432.566
;is_rotate: false
;diameter: 0
;max_x(mm): 299.9
;max_ Y(mm): 112.5
;max_z(mm): 0
;max_b(mm): 0
;min_x(mm): -300
;min_ Y(mm): -112.4
;min_b(mm): 0
;min_z(mm): 0
;work_speed(mm/minute): 15000
;jog_speed(mm/minute): 15000
;power(%): 65
;work_size_x: 600
;work_size_ Y: 400
;origin: center
M2003
M2004
;Header End
; G-code for laser engraving
; Generated b Y Snapmaker Luban
; G-code START <<<
G90 
G21 
M2000 W1P100
M2000 W2P100
M4 
M9 
M2000 L23P1
G0 F15000
G01 F15000
G01 X284.899 Y-112.4
G01 X269.899
G01 X254.9
G01 X239.9
G01 X225
G01 X209.9
G01 X194.9
G01 X179.9
G01 X164.9
G01 X149.9
G01 X134.9
G01 X119.9
G01 X105
G01 X90
G01 X75
G01 X60
G01 X45
G01 X29.899
G01 X14.9
G01 X0
G01 X-15.1
G01 X-30
G01 X-45.1
G01 X-60
G01 X-75
G01 X-90
G01 X-105
G01 X-120
G01 X-135
G01 X-150
G01 X-165
G01 X-180
G01 X-195
G01 X-210
G01 X-225
G01 X-240
G01 X-255
G01 X-270
G01 X-285
G01 X-300
G01  Y-112.3
G01 X-285
G01 X-270
G01 X-255
G01 X-240
G01 X-225
G01 X-210
G01 X-195
G01 X-180
G01 X-165
G01 X-150
G01 X-135
G01 X-120
G01 X-105
G01 X-90
G01 X-75
G01 X-60
G01 X-45
G01 X-30.1
G01 X-15
G01 X-0.1
G01 X15
G01 X30
G01 X44.9
G01 X60
G01 X74.9
G01 X90
G01 X104.9
G01 X119.9
G01 X135
G01 X149.9
G01 X165
G01 X179.9
G01 X194.9
G01 X209.9
G01 X224.9
G01 X239.9
G01 X254.9
G01 X269.899
G01 X284.899
G01 X285 Y-112.2
G01 X269.899
G01 X255
G01 X239.9
G01 X224.9
G01 X209.9
G01 X195
G01 X180
G01 X164.9
G01 X150
G01 X134.9
G01 X120
G01 X105
G01 X89.9
G01 X75
G01 X59.9
G01 X45
G01 X30
G01 X15
G01 X0
G01 X-15
G01 X-30
G01 X-45
G01 X-60
G01 X-75
G01 X-90
G01 X-105
G01 X-120
G01 X-135
G01 X-150
G01 X-165
G01 X-180
G01 X-195
G01 X-210
G01 X-225
G01 X-240
G01 X-255
G01 X-270
G01 X-285
G01 X-300
G01  Y-112.099
G01 X-285
G01 X-270
G01 X-255
G01 X-240
G01 X-225
G01 X-210
G01 X-195
G01 X-180
G01 X-165
G01 X-150
G01 X-135.1
G01 X-120
G01 X-105.099
G01 X-90
G01 X-75.099
G01 X-60.1
G01 X-45.1
G01 X-30
G01 X-15.1
G01 X0
G01 X14.9
G01 X29.899
G01 X44.9
G01 X59.9
G01 X74.9
G01 X89.9
G01 X104.9
G01 X119.9
G01 X134.9
G01 X149.9
G01 X164.9
G01 X179.9
G01 X194.9
G01 X209.9
G01 X224.9
G01 X239.9
G01 X254.9
G01 X269.899
G01 X284.899
G01  Y-112
G01 X269.899
G01 X254.9
G01 X239.9
G01 X225
G01 X209.9
G01 X194.9
G01 X179.9
G01 X165
G01 X149.9
G01 X135
G01 X119.9
G01 X104.9
G01 X90
G01 X75
G01 X60
G01 X45
G01 X30
G01 X15
G01 X0
G01 X-15
G01 X-30
G01 X-45
G01 X-60
G01 X-75
G01 X-90
G01 X-105
G01 X-120
G01 X-135
G01 X-150
G01 X-165
G01 X-180
G01 X-195
G01 X-210
G01 X-225
G01 X-240
G01 X-255
G01 X-270
G01 X-285
G01 X-300
G01  Y-111.9
G01 X-285
G01 X-270
G01 X-255
G01 X-240
G01 X-225
G01 X-210
G01 X-195
G01 X-180
G01 X-165
G01 X-150
G01 X-135
G01 X-120
G01 X-105
G01 X-90
G01 X-75
G01 X-60
G01 X-45
G01 X-30.1
G01 X-15
G01 X-0.1
G01 X15
G01 X30
G01 X45
G01 X60
G01 X75
G01 X90
G01 X105
G01 X120
G01 X134.9
G01 X149.9
G01 X164.9
G01 X179.9
G01 X195
G01 X209.9
G01 X224.9
G01 X239.9
G01 X254.9
G01 X269.899
G01 X284.899
G01  Y-111.8
G01 X269.899
G01 X255
G01 X239.9
G01 X224.9
G01 X209.9
G01 X194.9
G01 X180
G01 X164.9
G01 X150
G01 X134.9
G01 X119.9
G01 X104.9
G01 X89.9
G01 X74.9
G01 X59.9
G01 X44.9
G01 X29.899
G01 X14.9
G01 X0
G01 X-15.1
G01 X-30
G01 X-45.1
G01 X-60
G01 X-75
G01 X-90
G01 X-105
G01 X-120
G01 X-135
G01 X-150
G01 X-165
G01 X-180
G01 X-195
G01 X-210
G01 X-225
G01 X-240
G01 X-255
G01 X-270
G01 X-285
G01 X-300
G01  Y-111.7
G01 X-285
G01 X-270
G01 X-255
G01 X-240
G01 X-225
G01 X-210
G01 X-195
G01 X-180
G01 X-165
G01 X-150
G01 X-135
G01 X-120
G01 X-105
G01 X-90
G01 X-75.099
G01 X-60
G01 X-45
G01 X-30
G01 X-15
G01 X0
G01 X15
G01 X30
G01 X45
G01 X59.9
G01 X75
G01 X89.9
G01 X105
G01 X119.9
G01 X135
G01 X149.9
G01 X165
G01 X179.9
G01 X194.9
G01 X209.9
G01 X224.9
G01 X239.9
G01 X254.9
G01 X269.899
G01 X284.899
G01 X285 Y-111.599
G01 X269.899
G01 X254.9
G01 X239.9
G01 X225
G01 X209.9
G01 X195
G01 X179.9
G01 X164.9
G01 X149.9
G01 X134.9
G01 X120
G01 X104.9
G01 X90
G01 X75
G01 X60
G01 X45
G01 X30
G01 X15
G01 X0
G01 X-15
G01 X-30
G01 X-45
G01 X-60
G01 X-75
G01 X-90
G01 X-105
G01 X-120
G01 X-135
G01 X-150
G01 X-165
G01 X-180
G01 X-195
G01 X-210
G01 X-225
G01 X-240
G01 X-255
G01 X-270
G01 X-285
G01 X-300
G01  Y-111.5
G01 X-285
G01 X-270
G01 X-255
G01 X-240
G01 X-225
G01 X-210
G01 X-195
G01 X-180
G01 X-165
G01 X-150
G01 X-135.1
G01 X-120
G01 X-105.099
G01 X-90
G01 X-75
G01 X-60
G01 X-45.1
G01 X-30.1
G01 X-15.1
G01 X-0.1
G01 X14.9
G01 X29.899
G01 X44.9
G01 X60
G01 X74.9
G01 X90
G01 X104.9
G01 X119.9
G01 X134.9
G01 X149.9
G01 X164.9
G01 X179.9
G01 X194.9
G01 X209.9
G01 X224.9
G01 X239.9
G01 X254.9
G01 X269.899
G01 X284.899
G01  Y-111.4
G01 X269.899
G01 X255
G01 X239.9
G01 X224.9
G01 X209.9
G01 X194.9
G01 X180
G01 X165
G01 X150
G01 X135
G01 X119.9
G01 X105
G01 X89.9
G01 X75
G01 X59.9
G01 X45
G01 X30
G01 X15
G01 X0
G01 X-15
G01 X-30
G01 X-45
G01 X-60
G01 X-75
G01 X-90
G01 X-105
G01 X-120
G01 X-135
G01 X-150
G01 X-165
G01 X-180
G01 X-195
G01 X-210
G01 X-225
G01 X-240
G01 X-255
G01 X-270
G01 X-285
G01 X-300
G01  Y-111.3
G01 X-285
G01 X-270
G01 X-255
G01 X-240
G01 X-225
G01 X-210
G01 X-195
G01 X-180
G01 X-165
G01 X-150
G01 X-135
G01 X-120
G01 X-105
G01 X-90
G01 X-75.099
G01 X-60
G01 X-45
G01 X-30
G01 X-15
G01 X0
G01 X15
G01 X30
G01 X44.9
G01 X59.9
G01 X74.9
G01 X89.9
G01 X105
G01 X120
G01 X134.9
G01 X149.9
G01 X164.9
G01 X179.9
G01 X195
G01 X209.9
G01 X224.9
G01 X239.9
G01 X254.9
G01 X269.899
G01 X284.899
G01  Y-111.2
G01 X269.899
G01 X254.9
G01 X239.9
G01 X225
G01 X209.9
G01 X194.9
G01 X179.9
G01 X164.9
G01 X149.9
G01 X134.9
G01 X119.9
G01 X104.9
G01 X90
G01 X75
G01 X60
G01 X45
G01 X29.899
G01 X14.9
G01 X0
G01 X-15.1
G01 X-30
G01 X-45.1
G01 X-60
G01 X-75
G01 X-90
G01 X-105
G01 X-120
G01 X-135
G01 X-150
G01 X-165
G01 X-180
G01 X-195
G01 X-210
G01 X-225
G01 X-240
G01 X-255
G01 X-270
G01 X-285
G01 X-300
G01  Y-111.099
G01 X-285
G01 X-270
G01 X-255
G01 X-240
G01 X-225
G01 X-210
G01 X-195
G01 X-180
G01 X-165
G01 X-150
G01 X-135
G01 X-120
G01 X-105
G01 X-90
G01 X-75
G01 X-60
G01 X-45
G01 X-30.1
G01 X-15
G01 X-0.1
G01 X15
G01 X30
G01 X45
G01 X60
G01 X75
G01 X90
G01 X104.9
G01 X119.9
G01 X135
G01 X149.9
G01 X165
G01 X179.9
G01 X194.9
G01 X209.9
G01 X224.9
G01 X239.9
G01 X254.9
G01 X269.899
G01 X284.899
G01 X285 Y-111
G01 X269.899
G01 X254.9
G01 X239.9
G01 X224.9
G01 X209.9
G01 X195
G01 X180
G01 X164.9
G01 X150
G01 X134.9
G01 X120
G01 X105
G01 X89.9
G01 X74.9
G01 X59.9
G01 X44.9
G01 X30
G01 X15
G01 X0
G01 X-15
G01 X-30
G01 X-45
G01 X-60
G01 X-75
G01 X-90
G01 X-105
G01 X-120
G01 X-135
G01 X-150
G01 X-165
G01 X-180
G01 X-195
G01 X-210
G01 X-225
G01 X-240
G01 X-255
G01 X-270
G01 X-285
G01 X-300
G01  Y-110.9
G01 X-285
G01 X-270
G01 X-255
G01 X-240
G01 X-225
G01 X-210
G01 X-195
G01 X-180
G01 X-165
G01 X-150
G01 X-135.1
G01 X-120
G01 X-105.099
G01 X-90
G01 X-75.099
G01 X-60
G01 X-45.1
G01 X-30
G01 X-15.1
G01 X0
G01 X14.9
G01 X29.899
G01 X45
G01 X59.9
G01 X75
G01 X89.9
G01 X104.9
G01 X119.9
G01 X134.9
G01 X149.9
G01 X164.9
G01 X179.9
G01 X194.9
G01 X209.9
G01 X224.9
G01 X239.9
G01 X255
G01 X269.899
G01 X284.899
G01  Y-110.8
G01 X269.899
G01 X254.9
G01 X239.9
G01 X224.9
G01 X209.9
G01 X194.9
G01 X179.9
G01 X165
G01 X149.9
G01 X135
G01 X119.9
G01 X105
G01 X90
G01 X75
G01 X60
G01 X45
G01 X30
G01 X15
G01 X0
G01 X-15
G01 X-30
G01 X-45
G01 X-60
G01 X-75
G01 X-90
G01 X-105
G01 X-120
G01 X-135
G01 X-150
G01 X-165
G01 X-180
G01 X-195
G01 X-210
G01 X-225
G01 X-240
G01 X-255
G01 X-270
G01 X-285
G01 X-300
G01  Y-110.7
G01 X-285
G01 X-270
G01 X-255
G01 X-240
G01 X-225
G01 X-210
G01 X-195
G01 X-180
G01 X-165
G01 X-150
G01 X-135
G01 X-120
G01 X-105
G01 X-90
G01 X-75
G01 X-60
G01 X-45
G01 X-30.1
G01 X-15
G01 X-0.1
G01 X15
G01 X30
G01 X44.9
G01 X60
G01 X74.9
G01 X90
G01 X104.9
G01 X120
G01 X134.9
G01 X149.9
G01 X164.9
G01 X179.9
G01 X195
G01 X209.9
G01 X225
G01 X239.9
G01 X254.9
G01 X269.899
G01 X284.899
G01  Y-110.599
G01 X269.899
G01 X255
G01 X239.9
G01 X224.9
G01 X209.9
G01 X194.9
G01 X180
G01 X164.9
G01 X150
G01 X134.9
G01 X119.9
G01 X104.9
G01 X89.9
G01 X75
G01 X59.9
G01 X45
G01 X29.899
G01 X14.9
G01 X0
G01 X-15.1
G01 X-30
G01 X-45.1
G01 X-60
G01 X-75
G01 X-90
G01 X-105
G01 X-120
G01 X-135
G01 X-150
G01 X-165
G01 X-180
G01 X-195
G01 X-210
G01 X-225
G01 X-240
G01 X-255
G01 X-270
G01 X-285
G01 X-300
G01  Y-110.5
G01 X-285
G01 X-270
G01 X-255
G01 X-240
G01 X-225
G01 X-210
G01 X-195
G01 X-180
G01 X-165
G01 X-150
G01 X-135
G01 X-120
G01 X-105
G01 X-90
G01 X-75.099
G01 X-60
G01 X-45
G01 X-30
G01 X-15
G01 X0
G01 X15
G01 X30
G01 X44.9
G01 X59.9
G01 X74.9
G01 X89.9
G01 X105
G01 X119.9
G01 X135
G01 X149.9
G01 X165
G01 X179.9
G01 X194.9
G01 X209.9
G01 X224.9
G01 X239.9
G01 X254.9
G01 X269.899
G01 X284.899
G01 X285 Y-110.4
G01 X269.899
G01 X254.9
G01 X239.9
G01 X225
G01 X209.9
G01 X195
G01 X179.9
G01 X164.9
G01 X149.9
G01 X134.9
G01 X120
G01 X105
G01 X90
G01 X75
G01 X60
G01 X45
G01 X30
G01 X15
G01 X0
G01 X-15
G01 X-30
G01 X-45
G01 X-60
G01 X-75
G01 X-90
G01 X-105
G01 X-120
G01 X-135
G01 X-150
G01 X-165
G01 X-180
G01 X-195
G01 X-210
G01 X-225
G01 X-240
G01 X-255
G01 X-270
G01 X-285
G01 X-300
G01  Y-110.3
G01 X-285
G01 X-270
G01 X-255
G01 X-240
G01 X-225
G01 X-210
G01 X-195
G01 X-180
G01 X-165
G01 X-150
G01 X-135.1
G01 X-120
G01 X-105.099
G01 X-90
G01 X-75
G01 X-60
G01 X-45.1
G01 X-30.1
G01 X-15.1
G01 X-0.1
G01 X14.9
G01 X29.899
G01 X45
G01 X60
G01 X75
G01 X90
G01 X104.9
G01 X119.9
G01 X134.9
G01 X149.9
G01 X164.9
G01 X179.9
G01 X194.9
G01 X209.9
G01 X224.9
G01 X239.9
G01 X254.9
G01 X269.899
G01 X284.899
G01  Y-110.2
G01 X269.899
G01 X255
G01 X239.9
G01 X224.9
G01 X209.9
G01 X194.9
G01 X180
G01 X165
G01 X150
G01 X135
G01 X119.9
G01 X105
G01 X89.9
G01 X74.9
G01 X59.9
G01 X44.9
G01 X30
G01 X15
G01 X0
G01 X-15
G01 X-30
G01 X-45
G01 X-60
G01 X-75
G01 X-90
G01 X-105
G01 X-120
G01 X-135
G01 X-150
G01 X-165
G01 X-180
G01 X-195
G01 X-210
G01 X-225
G01 X-240
G01 X-255
G01 X-270
G01 X-285
G01 X-300
G01  Y-110.099
G01 X-284.899
G01 X-270
G01 X-255
G01 X-240
G01 X-225
G01 X-210
G01 X-195
G01 X-180
G01 X-165
G01 X-150
G01 X-135
G01 X-120
G01 X-105
G01 X-90
G01 X-75.099
G01 X-60
G01 X-45
G01 X-30
G01 X-15
G01 X0
G01 X15
G01 X30
G01 X45
G01 X59.9
G01 X75
G01 X89.9
G01 X104.9
G01 X120
G01 X134.9
G01 X149.9
G01 X164.9
G01 X179.9
G01 X195
G01 X209.9
G01 X224.9
G01 X239.9
G01 X254.9
G01 X269.899
G01 X284.899
G01  Y-110
G01 X269.899
G01 X254.9
G01 X239.9
G01 X225
G01 X209.9
G01 X194.9
G01 X179.9
G01 X164.9
G01 X149.9
G01 X134.9
G01 X119.9
G01 X104.9
G01 X90
G01 X75
G01 X60
G01 X45
G01 X29.899
G01 X14.9
G01 X0
G01 X-15.1
G01 X-30
G01 X-45.1
G01 X-60
G01 X-75
G01 X-90
G01 X-105
G01 X-120
G01 X-135
G01 X-150
G01 X-165
G01 X-180
G01 X-195
G01 X-210
G01 X-225
G01 X-240
G01 X-255
G01 X-270
G01 X-285
G01 X-300
G01  Y-109.9
G01 X-285
G01 X-270
G01 X-255.1
G01 X-240
G01 X-225
G01 X-210
G01 X-195
G01 X-180
G01 X-165
G01 X-150
G01 X-135
G01 X-120
G01 X-105
G01 X-90
G01 X-75
G01 X-60
G01 X-45
G01 X-30.1
G01 X-15
G01 X-0.1
G01 X15
G01 X30
G01 X44.9
G01 X60
G01 X74.9
G01 X90
G01 X105
G01 X119.9
G01 X135
G01 X149.9
G01 X165
G01 X179.9
G01 X194.9
G01 X209.9
G01 X224.9
G01 X239.9
G01 X254.9
G01 X269.899
G01 X284.899
G01 X285 Y-109.8
G01 X269.899
G01 X255
G01 X239.9
G01 X224.9
G01 X209.9
G01 X195
G01 X180
G01 X164.9
G01 X150
G01 X134.9
G01 X120
G01 X104.9
G01 X89.9
G01 X75
G01 X59.9
G01 X45
G01 X30
G01 X15
G01 X0
G01 X-15
G01 X-30
G01 X-45
G01 X-60
G01 X-75
G01 X-90
G01 X-105
G01 X-120
G01 X-135
G01 X-150
G01 X-165
G01 X-180
G01 X-195
G01 X-210
G01 X-225
G01 X-240
G01 X-255
G01 X-270
G01 X-285
G01 X-300
G01  Y-109.7
G01 X-285
G01 X-270
G01 X-255
G01 X-240
G01 X-225
G01 X-210
G01 X-195
G01 X-180
G01 X-165
G01 X-150
G01 X-135.1
G01 X-120
G01 X-105.099
G01 X-90
G01 X-75.099
G01 X-60.1
G01 X-45.1
G01 X-30
G01 X-15.1
G01 X0
G01 X14.9
G01 X29.899
G01 X44.9
G01 X59.9
G01 X74.9
G01 X89.9
G01 X105
G01 X119.9
G01 X134.9
G01 X149.9
G01 X164.9
G01 X179.9
G01 X194.9
G01 X209.9
G01 X224.9
G01 X239.9
G01 X254.9
G01 X269.899
G01 X284.899
G01  Y-109.599
G01 X269.899
G01 X254.9
G01 X239.9
G01 X225
G01 X209.9
G01 X194.9
G01 X179.9
G01 X165
G01 X149.9
G01 X135
G01 X119.9
G01 X104.9
G01 X90
G01 X75
G01 X60
G01 X45
G01 X30
G01 X15
G01 X0
G01 X-15
G01 X-30
G01 X-45
G01 X-60
G01 X-75
G01 X-90
G01 X-105
G01 X-120
G01 X-135
G01 X-150
G01 X-165
G01 X-180
G01 X-195
G01 X-210
G01 X-225
G01 X-240
G01 X-255
G01 X-270
G01 X-284.899
G01 X-300
G01  Y-109.5
G01 X-285
G01 X-270
G01 X-255
G01 X-240
G01 X-225
G01 X-210
G01 X-195
G01 X-180
G01 X-165
G01 X-150
G01 X-135
G01 X-120
G01 X-105
G01 X-90
G01 X-75
G01 X-60
G01 X-45
G01 X-30.1
G01 X-15
G01 X-0.1
G01 X15
G01 X30
G01 X45
G01 X60
G01 X75
G01 X90
G01 X104.9
G01 X120
G01 X134.9
G01 X149.9
G01 X164.9
G01 X179.9
G01 X195
G01 X209.9
G01 X224.9
G01 X239.9
G01 X254.9
G01 X269.899
G01 X284.899
G01  Y-109.4
G01 X269.899
G01 X255
G01 X239.9
G01 X224.9
G01 X209.9
G01 X194.9
G01 X180
G01 X164.9
G01 X150
G01 X134.9
G01 X119.9
G01 X105
G01 X89.9
G01 X74.9
G01 X59.9
G01 X44.9
G01 X29.899
G01 X14.9
G01 X0
G01 X-15.1
G01 X-30
G01 X-45.1
G01 X-60
G01 X-75
G01 X-90
G01 X-105
G01 X-120
G01 X-135
G01 X-150
G01 X-165
G01 X-180
G01 X-195
G01 X-210
G01 X-225
G01 X-240
G01 X-255
G01 X-270
G01 X-285
G01 X-300
G01  Y-109.3
G01 X-285
G01 X-270
G01 X-255
G01 X-240
G01 X-225
G01 X-210
G01 X-195
G01 X-180
G01 X-165
G01 X-150
G01 X-135
G01 X-120
G01 X-105
G01 X-90
G01 X-75.099
G01 X-60
G01 X-45
G01 X-30
G01 X-15
G01 X0
G01 X15
G01 X30
G01 X45
G01 X59.9
G01 X75
G01 X89.9
G01 X105
G01 X119.9
G01 X135
G01 X149.9
G01 X165
G01 X179.9
G01 X194.9
G01 X209.9
G01 X224.9
G01 X239.9
G01 X254.9
G01 X269.899
G01 X284.899
G01 X285 Y-109.2
G01 X269.899
G01 X254.9
G01 X239.9
G01 X225
G01 X209.9
G01 X195
G01 X179.9
G01 X164.9
G01 X149.9
G01 X134.9
G01 X120
G01 X104.9
G01 X90
G01 X75
G01 X60
G01 X45
G01 X30
G01 X15
G01 X0
G01 X-15
G01 X-30
G01 X-45
G01 X-60
G01 X-75
G01 X-90
G01 X-105
G01 X-120
G01 X-135
G01 X-150
G01 X-165
G01 X-180
G01 X-195
G01 X-210
G01 X-225
G01 X-240
G01 X-255
G01 X-270
G01 X-285
G01 X-300
G01  Y-109.099
G01 X-284.899
G01 X-270
G01 X-254.9
G01 X-240
G01 X-225
G01 X-210
G01 X-195
G01 X-180
G01 X-165
G01 X-150
G01 X-135.1
G01 X-120
G01 X-105.099
G01 X-90
G01 X-75
G01 X-60
G01 X-45.1
G01 X-30.1
G01 X-15.1
G01 X-0.1
G01 X14.9
G01 X29.899
G01 X44.9
G01 X60
G01 X74.9
G01 X90
G01 X104.9
G01 X119.9
G01 X134.9
G01 X149.9
G01 X164.9
G01 X179.9
G01 X194.9
G01 X209.9
G01 X224.9
G01 X239.9
G01 X254.9
G01 X269.899
G01 X284.899
G01  Y-109
G01 X269.899
G01 X255
G01 X239.9
G01 X224.9
G01 X209.9
G01 X194.9
G01 X180
G01 X165
G01 X150
G01 X135
G01 X119.9
G01 X105
G01 X89.9
G01 X75
G01 X59.9
G01 X45
G01 X30
G01 X15
G01 X0
G01 X-15
G01 X-30
G01 X-45
G01 X-60
G01 X-75
G01 X-90
G01 X-105
G01 X-120
G01 X-135
G01 X-150
G01 X-165
G01 X-180
G01 X-195
G01 X-210
G01 X-225
G01 X-240
G01 X-255
G01 X-270
G01 X-285
G01 X-300
G01  Y-108.9
G01 X-285
G01 X-270
G01 X-255
G01 X-240
G01 X-225
G01 X-210
G01 X-195
G01 X-180
G01 X-165
G01 X-150
G01 X-135
G01 X-120
G01 X-105
G01 X-90
G01 X-75.099
G01 X-60
G01 X-45
G01 X-30
G01 X-15
G01 X0
G01 X15
G01 X30
G01 X44.9
G01 X59.9
G01 X74.9
G01 X89.9
G01 X104.9
G01 X120
G01 X134.9
G01 X149.9
G01 X164.9
G01 X179.9
G01 X195
G01 X209.9
G01 X224.9
G01 X239.9
G01 X254.9
G01 X269.899
G01 X284.899
G01  Y-108.8
G01 X269.899
G01 X254.9
G01 X239.9
G01 X225
G01 X209.9
G01 X194.9
G01 X179.9
G01 X164.9
G01 X149.9
G01 X134.9
G01 X119.9
G01 X105
G01 X90
G01 X75
G01 X60
G01 X45
G01 X29.899
G01 X14.9
G01 X0
G01 X-15.1
G01 X-30
G01 X-45.1
G01 X-60
G01 X-75
G01 X-90
G01 X-105
G01 X-120
G01 X-135
G01 X-150
G01 X-165
G01 X-180
G01 X-195
G01 X-210
G01 X-225
G01 X-240
G01 X-254.9
G01 X-270
G01 X-285
G01 X-300
G01  Y-108.7
G01 X-285
G01 X-270
G01 X-255
G01 X-240
G01 X-225
G01 X-210
G01 X-195
G01 X-180
G01 X-165
G01 X-150
G01 X-135
G01 X-120
G01 X-105
G01 X-90
G01 X-75
G01 X-60
G01 X-45
G01 X-30.1
G01 X-15
G01 X-0.1
G01 X15
G01 X30
G01 X45
G01 X60
G01 X75
G01 X90
G01 X104.9
G01 X119.9
G01 X135
G01 X149.9
G01 X165
G01 X179.9
G01 X194.9
G01 X209.9
G01 X224.9
G01 X239.9
G01 X254.9
G01 X269.899
G01 X284.899
G01 X285 Y-108.599
G01 X269.899
G01 X255
G01 X239.9
G01 X224.9
G01 X209.9
G01 X195
G01 X180
G01 X164.9
G01 X150
G01 X134.9
G01 X120
G01 X104.9
G01 X89.9
G01 X74.9
G01 X59.9
G01 X44.9
G01 X30
G01 X15
G01 X0
G01 X-15
G01 X-30
G01 X-45
G01 X-60
G01 X-75
G01 X-90
G01 X-105
G01 X-120
G01 X-135
G01 X-150
G01 X-165
G01 X-180
G01 X-195
G01 X-210
G01 X-225
G01 X-240
G01 X-255
G01 X-270
G01 X-285
G01 X-300
G01  Y-108.5
G01 X-285
G01 X-270
G01 X-255
G01 X-240
G01 X-225
G01 X-210
G01 X-195
G01 X-180
G01 X-165
G01 X-150
G01 X-135.1
G01 X-120
G01 X-105.099
G01 X-90
G01 X-75.099
G01 X-60
G01 X-45.1
G01 X-30
G01 X-15.1
G01 X0
G01 X14.9
G01 X29.899
G01 X45
G01 X59.9
G01 X75
G01 X89.9
G01 X105
G01 X119.9
G01 X134.9
G01 X149.9
G01 X164.9
G01 X179.9
G01 X194.9
G01 X209.9
G01 X224.9
G01 X239.9
G01 X254.9
G01 X269.899
G01 X284.899
G01  Y-108.4
G01 X269.899
G01 X254.9
G01 X239.9
G01 X225
G01 X209.9
G01 X194.9
G01 X179.9
G01 X165
G01 X149.9
G01 X135
G01 X119.9
G01 X105
G01 X90
G01 X75
G01 X60
G01 X45
G01 X30
G01 X15
G01 X0
G01 X-15
G01 X-30
G01 X-45
G01 X-60
G01 X-75
G01 X-90
G01 X-105
G01 X-120
G01 X-135
G01 X-150
G01 X-165
G01 X-180
G01 X-195
G01 X-210
G01 X-225
G01 X-240
G01 X-255
G01 X-270
G01 X-285
G01 X-300
G01  Y-108.3
G01 X-285
G01 X-270
G01 X-255
G01 X-240
G01 X-225
G01 X-210
G01 X-195
G01 X-180
G01 X-165
G01 X-150
G01 X-135
G01 X-120
G01 X-105
G01 X-90
G01 X-75
G01 X-60
G01 X-45
G01 X-30.1
G01 X-15
G01 X-0.1
G01 X15
G01 X30
G01 X44.9
G01 X60
G01 X74.9
G01 X90
G01 X104.9
G01 X120
G01 X134.9
G01 X149.9
G01 X164.9
G01 X179.9
G01 X195
G01 X209.9
G01 X224.9
G01 X239.9
G01 X254.9
G01 X269.899
G01 X284.899
G01  Y-108.2
G01 X269.899
G01 X255
G01 X239.9
G01 X224.9
G01 X209.9
G01 X194.9
G01 X180
G01 X164.9
G01 X150
G01 X134.9
G01 X119.9
G01 X105
G01 X89.9
G01 X75
G01 X59.9
G01 X45
G01 X29.899
G01 X14.9
G01 X0
G01 X-15.1
G01 X-30
G01 X-45.1
G01 X-60
G01 X-75
G01 X-90
G01 X-105
G01 X-120
G01 X-135
G01 X-150
G01 X-165
G01 X-180
G01 X-195
G01 X-210
G01 X-225
G01 X-240
G01 X-255
G01 X-270
G01 X-285
G01 X-300
G01  Y-108.099
G01 X-285
G01 X-270
G01 X-255
G01 X-240
G01 X-225
G01 X-210
G01 X-195
G01 X-180
G01 X-165
G01 X-150
G01 X-135
G01 X-120
G01 X-105
G01 X-90
G01 X-75.099
G01 X-60
G01 X-45
G01 X-30
G01 X-15
G01 X0
G01 X15
G01 X30
G01 X44.9
G01 X59.9
G01 X74.9
G01 X89.9
G01 X104.9
G01 X119.9
G01 X135
G01 X149.9
G01 X165
G01 X179.9
G01 X194.9
G01 X209.9
G01 X224.9
G01 X239.9
G01 X254.9
G01 X269.899
G01 X284.899
G01 X285 Y-108
G01 X269.899
G01 X254.9
G01 X239.9
G01 X225
G01 X209.9
G01 X195
G01 X179.9
G01 X164.9
G01 X149.9
G01 X134.9
G01 X120
G01 X104.9
G01 X90
G01 X75
G01 X60
G01 X45
G01 X30
G01 X15
G01 X0
G01 X-15
G01 X-30
G01 X-45
G01 X-60
G01 X-75
G01 X-90
G01 X-105
G01 X-120
G01 X-135
G01 X-150
G01 X-165
G01 X-180
G01 X-195
G01 X-210
G01 X-225
G01 X-240
G01 X-255
G01 X-270
G01 X-285
G01 X-300
G01  Y-107.9
G01 X-285
G01 X-270
G01 X-255
G01 X-240
G01 X-225
G01 X-210
G01 X-195
G01 X-180
G01 X-165
G01 X-150
G01 X-135.1
G01 X-120
G01 X-105.099
G01 X-90
G01 X-75
G01 X-60
G01 X-45.1
G01 X-30.1
G01 X-15.1
G01 X-0.1
G01 X14.9
G01 X29.899
G01 X45
G01 X60
G01 X75
G01 X90
G01 X105
G01 X119.9
G01 X134.9
G01 X149.9
G01 X164.9
G01 X179.9
G01 X194.9
G01 X209.9
G01 X224.9
G01 X239.9
G01 X254.9
G01 X269.899
G01 X284.899
G01  Y-107.8
G01 X269.899
G01 X255
G01 X239.9
G01 X224.9
G01 X209.9
G01 X194.9
G01 X180
G01 X165
G01 X150
G01 X135
G01 X119.9
G01 X104.9
G01 X89.9
G01 X74.9
G01 X59.9
G01 X44.9
G01 X30
G01 X15
G01 X0
G01 X-15
G01 X-30
G01 X-45
G01 X-60
G01 X-75
G01 X-90
G01 X-105
G01 X-120
G01 X-135
G01 X-150
G01 X-165
G01 X-180
G01 X-195
G01 X-210
G01 X-225
G01 X-240
G01 X-255
G01 X-270
G01 X-285
G01 X-300
G01  Y-107.7
G01 X-285
G01 X-270
G01 X-255
G01 X-240
G01 X-225
G01 X-210
G01 X-195
G01 X-180
G01 X-165
G01 X-150
G01 X-135
G01 X-120
G01 X-105
G01 X-90
G01 X-75.099
G01 X-60
G01 X-45
G01 X-30
G01 X-15
G01 X0
G01 X15
G01 X30
G01 X45
G01 X59.9
G01 X75
G01 X89.9
G01 X105
G01 X120
G01 X134.9
G01 X149.9
G01 X164.9
G01 X179.9
G01 X195
G01 X209.9
G01 X224.9
G01 X239.9
G01 X254.9
G01 X269.899
G01 X284.899
G01  Y-107.599
G01 X269.899
G01 X254.9
G01 X239.9
G01 X225
G01 X209.9
G01 X194.9
G01 X179.9
G01 X164.9
G01 X149.9
G01 X134.9
G01 X119.9
G01 X104.9
G01 X90
G01 X75
G01 X60
G01 X45
G01 X29.899
G01 X14.9
G01 X0
G01 X-15.1
G01 X-30
G01 X-45.1
G01 X-60
G01 X-75
G01 X-90
G01 X-105
G01 X-120
G01 X-135
G01 X-150
G01 X-165
G01 X-180
G01 X-195
G01 X-210
G01 X-225
G01 X-240
G01 X-255
G01 X-270
G01 X-285
G01 X-300
G01  Y-107.5
G01 X-285
G01 X-270
G01 X-255
G01 X-240
G01 X-225
G01 X-210
G01 X-195
G01 X-180
G01 X-165
G01 X-150
G01 X-135
G01 X-120
G01 X-105
G01 X-90
G01 X-75
G01 X-60.1
G01 X-45
G01 X-30.1
G01 X-15
G01 X-0.1
G01 X15
G01 X30
G01 X44.9
G01 X60
G01 X74.9
G01 X90
G01 X104.9
G01 X119.9
G01 X135
G01 X149.9
G01 X165
G01 X179.9
G01 X194.9
G01 X209.9
G01 X224.9
G01 X239.9
G01 X254.9
G01 X269.899
G01 X284.899
G01 X285 Y-107.4
G01 X269.899
G01 X255
G01 X239.9
G01 X224.9
G01 X209.9
G01 X195
G01 X180
G01 X164.9
G01 X150
G01 X134.9
G01 X120
G01 X105
G01 X89.9
G01 X75
G01 X59.9
G01 X45
G01 X30
G01 X15
G01 X0
G01 X-15
G01 X-30
G01 X-45
G01 X-60
G01 X-75
G01 X-90
G01 X-105
G01 X-120
G01 X-135
G01 X-150
G01 X-165
G01 X-180
G01 X-195
G01 X-210
G01 X-225
G01 X-240
G01 X-255
G01 X-270
G01 X-285
G01 X-300
G01  Y-107.3
G01 X-285
G01 X-270
G01 X-255
G01 X-240
G01 X-225
G01 X-210
G01 X-195
G01 X-180
G01 X-165
G01 X-150
G01 X-135.1
G01 X-120
G01 X-105.099
G01 X-90
G01 X-75.099
G01 X-60
G01 X-45.1
G01 X-30
G01 X-15.1
G01 X0
G01 X14.9
G01 X29.899
G01 X44.9
G01 X59.9
G01 X74.9
G01 X89.9
G01 X105
G01 X119.9
G01 X134.9
G01 X149.9
G01 X164.9
G01 X179.9
G01 X194.9
G01 X209.9
G01 X224.9
G01 X239.9
G01 X254.9
G01 X269.899
G01 X284.899
G01  Y-107.2
G01 X269.899
G01 X254.9
G01 X239.9
G01 X225
G01 X209.9
G01 X194.9
G01 X179.9
G01 X165
G01 X149.9
G01 X135
G01 X119.9
G01 X104.9
G01 X90
G01 X75
G01 X60
G01 X45
G01 X30
G01 X15
G01 X0
G01 X-15
G01 X-30
G01 X-45
G01 X-60
G01 X-75
G01 X-90
G01 X-105
G01 X-120
G01 X-135
G01 X-150
G01 X-165
G01 X-180
G01 X-195
G01 X-210
G01 X-225
G01 X-240
G01 X-255
G01 X-270
G01 X-285
G01 X-300
G01  Y-107.099
G01 X-285
G01 X-270
G01 X-255
G01 X-240
G01 X-225
G01 X-210
G01 X-195
G01 X-180
G01 X-165
G01 X-150
G01 X-135
G01 X-120
G01 X-105
G01 X-90
G01 X-75
G01 X-60
G01 X-45
G01 X-30.1
G01 X-15
G01 X-0.1
G01 X15
G01 X30
G01 X45
G01 X60
G01 X75
G01 X90
G01 X104.9
G01 X120
G01 X134.9
G01 X149.9
G01 X164.9
G01 X179.9
G01 X195
G01 X209.9
G01 X224.9
G01 X239.9
G01 X254.9
G01 X269.899
G01 X284.899
G01  Y-107
G01 X269.899
G01 X255
G01 X239.9
G01 X224.9
G01 X209.9
G01 X194.9
G01 X180
G01 X164.9
G01 X150
G01 X134.9
G01 X119.9
G01 X105
G01 X89.9
G01 X74.9
G01 X59.9
G01 X44.9
G01 X29.899
G01 X14.9
G01 X0
G01 X-15.1
G01 X-30
G01 X-45.1
G01 X-60
G01 X-75
G01 X-90
G01 X-105
G01 X-120
G01 X-135
G01 X-150
G01 X-165
G01 X-180
G01 X-195
G01 X-210
G01 X-225
G01 X-240
G01 X-255
G01 X-270
G01 X-285
G01 X-300
G01  Y-106.9
G01 X-285
G01 X-270
G01 X-255
G01 X-240
G01 X-225
G01 X-210
G01 X-195
G01 X-180
G01 X-165
G01 X-150
G01 X-135
G01 X-120
G01 X-105
G01 X-90
G01 X-75.099
G01 X-60
G01 X-45
G01 X-30
G01 X-15
G01 X0
G01 X15
G01 X30
G01 X45
G01 X59.9
G01 X75
G01 X89.9
G01 X104.9
G01 X119.9
G01 X135
G01 X149.9
G01 X165
G01 X179.9
G01 X194.9
G01 X209.9
G01 X224.9
G01 X239.9
G01 X254.9
G01 X269.899
G01 X284.899
G01 X285 Y-106.8
G01 X269.899
G01 X254.9
G01 X239.9
G01 X225
G01 X209.9
G01 X195
G01 X179.9
G01 X164.9
G01 X149.9
G01 X134.9
G01 X120
G01 X105
G01 X90
G01 X75
G01 X60
G01 X45
G01 X30
G01 X15
G01 X0
G01 X-15
G01 X-30
G01 X-45
G01 X-60
G01 X-75
G01 X-90
G01 X-105
G01 X-120
G01 X-135
G01 X-150
G01 X-165
G01 X-180
G01 X-195
G01 X-210
G01 X-225
G01 X-240
G01 X-255
G01 X-270
G01 X-285
G01 X-300
G01  Y-106.7
G01 X-285
G01 X-270
G01 X-255
G01 X-240
G01 X-225
G01 X-210
G01 X-195
G01 X-180
G01 X-165
G01 X-150
G01 X-135.1
G01 X-120
G01 X-105.099
G01 X-90
G01 X-75
G01 X-60
G01 X-45.1
G01 X-30.1
G01 X-15.1
G01 X-0.1
G01 X14.9
G01 X29.899
G01 X44.9
G01 X60
G01 X74.9
G01 X90
G01 X104.9
G01 X119.9
G01 X134.9
G01 X149.9
G01 X164.9
G01 X179.9
G01 X194.9
G01 X209.9
G01 X224.9
G01 X239.9
G01 X254.9
G01 X269.899
G01 X284.899
G01  Y-106.599
G01 X269.899
G01 X255
G01 X239.9
G01 X224.9
G01 X209.9
G01 X194.9
G01 X180
G01 X165
G01 X150
G01 X135
G01 X119.9
G01 X104.9
G01 X89.9
G01 X75
G01 X59.9
G01 X45
G01 X30
G01 X15
G01 X0
G01 X-15
G01 X-30
G01 X-45
G01 X-60
G01 X-75
G01 X-90
G01 X-105
G01 X-120
G01 X-135
G01 X-150
G01 X-165
G01 X-180
G01 X-195
G01 X-210
G01 X-225
G01 X-240
G01 X-255
G01 X-270
G01 X-285
G01 X-300
G01  Y-106.5
G01 X-285
G01 X-270
G01 X-255
G01 X-240
G01 X-225
G01 X-210
G01 X-195
G01 X-180
G01 X-165
G01 X-150
G01 X-135
G01 X-120
G01 X-105
G01 X-90
G01 X-75.099
G01 X-60
G01 X-45
G01 X-30
G01 X-15
G01 X0
G01 X15
G01 X30
G01 X44.9
G01 X59.9
G01 X74.9
G01 X89.9
G01 X105
G01 X120
G01 X134.9
G01 X149.9
G01 X164.9
G01 X179.9
G01 X195
G01 X209.9
G01 X224.9
G01 X239.9
G01 X254.9
G01 X269.899
G01 X284.899
G01  Y-106.4
G01 X269.899
G01 X254.9
G01 X239.9
G01 X225
G01 X209.9
G01 X194.9
G01 X179.9
G01 X164.9
G01 X149.9
G01 X134.9
G01 X119.9
G01 X105
G01 X90
G01 X75
G01 X60
G01 X45
G01 X29.899
G01 X14.9
G01 X0
G01 X-15.1
G01 X-30
G01 X-45.1
G01 X-60
G01 X-75
G01 X-90
G01 X-105
G01 X-120
G01 X-135
G01 X-150
G01 X-165
G01 X-180
G01 X-195
G01 X-210
G01 X-225
G01 X-240
G01 X-255
G01 X-270
G01 X-285
G01 X-300
G01  Y-106.3
G01 X-285
G01 X-270
G01 X-255
G01 X-240
G01 X-225
G01 X-210
G01 X-195
G01 X-180
G01 X-165
G01 X-150
G01 X-135
G01 X-120
G01 X-105
G01 X-90
G01 X-75
G01 X-60
G01 X-45
G01 X-30.1
G01 X-15
G01 X-0.1
G01 X15
G01 X30
G01 X45
G01 X60
G01 X75
G01 X90
G01 X104.9
G01 X119.9
G01 X135
G01 X149.9
G01 X165
G01 X179.9
G01 X194.9
G01 X209.9
G01 X224.9
G01 X239.9
G01 X254.9
G01 X269.899
G01 X284.899
G01 X285 Y-106.2
G01 X269.899
G01 X255
G01 X239.9
G01 X224.9
G01 X209.9
G01 X195
G01 X180
G01 X164.9
G01 X150
G01 X134.9
G01 X120
G01 X105
G01 X89.9
G01 X74.9
G01 X59.9
G01 X44.9
G01 X30
G01 X15
G01 X0
G01 X-15
G01 X-30
G01 X-45
G01 X-60
G01 X-75
G01 X-90
G01 X-105
G01 X-120
G01 X-135
G01 X-150
G01 X-165
G01 X-180
G01 X-195
G01 X-210
G01 X-225
G01 X-240
G01 X-255
G01 X-270
G01 X-285
G01 X-300
G01  Y-106.099
G01 X-285
G01 X-270
G01 X-255
G01 X-240
G01 X-225
G01 X-210
G01 X-195
G01 X-180
G01 X-165
G01 X-150
G01 X-135.1
G01 X-120
G01 X-105.099
G01 X-90
G01 X-75.099
G01 X-60
G01 X-45.1
G01 X-30
G01 X-15.1
G01 X0
G01 X14.9
G01 X29.899
G01 X45
G01 X59.9
G01 X75
G01 X89.9
G01 X104.9
G01 X119.9
G01 X134.9
G01 X149.9
G01 X164.9
G01 X179.9
G01 X194.9
G01 X209.9
G01 X224.9
G01 X239.9
G01 X254.9
G01 X269.899
G01 X284.899
G01  Y-106
G01 X269.899
G01 X254.9
G01 X239.9
G01 X225
G01 X209.9
G01 X194.9
G01 X179.9
G01 X165
G01 X149.9
G01 X135
G01 X119.9
G01 X104.9
G01 X90
G01 X75
G01 X60
G01 X45
G01 X30
G01 X15
G01 X0
G01 X-15
G01 X-30
G01 X-45
G01 X-60
G01 X-75
G01 X-90
G01 X-105
G01 X-120
G01 X-135
G01 X-150
G01 X-165
G01 X-180
G01 X-195
G01 X-210
G01 X-225
G01 X-240
G01 X-255
G01 X-270
G01 X-285
G01 X-300
G01  Y-105.9
G01 X-285
G01 X-270
G01 X-255
G01 X-240
G01 X-225
G01 X-210
G01 X-195
G01 X-180
G01 X-165
G01 X-150
G01 X-135
G01 X-120
G01 X-105
G01 X-90
G01 X-75
G01 X-60
G01 X-45
G01 X-30.1
G01 X-15
G01 X-0.1
G01 X15
G01 X30
G01 X44.9
G01 X60
G01 X74.9
G01 X90
G01 X105
G01 X120
G01 X134.9
G01 X149.9
G01 X164.9
G01 X179.9
G01 X195
G01 X209.9
G01 X224.9
G01 X239.9
G01 X254.9
G01 X269.899
G01 X284.899
G01  Y-105.8
G01 X269.899
G01 X255
G01 X239.9
G01 X224.9
G01 X209.9
G01 X194.9
G01 X180
G01 X164.9
G01 X150
G01 X134.9
G01 X119.9
G01 X104.9
G01 X89.9
G01 X75
G01 X59.9
G01 X45
G01 X29.899
G01 X14.9
G01 X0
G01 X-15.1
G01 X-30
G01 X-45.1
G01 X-60
G01 X-75
G01 X-90
G01 X-105
G01 X-120
G01 X-135
G01 X-150
G01 X-165
G01 X-180
G01 X-195
G01 X-210
G01 X-225
G01 X-240
G01 X-255
G01 X-270
G01 X-285
G01 X-300
G01  Y-105.7
G01 X-285
G01 X-270
G01 X-255
G01 X-240
G01 X-225
G01 X-210
G01 X-195
G01 X-180
G01 X-165
G01 X-150
G01 X-135
G01 X-120
G01 X-105
G01 X-90
G01 X-75.099
G01 X-60
G01 X-45
G01 X-30
G01 X-15
G01 X0
G01 X15
G01 X30
G01 X44.9
G01 X59.9
G01 X74.9
G01 X89.9
G01 X105
G01 X119.9
G01 X135
G01 X149.9
G01 X165
G01 X179.9
G01 X194.9
G01 X209.9
G01 X224.9
G01 X239.9
G01 X254.9
G01 X269.899
G01 X284.899
G01 X285 Y-105.599
G01 X269.899
G01 X254.9
G01 X239.9
G01 X225
G01 X209.9
G01 X195
G01 X179.9
G01 X164.9
G01 X149.9
G01 X134.9
G01 X120
G01 X104.9
G01 X90
G01 X75
G01 X60
G01 X45
G01 X30
G01 X15
G01 X0
G01 X-15
G01 X-30
G01 X-45
G01 X-60
G01 X-75
G01 X-90
G01 X-105
G01 X-120
G01 X-135
G01 X-150
G01 X-165
G01 X-180
G01 X-195
G01 X-210
G01 X-225
G01 X-240
G01 X-255
G01 X-270
G01 X-285
G01 X-300
G01  Y-105.5
G01 X-285
G01 X-270
G01 X-255
G01 X-240
G01 X-225
G01 X-210
G01 X-195
G01 X-180
G01 X-165
G01 X-150
G01 X-135.1
G01 X-120
G01 X-105.099
G01 X-90
G01 X-75
G01 X-60
G01 X-45.1
G01 X-30.1
G01 X-15.1
G01 X-0.1
G01 X14.9
G01 X29.899
G01 X45
G01 X60
G01 X75
G01 X90
G01 X104.9
G01 X119.9
G01 X134.9
G01 X149.9
G01 X164.9
G01 X179.9
G01 X194.9
G01 X209.9
G01 X224.9
G01 X239.9
G01 X254.9
G01 X269.899
G01 X284.899
G01  Y-105.4
G01 X269.899
G01 X255
G01 X239.9
G01 X224.9
G01 X209.9
G01 X194.9
G01 X180
G01 X165
G01 X150
G01 X135
G01 X119.9
G01 X105
G01 X89.9
G01 X74.9
G01 X59.9
G01 X44.9
G01 X30
G01 X15
G01 X0
G01 X-15
G01 X-30
G01 X-45
G01 X-60
G01 X-75
G01 X-90
G01 X-105
G01 X-120
G01 X-135
G01 X-150
G01 X-165
G01 X-180
G01 X-195
G01 X-210
G01 X-225
G01 X-240
G01 X-255
G01 X-270
G01 X-285
G01 X-300
G01  Y-105.3
G01 X-285
G01 X-270
G01 X-255
G01 X-240
G01 X-225
G01 X-210
G01 X-195
G01 X-180
G01 X-165
G01 X-150
G01 X-135
G01 X-120
G01 X-105
G01 X-90
G01 X-75.099
G01 X-60
G01 X-45
G01 X-30
G01 X-15
G01 X0
G01 X15
G01 X30
G01 X45
G01 X59.9
G01 X75
G01 X89.9
G01 X105
G01 X120
G01 X134.9
G01 X149.9
G01 X164.9
G01 X179.9
G01 X195
G01 X209.9
G01 X224.9
G01 X239.9
G01 X254.9
G01 X269.899
G01 X284.899
G01  Y-105.2
G01 X269.899
G01 X254.9
G01 X239.9
G01 X225
G01 X209.9
G01 X194.9
G01 X179.9
G01 X164.9
G01 X149.9
G01 X134.9
G01 X119.9
G01 X104.9
G01 X90
G01 X75
G01 X60
G01 X45
G01 X29.899
G01 X14.9
G01 X0
G01 X-15.1
G01 X-30
G01 X-45.1
G01 X-60
G01 X-75
G01 X-90
G01 X-105
G01 X-120
G01 X-135
G01 X-150
G01 X-165
G01 X-180
G01 X-195
G01 X-210
G01 X-225
G01 X-240
G01 X-255
G01 X-270
G01 X-285
G01 X-300
G01  Y-105.099
G01 X-285
G01 X-270
G01 X-255
G01 X-240
G01 X-225
G01 X-210
G01 X-195
G01 X-180
G01 X-165
G01 X-150
G01 X-135
G01 X-120
G01 X-105
G01 X-90
G01 X-75
G01 X-60.1
G01 X-45
G01 X-30.1
G01 X-15
G01 X-0.1
G01 X15
G01 X30
G01 X44.9
G01 X60
G01 X74.9
G01 X90
G01 X104.9
G01 X119.9
G01 X135
G01 X149.9
G01 X165
G01 X179.9
G01 X194.9
G01 X209.9
G01 X224.9
G01 X239.9
G01 X254.9
G01 X269.899
G01 X284.899
G01 X285 Y-105
G01 X269.899
G01 X255
G01 X239.9
G01 X224.9
G01 X209.9
G01 X195
G01 X180
G01 X164.9
G01 X150
G01 X134.9
G01 X120
G01 X105
G01 X89.9
G01 X75
G01 X59.9
G01 X45
G01 X30
G01 X15
G01 X0
G01 X-15
G01 X-30
G01 X-45
G01 X-60
G01 X-75
G01 X-90
G01 X-105
G01 X-120
G01 X-135
G01 X-150
G01 X-165
G01 X-180
G01 X-195
G01 X-210
G01 X-225
G01 X-240
G01 X-255
G01 X-270
G01 X-285
G01 X-300
G01  Y-104.9
G01 X-285
G01 X-270
G01 X-255
G01 X-240
G01 X-225
G01 X-210
G01 X-195
G01 X-180
G01 X-165
G01 X-150
G01 X-135.1
G01 X-120
G01 X-105.099
G01 X-90
G01 X-75.099
G01 X-60
G01 X-45.1
G01 X-30
G01 X-15.1
G01 X0
G01 X14.9
G01 X29.899
G01 X44.9
G01 X59.9
G01 X74.9
G01 X89.9
G01 X104.9
G01 X119.9
G01 X134.9
G01 X149.9
G01 X164.9
G01 X179.9
G01 X194.9
G01 X209.9
G01 X224.9
G01 X239.9
G01 X254.9
G01 X269.899
G01 X284.899
G01  Y-104.8
G01 X269.899
G01 X254.9
G01 X239.9
G01 X225
G01 X209.9
G01 X194.9
G01 X179.9
G01 X165
G01 X149.9
G01 X135
G01 X119.9
G01 X105
G01 X90
G01 X75
G01 X60
G01 X45
G01 X30
G01 X15
G01 X0
G01 X-15
G01 X-30
G01 X-45
G01 X-60
G01 X-75
G01 X-90
G01 X-105
G01 X-120
G01 X-135
G01 X-150
G01 X-165
G01 X-180
G01 X-195
G01 X-210
G01 X-225
G01 X-240
G01 X-255
G01 X-270
G01 X-285
G01 X-300
G01  Y-104.7
G01 X-285
G01 X-270
G01 X-255
G01 X-240
G01 X-225
G01 X-210
G01 X-195
G01 X-180
G01 X-165
G01 X-150
G01 X-135
G01 X-120
G01 X-105
G01 X-90
G01 X-75
G01 X-60
G01 X-45
G01 X-30.1
G01 X-15
G01 X-0.1
G01 X15
G01 X30
G01 X45
G01 X60
G01 X75
G01 X90
G01 X104.9
G01 X120
G01 X134.9
G01 X149.9
G01 X164.9
G01 X179.9
G01 X195
G01 X209.9
G01 X224.9
G01 X239.9
G01 X254.9
G01 X269.899
G01 X284.899
G01  Y-104.599
G01 X269.899
G01 X255
G01 X239.9
G01 X224.9
G01 X209.9
G01 X194.9
G01 X180
G01 X164.9
G01 X150
G01 X134.9
G01 X119.9
G01 X104.9
G01 X89.9
G01 X74.9
G01 X59.9
G01 X44.9
G01 X29.899
G01 X14.9
G01 X0
G01 X-15.1
G01 X-30
G01 X-45.1
G01 X-60
G01 X-75
G01 X-90
G01 X-105
G01 X-120
G01 X-135
G01 X-150
G01 X-165
G01 X-180
G01 X-195
G01 X-210
G01 X-225
G01 X-240
G01 X-255
G01 X-270
G01 X-285
G01 X-300
G01  Y-104.5
G01 X-285
G01 X-270
G01 X-255
G01 X-240
G01 X-225
G01 X-210
G01 X-195
G01 X-180
G01 X-165
G01 X-150
G01 X-135
G01 X-120
G01 X-105
G01 X-90
G01 X-75.099
G01 X-60
G01 X-45
G01 X-30
G01 X-15
G01 X0
G01 X15
G01 X30
G01 X45
G01 X59.9
G01 X75
G01 X89.9
G01 X105
G01 X119.9
G01 X135
G01 X149.9
G01 X165
G01 X179.9
G01 X194.9
G01 X209.9
G01 X224.9
G01 X239.9
G01 X254.9
G01 X269.899
G01 X284.899
G01 X285 Y-104.4
G01 X269.899
G01 X254.9
G01 X239.9
G01 X225
G01 X209.9
G01 X195
G01 X179.9
G01 X164.9
G01 X149.9
G01 X134.9
G01 X120
G01 X105
G01 X90
G01 X75
G01 X60
G01 X45
G01 X30
G01 X15
G01 X0
G01 X-15
G01 X-30
G01 X-45
G01 X-60
G01 X-75
G01 X-90
G01 X-105
G01 X-120
G01 X-135
G01 X-150
G01 X-165
G01 X-180
G01 X-195
G01 X-210
G01 X-225
G01 X-240
G01 X-255
G01 X-270
G01 X-285
G01 X-300
G01  Y-104.3
G01 X-285
G01 X-270
G01 X-255
G01 X-240
G01 X-225
G01 X-210
G01 X-195
G01 X-180
G01 X-165
G01 X-150
G01 X-135.1
G01 X-120
G01 X-105.099
G01 X-90
G01 X-75
G01 X-60
G01 X-45.1
G01 X-30.1
G01 X-15.1
G01 X-0.1
G01 X14.9
G01 X29.899
G01 X44.9
G01 X60
G01 X74.9
G01 X90
G01 X104.9
G01 X119.9
G01 X134.9
G01 X149.9
G01 X164.9
G01 X179.9
G01 X194.9
G01 X209.9
G01 X224.9
G01 X239.9
G01 X254.9
G01 X269.899
G01 X284.899
G01  Y-104.2
G01 X269.899
G01 X255
G01 X239.9
G01 X224.9
G01 X209.9
G01 X194.9
G01 X180
G01 X165
G01 X150
G01 X135
G01 X119.9
G01 X105
G01 X89.9
G01 X75
G01 X59.9
G01 X45
G01 X30
G01 X15
G01 X0
G01 X-15
G01 X-30
G01 X-45
G01 X-60
G01 X-75
G01 X-90
G01 X-105
G01 X-120
G01 X-135
G01 X-150
G01 X-165
G01 X-180
G01 X-195
G01 X-210
G01 X-225
G01 X-240
G01 X-255
G01 X-270
G01 X-285
G01 X-300
G01  Y-104.099
G01 X-285
G01 X-270
G01 X-255
G01 X-240
G01 X-225
G01 X-210
G01 X-195
G01 X-180
G01 X-165
G01 X-150
G01 X-135
G01 X-120
G01 X-105
G01 X-90
G01 X-75.099
G01 X-60
G01 X-45
G01 X-30
G01 X-15
G01 X0
G01 X15
G01 X30
G01 X44.9
G01 X59.9
G01 X74.9
G01 X89.9
G01 X104.9
G01 X120
G01 X134.9
G01 X149.9
G01 X164.9
G01 X179.9
G01 X195
G01 X209.9
G01 X224.9
G01 X239.9
G01 X254.9
G01 X269.899
G01 X284.899
G01  Y-104
G01 X269.899
G01 X254.9
G01 X239.9
G01 X225
G01 X209.9
G01 X194.9
G01 X179.9
G01 X164.9
G01 X149.9
G01 X134.9
G01 X119.9
G01 X104.9
G01 X90
G01 X75
G01 X60
G01 X45
G01 X29.899
G01 X14.9
G01 X0
G01 X-15.1
G01 X-30
G01 X-45.1
G01 X-60
G01 X-75
G01 X-90
G01 X-105
G01 X-120
G01 X-135
G01 X-150
G01 X-165
G01 X-180
G01 X-195
G01 X-210
G01 X-225
G01 X-240
G01 X-255
G01 X-270
G01 X-285
G01 X-300
G01  Y-103.9
G01 X-285
G01 X-270
G01 X-255
G01 X-240
G01 X-225
G01 X-210
G01 X-195
G01 X-180
G01 X-165
G01 X-150
G01 X-135
G01 X-120
G01 X-105
G01 X-90
G01 X-75
G01 X-60
G01 X-45
G01 X-30.1
G01 X-15
G01 X-0.1
G01 X15
G01 X30
G01 X45
G01 X60
G01 X75
G01 X90
G01 X105
G01 X119.9
G01 X135
G01 X149.9
G01 X165
G01 X179.9
G01 X194.9
G01 X209.9
G01 X224.9
G01 X239.9
G01 X254.9
G01 X269.899
G01 X284.899
G01 X285 Y-103.8
G01 X269.899
G01 X255
G01 X239.9
G01 X224.9
G01 X209.9
G01 X195
G01 X180
G01 X164.9
G01 X150
G01 X134.9
G01 X120
G01 X104.9
G01 X89.9
G01 X74.9
G01 X59.9
G01 X44.9
G01 X30
G01 X15
G01 X0
G01 X-15
G01 X-30
G01 X-45
G01 X-60
G01 X-75
G01 X-90
G01 X-105
G01 X-120
G01 X-135
G01 X-150
G01 X-165
G01 X-180
G01 X-195
G01 X-210
G01 X-225
G01 X-240
G01 X-255
G01 X-270
G01 X-285
G01 X-300
G01  Y-103.7
G01 X-285
G01 X-270
G01 X-255
G01 X-240
G01 X-225
G01 X-210
G01 X-195
G01 X-180
G01 X-165
G01 X-150
G01 X-135.1
G01 X-120
G01 X-105.099
G01 X-90
G01 X-75.099
G01 X-60
G01 X-45.1
G01 X-30
G01 X-15.1
G01 X0
G01 X14.9
G01 X29.899
G01 X45
G01 X59.9
G01 X75
G01 X89.9
G01 X105
G01 X119.9
G01 X134.9
G01 X149.9
G01 X164.9
G01 X179.9
G01 X194.9
G01 X209.9
G01 X224.9
G01 X239.9
G01 X254.9
G01 X269.899
G01 X284.899
G01  Y-103.599
G01 X269.899
G01 X254.9
G01 X239.9
G01 X225
G01 X209.9
G01 X194.9
G01 X179.9
G01 X165
G01 X149.9
G01 X135
G01 X119.9
G01 X104.9
G01 X90
G01 X75
G01 X60
G01 X45
G01 X30
G01 X15
G01 X0
G01 X-15
G01 X-30
G01 X-45
G01 X-60
G01 X-75
G01 X-90
G01 X-105
G01 X-120
G01 X-135
G01 X-150
G01 X-165
G01 X-180
G01 X-195
G01 X-210
G01 X-225
G01 X-240
G01 X-255
G01 X-270
G01 X-285
G01 X-300
G01  Y-103.5
G01 X-285
G01 X-270
G01 X-255
G01 X-240
G01 X-225
G01 X-210
G01 X-195
G01 X-180
G01 X-165
G01 X-150
G01 X-135
G01 X-120
G01 X-105
G01 X-90
G01 X-75
G01 X-60
G01 X-45
G01 X-30.1
G01 X-15
G01 X-0.1
G01 X15
G01 X30
G01 X44.9
G01 X60
G01 X74.9
G01 X90
G01 X104.9
G01 X120
G01 X134.9
G01 X149.9
G01 X164.9
G01 X179.9
G01 X195
G01 X209.9
G01 X224.9
G01 X239.9
G01 X254.9
G01 X269.899
G01 X284.899
G01  Y-103.4
G01 X269.899
G01 X255
G01 X239.9
G01 X224.9
G01 X209.9
G01 X194.9
G01 X180
G01 X164.9
G01 X150
G01 X134.9
G01 X119.9
G01 X105
G01 X89.9
G01 X75
G01 X59.9
G01 X45
G01 X29.899
G01 X14.9
G01 X0
G01 X-15.1
G01 X-30
G01 X-45.1
G01 X-60
G01 X-75
G01 X-90
G01 X-105
G01 X-120
G01 X-135
G01 X-150
G01 X-165
G01 X-180
G01 X-195
G01 X-210
G01 X-225
G01 X-240
G01 X-255
G01 X-270
G01 X-285
G01 X-300
G01  Y-103.3
G01 X-285
G01 X-270
G01 X-255
G01 X-240
G01 X-225
G01 X-210
G01 X-195
G01 X-180
G01 X-165
G01 X-150
G01 X-135
G01 X-120
G01 X-105
G01 X-90
G01 X-75.099
G01 X-60
G01 X-45
G01 X-30
G01 X-15
G01 X0
G01 X15
G01 X30
G01 X44.9
G01 X59.9
G01 X74.9
G01 X89.9
G01 X105
G01 X119.9
G01 X135
G01 X149.9
G01 X165
G01 X179.9
G01 X194.9
G01 X209.9
G01 X224.9
G01 X239.9
G01 X254.9
G01 X269.899
G01 X284.899
G01 X285 Y-103.2
G01 X269.899
G01 X254.9
G01 X239.9
G01 X225
G01 X209.9
G01 X195
G01 X179.9
G01 X164.9
G01 X149.9
G01 X134.9
G01 X120
G01 X104.9
G01 X90
G01 X75
G01 X60
G01 X45
G01 X30
G01 X15
G01 X0
G01 X-15
G01 X-30
G01 X-45
G01 X-60
G01 X-75
G01 X-90
G01 X-105
G01 X-120
G01 X-135
G01 X-150
G01 X-165
G01 X-180
G01 X-195
G01 X-210
G01 X-225
G01 X-240
G01 X-255
G01 X-270
G01 X-285
G01 X-300
G01  Y-103.099
G01 X-285
G01 X-270
G01 X-255
G01 X-240
G01 X-225
G01 X-210
G01 X-195
G01 X-180
G01 X-165
G01 X-150
G01 X-135.1
G01 X-120
G01 X-105.099
G01 X-90
G01 X-75
G01 X-60
G01 X-45.1
G01 X-30.1
G01 X-15.1
G01 X-0.1
G01 X14.9
G01 X29.899
G01 X45
G01 X60
G01 X75
G01 X90
G01 X104.9
G01 X119.9
G01 X134.9
G01 X149.9
G01 X164.9
G01 X179.9
G01 X194.9
G01 X209.9
G01 X224.9
G01 X239.9
G01 X254.9
G01 X269.899
G01 X284.899
G01  Y-103
G01 X269.899
G01 X254.9
G01 X239.9
G01 X224.9
G01 X209.9
G01 X194.9
G01 X180
G01 X165
G01 X150
G01 X135
G01 X119.9
G01 X105
G01 X89.9
G01 X74.9
G01 X59.9
G01 X44.9
G01 X30
G01 X15
G01 X0
G01 X-15
G01 X-30
G01 X-45
G01 X-60
G01 X-75
G01 X-90
G01 X-105
G01 X-120
G01 X-135
G01 X-150
G01 X-165
G01 X-180
G01 X-195
G01 X-210
G01 X-225
G01 X-240
G01 X-255
G01 X-270
G01 X-285
G01 X-300
G01  Y-102.9
G01 X-285
G01 X-270
G01 X-255
G01 X-240
G01 X-225
G01 X-210
G01 X-195
G01 X-180
G01 X-165
G01 X-150
G01 X-135
G01 X-120
G01 X-105
G01 X-90
G01 X-75.099
G01 X-60.1
G01 X-45
G01 X-30
G01 X-15
G01 X0
G01 X15
G01 X30
G01 X45
G01 X59.9
G01 X75
G01 X89.9
G01 X104.9
G01 X120
G01 X134.9
G01 X149.9
G01 X164.9
G01 X179.9
G01 X195
G01 X209.9
G01 X224.9
G01 X239.9
G01 X255
G01 X269.899
G01 X284.899
G01  Y-102.8
G01 X269.899
G01 X254.9
G01 X239.9
G01 X224.9
G01 X209.9
G01 X194.9
G01 X179.9
G01 X164.9
G01 X149.9
G01 X134.9
G01 X119.9
G01 X105
G01 X90
G01 X75
G01 X60
G01 X45
G01 X29.899
G01 X14.9
G01 X0
G01 X-15.1
G01 X-30
G01 X-45.1
G01 X-60
G01 X-75
G01 X-90
G01 X-105
G01 X-120
G01 X-135
G01 X-150
G01 X-165
G01 X-180
G01 X-195
G01 X-210
G01 X-225
G01 X-240
G01 X-255
G01 X-270
G01 X-285
G01 X-300
G01  Y-102.7
G01 X-285
G01 X-270
G01 X-255
G01 X-240
G01 X-225
G01 X-210
G01 X-195
G01 X-180
G01 X-165
G01 X-150
G01 X-135
G01 X-120
G01 X-105
G01 X-90
G01 X-75
G01 X-60
G01 X-45
G01 X-30.1
G01 X-15
G01 X-0.1
G01 X15
G01 X30
G01 X44.9
G01 X60
G01 X74.9
G01 X90
G01 X104.9
G01 X119.9
G01 X135
G01 X149.9
G01 X165
G01 X179.9
G01 X194.9
G01 X209.9
G01 X225
G01 X239.9
G01 X254.9
G01 X269.899
G01 X284.899
G01 X285 Y-102.599
G01 X269.899
G01 X255
G01 X239.9
G01 X224.9
G01 X209.9
G01 X195
G01 X180
G01 X164.9
G01 X150
G01 X134.9
G01 X120
G01 X104.9
G01 X89.9
G01 X75
G01 X59.9
G01 X45
G01 X30
G01 X15
G01 X0
G01 X-15
G01 X-30
G01 X-45
G01 X-60
G01 X-75
G01 X-90
G01 X-105
G01 X-120
G01 X-135
G01 X-150
G01 X-165
G01 X-180
G01 X-195
G01 X-210
G01 X-225
G01 X-240
G01 X-255
G01 X-270
G01 X-285
G01 X-300
G01  Y-102.5
G01 X-285
G01 X-270
G01 X-255
G01 X-240
G01 X-225
G01 X-210
G01 X-195
G01 X-180
G01 X-165
G01 X-150
G01 X-135.1
G01 X-120
G01 X-105.099
G01 X-90
G01 X-75.099
G01 X-60
G01 X-45.1
G01 X-30
G01 X-15.1
G01 X0
G01 X14.9
G01 X29.899
G01 X44.9
G01 X59.9
G01 X74.9
G01 X89.9
G01 X105
G01 X119.9
G01 X134.9
G01 X149.9
G01 X164.9
G01 X179.9
G01 X194.9
G01 X209.9
G01 X224.9
G01 X239.9
G01 X254.9
G01 X269.899
G01 X284.899
G01  Y-102.4
G01 X269.899
G01 X254.9
G01 X239.9
G01 X225
G01 X209.9
G01 X194.9
G01 X179.9
G01 X165
G01 X149.9
G01 X135
G01 X119.9
G01 X105
G01 X90
G01 X75
G01 X60
G01 X45
G01 X30
G01 X15
G01 X0
G01 X-15
G01 X-30
G01 X-45
G01 X-60
G01 X-75
G01 X-90
G01 X-105
G01 X-120
G01 X-135
G01 X-150
G01 X-165
G01 X-180
G01 X-195
G01 X-210
G01 X-225
G01 X-240
G01 X-255
G01 X-270
G01 X-285
G01 X-300
G01  Y-102.3
G01 X-285
G01 X-270
G01 X-255
G01 X-240
G01 X-225
G01 X-210
G01 X-195
G01 X-180
G01 X-165
G01 X-150
G01 X-135
G01 X-120
G01 X-105
G01 X-90
G01 X-75
G01 X-60
G01 X-45
G01 X-30.1
G01 X-15
G01 X-0.1
G01 X15
G01 X30
G01 X45
G01 X60
G01 X75
G01 X90
G01 X104.9
G01 X120
G01 X134.9
G01 X149.9
G01 X164.9
G01 X179.9
G01 X195
G01 X209.9
G01 X224.9
G01 X239.9
G01 X254.9
G01 X269.899
G01 X284.899
G01  Y-102.2
G01 X269.899
G01 X255
G01 X239.9
G01 X224.9
G01 X209.9
G01 X194.9
G01 X180
G01 X164.9
G01 X150
G01 X134.9
G01 X119.9
G01 X105
G01 X89.9
G01 X74.9
G01 X59.9
G01 X44.9
G01 X29.899
G01 X14.9
G01 X0
G01 X-15.1
G01 X-30
G01 X-45.1
G01 X-60
G01 X-75
G01 X-90
G01 X-105
G01 X-120
G01 X-135
G01 X-150
G01 X-165
G01 X-180
G01 X-195
G01 X-210
G01 X-225
G01 X-240
G01 X-255
G01 X-270
G01 X-285
G01 X-300
G01  Y-102.099
G01 X-285
G01 X-270
G01 X-255
G01 X-240
G01 X-225
G01 X-210
G01 X-195
G01 X-180
G01 X-165
G01 X-150
G01 X-135
G01 X-120
G01 X-105
G01 X-90
G01 X-75.099
G01 X-60
G01 X-45
G01 X-30
G01 X-15
G01 X0
G01 X15
G01 X30
G01 X45
G01 X59.9
G01 X75
G01 X89.9
G01 X104.9
G01 X119.9
G01 X135
G01 X149.9
G01 X165
G01 X179.9
G01 X194.9
G01 X209.9
G01 X224.9
G01 X239.9
G01 X254.9
G01 X269.899
G01 X284.899
G01 X285 Y-102
G01 X269.899
G01 X254.9
G01 X239.9
G01 X225
G01 X209.9
G01 X195
G01 X179.9
G01 X164.9
G01 X149.9
G01 X134.9
G01 X120
G01 X104.9
G01 X90
G01 X75
G01 X60
G01 X45
G01 X30
G01 X15
G01 X0
G01 X-15
G01 X-30
G01 X-45
G01 X-60
G01 X-75
G01 X-90
G01 X-105
G01 X-120
G01 X-135
G01 X-150
G01 X-165
G01 X-180
G01 X-195
G01 X-210
G01 X-225
G01 X-240
G01 X-255
G01 X-270
G01 X-285
G01 X-300
G01  Y-101.9
G01 X-285
G01 X-270
G01 X-255
G01 X-240
G01 X-225
G01 X-210
G01 X-195
G01 X-180
G01 X-165
G01 X-150
G01 X-135.1
G01 X-120
G01 X-105.099
G01 X-90
G01 X-75
G01 X-60
G01 X-45.1
G01 X-30.1
G01 X-15.1
G01 X-0.1
G01 X14.9
G01 X29.899
G01 X44.9
G01 X60
G01 X74.9
G01 X90
G01 X105
G01 X119.9
G01 X134.9
G01 X149.9
G01 X164.9
G01 X179.9
G01 X194.9
G01 X209.9
G01 X224.9
G01 X239.9
G01 X254.9
G01 X269.899
G01 X284.899
G01  Y-101.8
G01 X269.899
G01 X255
G01 X239.9
G01 X224.9
G01 X209.9
G01 X194.9
G01 X180
G01 X165
G01 X150
G01 X135
G01 X119.9
G01 X104.9
G01 X89.9
G01 X75
G01 X59.9
G01 X45
G01 X30
G01 X15
G01 X0
G01 X-15
G01 X-30
G01 X-45
G01 X-60
G01 X-75
G01 X-90
G01 X-105
G01 X-120
G01 X-135
G01 X-150
G01 X-165
G01 X-180
G01 X-195
G01 X-210
G01 X-225
G01 X-240
G01 X-255
G01 X-270
G01 X-285
G01 X-300
G01  Y-101.7
G01 X-285
G01 X-270
G01 X-255
G01 X-240
G01 X-225
G01 X-210
G01 X-195
G01 X-180
G01 X-165
G01 X-150
G01 X-135
G01 X-120
G01 X-105
G01 X-90
G01 X-75.099
G01 X-60
G01 X-45
G01 X-30
G01 X-15
G01 X0
G01 X15
G01 X30
G01 X44.9
G01 X59.9
G01 X74.9
G01 X89.9
G01 X105
G01 X120
G01 X134.9
G01 X149.9
G01 X164.9
G01 X179.9
G01 X195
G01 X209.9
G01 X224.9
G01 X239.9
G01 X254.9
G01 X269.899
G01 X284.899
G01  Y-101.599
G01 X269.899
G01 X254.9
G01 X239.9
G01 X225
G01 X209.9
G01 X194.9
G01 X179.9
G01 X164.9
G01 X149.9
G01 X134.9
G01 X119.9
G01 X104.9
G01 X90
G01 X75
G01 X60
G01 X45
G01 X29.899
G01 X14.9
G01 X0
G01 X-15.1
G01 X-30
G01 X-45.1
G01 X-60
G01 X-75
G01 X-90
G01 X-105
G01 X-120
G01 X-135
G01 X-150
G01 X-165
G01 X-180
G01 X-195
G01 X-210
G01 X-225
G01 X-240
G01 X-255
G01 X-270
G01 X-285
G01 X-300
G01  Y-101.5
G01 X-285
G01 X-270
G01 X-255
G01 X-240
G01 X-225
G01 X-210
G01 X-195
G01 X-180
G01 X-165
G01 X-150
G01 X-135
G01 X-120
G01 X-105
G01 X-90
G01 X-75
G01 X-60
G01 X-45
G01 X-30.1
G01 X-15
G01 X-0.1
G01 X15
G01 X30
G01 X45
G01 X60
G01 X75
G01 X90
G01 X104.9
G01 X119.9
G01 X135
G01 X149.9
G01 X165
G01 X179.9
G01 X194.9
G01 X209.9
G01 X224.9
G01 X239.9
G01 X254.9
G01 X269.899
G01 X284.899
G01 X285 Y-101.4
G01 X269.899
G01 X255
G01 X239.9
G01 X224.9
G01 X209.9
G01 X195
G01 X180
G01 X164.9
G01 X150
G01 X134.9
G01 X120
G01 X105
G01 X89.9
G01 X74.9
G01 X59.9
G01 X44.9
G01 X30
G01 X15
G01 X0
G01 X-15
G01 X-30
G01 X-45
G01 X-60
G01 X-75
G01 X-90
G01 X-105
G01 X-120
G01 X-135
G01 X-150
G01 X-165
G01 X-180
G01 X-195
G01 X-210
G01 X-225
G01 X-240
G01 X-255
G01 X-270
G01 X-285
G01 X-300
G01  Y-101.3
G01 X-285
G01 X-270
G01 X-255
G01 X-240
G01 X-225
G01 X-210
G01 X-195
G01 X-180
G01 X-165
G01 X-150
G01 X-135.1
G01 X-120
G01 X-105.099
G01 X-90
G01 X-75.099
G01 X-60
G01 X-45.1
G01 X-30
G01 X-15.1
G01 X0
G01 X14.9
G01 X29.899
G01 X45
G01 X59.9
G01 X75
G01 X89.9
G01 X105
G01 X119.9
G01 X134.9
G01 X149.9
G01 X164.9
G01 X179.9
G01 X194.9
G01 X209.9
G01 X224.9
G01 X239.9
G01 X254.9
G01 X269.899
G01 X284.899
G01  Y-101.2
G01 X269.899
G01 X254.9
G01 X239.9
G01 X225
G01 X209.9
G01 X194.9
G01 X179.9
G01 X165
G01 X149.9
G01 X135
G01 X119.9
G01 X104.9
G01 X90
G01 X75
G01 X60
G01 X45
G01 X30
G01 X15
G01 X0
G01 X-15
G01 X-30
G01 X-45
G01 X-60
G01 X-75
G01 X-90
G01 X-105
G01 X-120
G01 X-135
G01 X-150
G01 X-165
G01 X-180
G01 X-195
G01 X-210
G01 X-225
G01 X-240
G01 X-255
G01 X-270
G01 X-285
G01 X-300
G01  Y-101.099
G01 X-285
G01 X-270
G01 X-255
G01 X-240
G01 X-225
G01 X-210
G01 X-195
G01 X-180
G01 X-165
G01 X-150
G01 X-135
G01 X-120
G01 X-105
G01 X-90
G01 X-75
G01 X-60
G01 X-45
G01 X-30.1
G01 X-15
G01 X-0.1
G01 X15
G01 X30
G01 X44.9
G01 X60
G01 X74.9
G01 X90
G01 X104.9
G01 X120
G01 X134.9
G01 X149.9
G01 X164.9
G01 X179.9
G01 X195
G01 X209.9
G01 X224.9
G01 X239.9
G01 X254.9
G01 X269.899
G01 X284.899
G01  Y-101
G01 X269.899
G01 X255
G01 X239.9
G01 X224.9
G01 X209.9
G01 X194.9
G01 X180
G01 X164.9
G01 X150
G01 X134.9
G01 X119.9
G01 X105
G01 X89.9
G01 X75
G01 X59.9
G01 X45
G01 X29.899
G01 X14.9
G01 X0
G01 X-15.1
G01 X-30
G01 X-45.1
G01 X-60
G01 X-75
G01 X-90
G01 X-105
G01 X-120
G01 X-135
G01 X-150
G01 X-165
G01 X-180
G01 X-195
G01 X-210
G01 X-225
G01 X-240
G01 X-255
G01 X-270
G01 X-285
G01 X-300
G01  Y-100.9
G01 X-285
G01 X-270
G01 X-255
G01 X-240
G01 X-225
G01 X-210
G01 X-195
G01 X-180
G01 X-165
G01 X-150
G01 X-135
G01 X-120
G01 X-105
G01 X-90
G01 X-75.099
G01 X-60
G01 X-45
G01 X-30
G01 X-15
G01 X0
G01 X15
G01 X30
G01 X44.9
G01 X59.9
G01 X74.9
G01 X89.9
G01 X104.9
G01 X119.9
G01 X135
G01 X149.9
G01 X165
G01 X179.9
G01 X194.9
G01 X209.9
G01 X224.9
G01 X239.9
G01 X254.9
G01 X269.899
G01 X284.899
G01 X285 Y-100.8
G01 X269.899
G01 X254.9
G01 X239.9
G01 X225
G01 X209.9
G01 X195
G01 X179.9
G01 X164.9
G01 X149.9
G01 X134.9
G01 X120
G01 X105
G01 X90
G01 X75
G01 X60
G01 X45
G01 X30
G01 X15
G01 X0
G01 X-15
G01 X-30
G01 X-45
G01 X-60
G01 X-75
G01 X-90
G01 X-105
G01 X-120
G01 X-135
G01 X-150
G01 X-165
G01 X-180
G01 X-195
G01 X-210
G01 X-225
G01 X-240
G01 X-255
G01 X-270
G01 X-285
G01 X-300
G01  Y-100.7
G01 X-285
G01 X-270
G01 X-255
G01 X-240
G01 X-225
G01 X-210
G01 X-195
G01 X-180
G01 X-165
G01 X-150
G01 X-135.1
G01 X-120
G01 X-105.099
G01 X-90
G01 X-75
G01 X-60
G01 X-45.1
G01 X-30.1
G01 X-15.1
G01 X-0.1
G01 X14.9
G01 X29.899
G01 X45
G01 X60
G01 X75
G01 X90
G01 X104.9
G01 X119.9
G01 X134.9
G01 X149.9
G01 X164.9
G01 X179.9
G01 X194.9
G01 X209.9
G01 X224.9
G01 X239.9
G01 X254.9
G01 X269.899
G01 X284.899
G01  Y-100.599
G01 X269.899
G01 X255
G01 X239.9
G01 X224.9
G01 X209.9
G01 X194.9
G01 X180
G01 X165
G01 X150
G01 X135
G01 X119.9
G01 X104.9
G01 X89.9
G01 X74.9
G01 X59.9
G01 X44.9
G01 X30
G01 X15
G01 X0
G01 X-15
G01 X-30
G01 X-45
G01 X-60.1
G01 X-75
G01 X-90
G01 X-105
G01 X-120
G01 X-135
G01 X-150
G01 X-165
G01 X-180
G01 X-195
G01 X-210
G01 X-225
G01 X-240
G01 X-255
G01 X-270
G01 X-285
G01 X-300
G01  Y-100.5
G01 X-285
G01 X-270
G01 X-255
G01 X-240
G01 X-225
G01 X-210
G01 X-195
G01 X-180
G01 X-165
G01 X-150
G01 X-135
G01 X-120
G01 X-105
G01 X-90
G01 X-75.099
G01 X-60
G01 X-45
G01 X-30
G01 X-15
G01 X0
G01 X15
G01 X30
G01 X45
G01 X59.9
G01 X75
G01 X89.9
G01 X105
G01 X120
G01 X134.9
G01 X149.9
G01 X164.9
G01 X179.9
G01 X195
G01 X209.9
G01 X224.9
G01 X239.9
G01 X254.9
G01 X269.899
G01 X284.899
G01  Y-100.4
G01 X269.899
G01 X254.9
G01 X239.9
G01 X225
G01 X209.9
G01 X194.9
G01 X179.9
G01 X164.9
G01 X149.9
G01 X134.9
G01 X119.9
G01 X105
G01 X90
G01 X75
G01 X60
G01 X45
G01 X29.899
G01 X14.9
G01 X0
G01 X-15.1
G01 X-30
G01 X-45.1
G01 X-60
G01 X-75
G01 X-90
G01 X-105
G01 X-120
G01 X-135
G01 X-150
G01 X-165
G01 X-180
G01 X-195
G01 X-210
G01 X-225
G01 X-240
G01 X-255
G01 X-270
G01 X-285
G01 X-300
G01  Y-100.3
G01 X-285
G01 X-270
G01 X-255
G01 X-240
G01 X-225
G01 X-210
G01 X-195
G01 X-180
G01 X-165
G01 X-150
G01 X-135
G01 X-120
G01 X-105
G01 X-90
G01 X-75
G01 X-60
G01 X-45
G01 X-30.1
G01 X-15
G01 X-0.1
G01 X15
G01 X30
G01 X44.9
G01 X60
G01 X74.9
G01 X90
G01 X104.9
G01 X119.9
G01 X135
G01 X149.9
G01 X165
G01 X179.9
G01 X194.9
G01 X209.9
G01 X224.9
G01 X239.9
G01 X254.9
G01 X269.899
G01 X284.899
G01 X285 Y-100.2
G01 X269.899
G01 X255
G01 X239.9
G01 X224.9
G01 X209.9
G01 X195
G01 X180
G01 X164.9
G01 X150
G01 X134.9
G01 X120
G01 X105
G01 X89.9
G01 X75
G01 X59.9
G01 X45
G01 X30
G01 X15
G01 X0
G01 X-15
G01 X-30
G01 X-45
G01 X-60
G01 X-75
G01 X-90
G01 X-105
G01 X-120
G01 X-135
G01 X-150
G01 X-165
G01 X-180
G01 X-195
G01 X-210
G01 X-225
G01 X-240
G01 X-255
G01 X-270
G01 X-285
G01 X-300
G01  Y-100.099
G01 X-285
G01 X-270
G01 X-255
G01 X-240
G01 X-225
G01 X-210
G01 X-195
G01 X-180
G01 X-165
G01 X-150
G01 X-135.1
G01 X-120
G01 X-105.099
G01 X-90
G01 X-75.099
G01 X-60
G01 X-45.1
G01 X-30
G01 X-15.1
G01 X0
G01 X14.9
G01 X29.899
G01 X44.9
G01 X59.9
G01 X74.9
G01 X89.9
G01 X104.9
G01 X119.9
G01 X134.9
G01 X149.9
G01 X164.9
G01 X179.9
G01 X194.9
G01 X209.9
G01 X224.9
G01 X239.9
G01 X254.9
G01 X269.899
G01 X284.899
G01  Y-100
G01 X269.899
G01 X254.9
G01 X239.9
G01 X225
G01 X209.9
G01 X194.9
G01 X179.9
G01 X165
G01 X149.9
G01 X135
G01 X119.9
G01 X104.9
G01 X90
G01 X75
G01 X60
G01 X45
G01 X30
G01 X15
G01 X0
G01 X-15
G01 X-30
G01 X-45
G01 X-60
G01 X-75
G01 X-90
G01 X-105
G01 X-120
G01 X-135
G01 X-150
G01 X-165
G01 X-180
G01 X-195
G01 X-210
G01 X-225
G01 X-240
G01 X-255
G01 X-270
G01 X-285
G01 X-300
G01  Y-99.9
G01 X-285
G01 X-270
G01 X-255
G01 X-240
G01 X-225
G01 X-210
G01 X-195
G01 X-180
G01 X-165
G01 X-150
G01 X-135
G01 X-120
G01 X-105
G01 X-90
G01 X-75
G01 X-60
G01 X-45
G01 X-30.1
G01 X-15
G01 X-0.1
G01 X15
G01 X30
G01 X45
G01 X60
G01 X75
G01 X90
G01 X105
G01 X120
G01 X134.9
G01 X149.9
G01 X164.9
G01 X179.9
G01 X195
G01 X209.9
G01 X224.9
G01 X239.9
G01 X254.9
G01 X269.899
G01 X284.899
G01  Y-99.8
G01 X269.899
G01 X255
G01 X239.9
G01 X224.9
G01 X209.9
G01 X194.9
G01 X180
G01 X164.9
G01 X150
G01 X134.9
G01 X119.9
G01 X104.9
G01 X89.9
G01 X74.9
G01 X59.9
G01 X44.9
G01 X29.899
G01 X14.9
G01 X0
G01 X-15.1
G01 X-30
G01 X-45.1
G01 X-60
G01 X-75
G01 X-90
G01 X-105
G01 X-120
G01 X-135
G01 X-150
G01 X-165
G01 X-180
G01 X-195
G01 X-210
G01 X-225
G01 X-240
G01 X-255
G01 X-270
G01 X-285
G01 X-300
G01  Y-99.7
G01 X-285
G01 X-270
G01 X-255
G01 X-240
G01 X-225
G01 X-210
G01 X-195
G01 X-180
G01 X-165
G01 X-150
G01 X-135
G01 X-120
G01 X-105
G01 X-90
G01 X-75.099
G01 X-60
G01 X-45
G01 X-30
G01 X-15
G01 X0
G01 X15
G01 X30
G01 X45
G01 X59.9
G01 X75
G01 X89.9
G01 X105
G01 X119.9
G01 X135
G01 X149.9
G01 X165
G01 X179.9
G01 X194.9
G01 X209.9
G01 X224.9
G01 X239.9
G01 X254.9
G01 X269.899
G01 X284.899
G01 X285 Y-99.599
G01 X269.899
G01 X254.9
G01 X239.9
G01 X225
G01 X209.9
G01 X195
G01 X179.9
G01 X164.9
G01 X149.9
G01 X134.9
G01 X120
G01 X104.9
G01 X90
G01 X75
G01 X60
G01 X45
G01 X30
G01 X15
G01 X0
G01 X-15
G01 X-30
G01 X-45
G01 X-60
G01 X-75
G01 X-90
G01 X-105
G01 X-120
G01 X-135
G01 X-150
G01 X-165
G01 X-180
G01 X-195
G01 X-210
G01 X-225
G01 X-240
G01 X-255
G01 X-270
G01 X-285
G01 X-300
G01  Y-99.5
G01 X-285
G01 X-270
G01 X-255
G01 X-240
G01 X-225
G01 X-210
G01 X-195
G01 X-180
G01 X-165
G01 X-150
G01 X-135.1
G01 X-120
G01 X-105.099
G01 X-90
G01 X-75
G01 X-60
G01 X-45.1
G01 X-30.1
G01 X-15.1
G01 X-0.1
G01 X14.9
G01 X29.899
G01 X44.9
G01 X60
G01 X74.9
G01 X90
G01 X104.9
G01 X119.9
G01 X134.9
G01 X149.9
G01 X164.9
G01 X179.9
G01 X194.9
G01 X209.9
G01 X224.9
G01 X239.9
G01 X254.9
G01 X269.899
G01 X284.899
G01  Y-99.4
G01 X269.899
G01 X255
G01 X239.9
G01 X224.9
G01 X209.9
G01 X194.9
G01 X180
G01 X165
G01 X150
G01 X135
G01 X119.9
G01 X105
G01 X89.9
G01 X75
G01 X59.9
G01 X45
G01 X30
G01 X15
G01 X0
G01 X-15
G01 X-30
G01 X-45
G01 X-60
G01 X-75
G01 X-90
G01 X-105
G01 X-120
G01 X-135
G01 X-150
G01 X-165
G01 X-180
G01 X-195
G01 X-210
G01 X-225
G01 X-240
G01 X-255
G01 X-270
G01 X-285
G01 X-300
G01  Y-99.3
G01 X-285
G01 X-270
G01 X-255
G01 X-240
G01 X-225
G01 X-210
G01 X-195
G01 X-180
G01 X-165
G01 X-150
G01 X-135
G01 X-120
G01 X-105
G01 X-90
G01 X-75.099
G01 X-60
G01 X-45
G01 X-30
G01 X-15
G01 X0
G01 X15
G01 X30
G01 X44.9
G01 X59.9
G01 X74.9
G01 X89.9
G01 X105
G01 X120
G01 X134.9
G01 X149.9
G01 X164.9
G01 X179.9
G01 X195
G01 X209.9
G01 X224.9
G01 X239.9
G01 X254.9
G01 X269.899
G01 X284.899
G01  Y-99.2
G01 X269.899
G01 X254.9
G01 X239.9
G01 X225
G01 X209.9
G01 X194.9
G01 X179.9
G01 X164.9
G01 X149.9
G01 X134.9
G01 X119.9
G01 X104.9
G01 X90
G01 X75
G01 X60
G01 X45
G01 X29.899
G01 X14.9
G01 X0
G01 X-15.1
G01 X-30
G01 X-45.1
G01 X-60
G01 X-75
G01 X-90
G01 X-105
G01 X-120
G01 X-135
G01 X-150
G01 X-165
G01 X-180
G01 X-195
G01 X-210
G01 X-225
G01 X-240
G01 X-255
G01 X-270
G01 X-285
G01 X-300
G01  Y-99.099
G01 X-285
G01 X-270
G01 X-255
G01 X-240
G01 X-225
G01 X-210
G01 X-195
G01 X-180
G01 X-165
G01 X-150
G01 X-135
G01 X-120
G01 X-105
G01 X-90
G01 X-75
G01 X-60
G01 X-45
G01 X-30.1
G01 X-15
G01 X-0.1
G01 X15
G01 X30
G01 X45
G01 X60
G01 X75
G01 X90
G01 X104.9
G01 X119.9
G01 X135
G01 X149.9
G01 X165
G01 X179.9
G01 X194.9
G01 X209.9
G01 X224.9
G01 X239.9
G01 X254.9
G01 X269.899
G01 X284.899
G01 X285 Y-99
G01 X269.899
G01 X255
G01 X239.9
G01 X224.9
G01 X209.9
G01 X195
G01 X180
G01 X164.9
G01 X150
G01 X134.9
G01 X120
G01 X105
G01 X89.9
G01 X74.9
G01 X59.9
G01 X44.9
G01 X30
G01 X15
G01 X0
G01 X-15
G01 X-30
G01 X-45
G01 X-60
G01 X-75
G01 X-90
G01 X-105
G01 X-120
G01 X-135
G01 X-150
G01 X-165
G01 X-180
G01 X-195
G01 X-210
G01 X-225
G01 X-240
G01 X-255
G01 X-270
G01 X-285
G01 X-300
G01  Y-98.9
G01 X-285
G01 X-270
G01 X-255
G01 X-240
G01 X-225
G01 X-210
G01 X-195
G01 X-180
G01 X-165
G01 X-150
G01 X-135.1
G01 X-120
G01 X-105.099
G01 X-90
G01 X-75.099
G01 X-60
G01 X-45.1
G01 X-30
G01 X-15.1
G01 X0
G01 X14.9
G01 X29.899
G01 X45
G01 X59.9
G01 X75
G01 X89.9
G01 X105
G01 X119.9
G01 X134.9
G01 X149.9
G01 X164.9
G01 X179.9
G01 X194.9
G01 X209.9
G01 X224.9
G01 X239.9
G01 X254.9
G01 X269.899
G01 X284.899
G01  Y-98.8
G01 X269.899
G01 X254.9
G01 X239.9
G01 X225
G01 X209.9
G01 X194.9
G01 X179.9
G01 X165
G01 X149.9
G01 X135
G01 X119.9
G01 X104.9
G01 X90
G01 X75
G01 X60
G01 X45
G01 X30
G01 X15
G01 X0
G01 X-15
G01 X-30
G01 X-45
G01 X-60
G01 X-75
G01 X-90
G01 X-105
G01 X-120
G01 X-135
G01 X-150
G01 X-165
G01 X-180
G01 X-195
G01 X-210
G01 X-225
G01 X-240
G01 X-255
G01 X-270
G01 X-285
G01 X-300
G01  Y-98.7
G01 X-285
G01 X-270
G01 X-255
G01 X-240
G01 X-225
G01 X-210
G01 X-195
G01 X-180
G01 X-165
G01 X-150
G01 X-135
G01 X-120
G01 X-105
G01 X-90
G01 X-75
G01 X-60
G01 X-45
G01 X-30.1
G01 X-15
G01 X-0.1
G01 X15
G01 X30
G01 X44.9
G01 X60
G01 X74.9
G01 X90
G01 X104.9
G01 X120
G01 X134.9
G01 X149.9
G01 X164.9
G01 X179.9
G01 X195
G01 X209.9
G01 X224.9
G01 X239.9
G01 X254.9
G01 X269.899
G01 X284.899
G01  Y-98.599
G01 X269.899
G01 X255
G01 X239.9
G01 X224.9
G01 X209.9
G01 X194.9
G01 X180
G01 X164.9
G01 X150
G01 X134.9
G01 X119.9
G01 X105
G01 X89.9
G01 X75
G01 X59.9
G01 X45
G01 X29.899
G01 X14.9
G01 X0
G01 X-15.1
G01 X-30
G01 X-45.1
G01 X-60
G01 X-75
G01 X-90
G01 X-105
G01 X-120
G01 X-135
G01 X-150
G01 X-165
G01 X-180
G01 X-195
G01 X-210
G01 X-225
G01 X-240
G01 X-255
G01 X-270
G01 X-285
G01 X-300
G01  Y-98.5
G01 X-285
G01 X-270
G01 X-255
G01 X-240
G01 X-225
G01 X-210
G01 X-195
G01 X-180
G01 X-165
G01 X-150
G01 X-135
G01 X-120
G01 X-105
G01 X-90
G01 X-75.099
G01 X-60
G01 X-45
G01 X-30
G01 X-15
G01 X0
G01 X15
G01 X30
G01 X44.9
G01 X59.9
G01 X74.9
G01 X89.9
G01 X105
G01 X119.9
G01 X135
G01 X149.9
G01 X165
G01 X179.9
G01 X194.9
G01 X209.9
G01 X224.9
G01 X239.9
G01 X254.9
G01 X269.899
G01 X284.899
G01 X285 Y-98.4
G01 X269.899
G01 X254.9
G01 X239.9
G01 X225
G01 X209.9
G01 X195
G01 X179.9
G01 X164.9
G01 X149.9
G01 X134.9
G01 X120
G01 X104.9
G01 X90
G01 X75
G01 X60
G01 X45
G01 X30
G01 X15
G01 X0
G01 X-15
G01 X-30
G01 X-45
G01 X-60.1
G01 X-75
G01 X-90
G01 X-105
G01 X-120
G01 X-135
G01 X-150
G01 X-165
G01 X-180
G01 X-195
G01 X-210
G01 X-225
G01 X-240
G01 X-255
G01 X-270
G01 X-285
G01 X-300
G01  Y-98.3
G01 X-285
G01 X-270
G01 X-255
G01 X-240
G01 X-225
G01 X-210
G01 X-195
G01 X-180
G01 X-165
G01 X-150
G01 X-135.1
G01 X-120
G01 X-105.099
G01 X-90
G01 X-75
G01 X-60
G01 X-45.1
G01 X-30.1
G01 X-15.1
G01 X-0.1
G01 X14.9
G01 X29.899
G01 X45
G01 X60
G01 X75
G01 X90
G01 X104.9
G01 X119.9
G01 X134.9
G01 X149.9
G01 X164.9
G01 X179.9
G01 X194.9
G01 X209.9
G01 X224.9
G01 X239.9
G01 X254.9
G01 X269.899
G01 X284.899
G01  Y-98.2
G01 X269.899
G01 X255
G01 X239.9
G01 X224.9
G01 X209.9
G01 X194.9
G01 X180
G01 X165
G01 X150
G01 X135
G01 X119.9
G01 X105
G01 X89.9
G01 X74.9
G01 X59.9
G01 X44.9
G01 X30
G01 X15
G01 X0
G01 X-15
G01 X-30
G01 X-45
G01 X-60
G01 X-75
G01 X-90
G01 X-105
G01 X-120
G01 X-135
G01 X-150
G01 X-165
G01 X-180
G01 X-195
G01 X-210
G01 X-225
G01 X-240
G01 X-255
G01 X-270
G01 X-285
G01 X-300
G01  Y-98.099
G01 X-285
G01 X-270
G01 X-255
G01 X-240
G01 X-225
G01 X-210
G01 X-195
G01 X-180
G01 X-165
G01 X-150
G01 X-135
G01 X-120
G01 X-105
G01 X-90
G01 X-75.099
G01 X-60
G01 X-45
G01 X-30
G01 X-15
G01 X0
G01 X15
G01 X30
G01 X45
G01 X59.9
G01 X75
G01 X89.9
G01 X104.9
G01 X120
G01 X134.9
G01 X149.9
G01 X164.9
G01 X179.9
G01 X195
G01 X209.9
G01 X224.9
G01 X239.9
G01 X254.9
G01 X269.899
G01 X284.899
G01  Y-98
G01 X269.899
G01 X254.9
G01 X239.9
G01 X225
G01 X209.9
G01 X194.9
G01 X179.9
G01 X164.9
G01 X149.9
G01 X134.9
G01 X119.9
G01 X105
G01 X90
G01 X75
G01 X60
G01 X45
G01 X29.899
G01 X14.9
G01 X0
G01 X-15.1
G01 X-30
G01 X-45.1
G01 X-60
G01 X-75
G01 X-90
G01 X-105
G01 X-120
G01 X-135
G01 X-150
G01 X-165
G01 X-180
G01 X-195
G01 X-210
G01 X-225
G01 X-240
G01 X-255
G01 X-270
G01 X-285
G01 X-300
G01  Y-97.9
G01 X-285
G01 X-270
G01 X-255
G01 X-240
G01 X-225
G01 X-210
G01 X-195
G01 X-180
G01 X-165
G01 X-150
G01 X-135
G01 X-120
G01 X-105
G01 X-90
G01 X-75
G01 X-60
G01 X-45
G01 X-30.1
G01 X-15
G01 X-0.1
G01 X15
G01 X30
G01 X44.9
G01 X60
G01 X74.9
G01 X90
G01 X104.9
G01 X119.9
G01 X135
G01 X149.9
G01 X165
G01 X179.9
G01 X194.9
G01 X209.9
G01 X224.9
G01 X239.9
G01 X254.9
G01 X269.899
G01 X284.899
G01 X285 Y-97.8
G01 X269.899
G01 X255
G01 X239.9
G01 X224.9
G01 X209.9
G01 X195
G01 X180
G01 X164.9
G01 X150
G01 X134.9
G01 X120
G01 X105
G01 X89.9
G01 X75
G01 X59.9
G01 X45
G01 X30
G01 X15
G01 X0
G01 X-15
G01 X-30
G01 X-45
G01 X-60
G01 X-75
G01 X-90
G01 X-105
G01 X-120
G01 X-135
G01 X-150
G01 X-165
G01 X-180
G01 X-195
G01 X-210
G01 X-225
G01 X-240
G01 X-255
G01 X-270
G01 X-285
G01 X-300
G01  Y-97.7
G01 X-285
G01 X-270
G01 X-255
G01 X-240
G01 X-225
G01 X-210
G01 X-195
G01 X-180
G01 X-165
G01 X-150
G01 X-135.1
G01 X-120
G01 X-105.099
G01 X-90
G01 X-75.099
G01 X-60.1
G01 X-45.1
G01 X-30
G01 X-15.1
G01 X0
G01 X14.9
G01 X29.899
G01 X44.9
G01 X59.9
G01 X74.9
G01 X89.9
G01 X104.9
G01 X119.9
G01 X134.9
G01 X149.9
G01 X164.9
G01 X179.9
G01 X194.9
G01 X209.9
G01 X224.9
G01 X239.9
G01 X254.9
G01 X269.899
G01 X284.899
G01  Y-97.599
G01 X269.899
G01 X254.9
G01 X239.9
G01 X225
G01 X209.9
G01 X194.9
G01 X179.9
G01 X165
G01 X149.9
G01 X135
G01 X119.9
G01 X105
G01 X90
G01 X75
G01 X60
G01 X45
G01 X30
G01 X15
G01 X0
G01 X-15
G01 X-30
G01 X-45
G01 X-60
G01 X-75
G01 X-90
G01 X-105
G01 X-120
G01 X-135
G01 X-150
G01 X-165
G01 X-180
G01 X-195
G01 X-210
G01 X-225
G01 X-240
G01 X-255
G01 X-270
G01 X-285
G01 X-300
G01  Y-97.5
G01 X-285
G01 X-270
G01 X-255
G01 X-240
G01 X-225
G01 X-210
G01 X-195
G01 X-180
G01 X-165
G01 X-150
G01 X-135
G01 X-120
G01 X-105
G01 X-90
G01 X-75
G01 X-60
G01 X-45
G01 X-30.1
G01 X-15
G01 X-0.1
G01 X15
G01 X30
G01 X45
G01 X60
G01 X75
G01 X90
G01 X104.9
G01 X120
G01 X134.9
G01 X149.9
G01 X164.9
G01 X179.9
G01 X195
G01 X209.9
G01 X224.9
G01 X239.9
G01 X254.9
G01 X269.899
G01 X284.899
G01 X299.899 Y-97.4
G01 X285
G01 X270
G01 X254.9
G01 X240
G01 X225
G01 X210
G01 X195
G01 X179.9
G01 X165
G01 X149.9
G01 X135
G01 X120
G01 X105
G01 X90
G01 X75
G01 X60
G01 X45
G01 X30
G01 X15
G01 X0
G01 X-15
G01 X-30
G01 X-45
G01 X-60.1
G01 X-75
G01 X-90
G01 X-105
G01 X-120
G01 X-135
G01 X-150
G01 X-165
G01 X-180
G01 X-195
G01 X-210
G01 X-225
G01 X-240
G01 X-255
G01 X-270
G01 X-285
G01  Y-97.3
G01 X-270
G01 X-255
G01 X-240
G01 X-225
G01 X-210
G01 X-195
G01 X-180
G01 X-165
G01 X-150
G01 X-135
G01 X-120
G01 X-105
G01 X-90
G01 X-75
G01 X-60
G01 X-45
G01 X-30.1
G01 X-15
G01 X-0.1
G01 X15
G01 X30
G01 X45
G01 X60
G01 X75
G01 X90
G01 X104.9
G01 X120
G01 X134.9
G01 X149.9
G01 X164.9
G01 X179.9
G01 X195
G01 X209.9
G01 X224.9
G01 X239.9
G01 X254.9
G01 X269.899
G01 X284.899
G01 X299.899
G01  Y-97.2
G01 X284.899
G01 X269.899
G01 X255
G01 X239.9
G01 X224.9
G01 X209.9
G01 X194.9
G01 X180
G01 X164.9
G01 X150
G01 X134.9
G01 X119.9
G01 X105
G01 X89.9
G01 X74.9
G01 X59.9
G01 X44.9
G01 X29.899
G01 X14.9
G01 X0
G01 X-15.1
G01 X-30
G01 X-45.1
G01 X-60
G01 X-75
G01 X-90
G01 X-105
G01 X-120
G01 X-135
G01 X-150
G01 X-165
G01 X-180
G01 X-195
G01 X-210
G01 X-225
G01 X-240
G01 X-255
G01 X-270
G01 X-285
G01  Y-97.099
G01 X-270
G01 X-255
G01 X-240
G01 X-225
G01 X-210
G01 X-195
G01 X-180
G01 X-165
G01 X-150
G01 X-135.1
G01 X-120
G01 X-105.099
G01 X-90
G01 X-75.099
G01 X-60
G01 X-45
G01 X-30
G01 X-15
G01 X0
G01 X15
G01 X30
G01 X45
G01 X59.9
G01 X75
G01 X89.9
G01 X105
G01 X119.9
G01 X135
G01 X149.9
G01 X165
G01 X179.9
G01 X194.9
G01 X209.9
G01 X224.9
G01 X239.9
G01 X254.9
G01 X269.899
G01 X284.899
G01 X299.899
G01  Y-97
G01 X284.899
G01 X269.899
G01 X254.9
G01 X239.9
G01 X225
G01 X209.9
G01 X195
G01 X179.9
G01 X164.9
G01 X149.9
G01 X134.9
G01 X120
G01 X104.9
G01 X90
G01 X75
G01 X60
G01 X45
G01 X30
G01 X15
G01 X0
G01 X-15
G01 X-30
G01 X-45
G01 X-60
G01 X-75
G01 X-90
G01 X-105
G01 X-120
G01 X-135
G01 X-150
G01 X-165
G01 X-180
G01 X-195
G01 X-210
G01 X-225
G01 X-240
G01 X-255
G01 X-270
G01 X-285
G01  Y-96.9
G01 X-270
G01 X-255
G01 X-240
G01 X-225
G01 X-210
G01 X-195
G01 X-180
G01 X-165
G01 X-150
G01 X-135
G01 X-120
G01 X-105
G01 X-90
G01 X-75
G01 X-60
G01 X-45.1
G01 X-30.1
G01 X-15.1
G01 X-0.1
G01 X14.9
G01 X29.899
G01 X44.9
G01 X60
G01 X74.9
G01 X90
G01 X104.9
G01 X119.9
G01 X134.9
G01 X149.9
G01 X164.9
G01 X179.9
G01 X194.9
G01 X209.9
G01 X224.9
G01 X239.9
G01 X254.9
G01 X269.899
G01 X284.899
G01 X299.899
G01  Y-96.8
G01 X285
G01 X269.899
G01 X255
G01 X239.9
G01 X224.9
G01 X209.9
G01 X194.9
G01 X180
G01 X165
G01 X150
G01 X135
G01 X119.9
G01 X105
G01 X89.9
G01 X75
G01 X59.9
G01 X45
G01 X30
G01 X15
G01 X0
G01 X-15
G01 X-30
G01 X-45
G01 X-60
G01 X-75
G01 X-90
G01 X-105
G01 X-120
G01 X-135
G01 X-150
G01 X-165
G01 X-180
G01 X-195
G01 X-210
G01 X-225
G01 X-240
G01 X-255
G01 X-270
G01 X-285
G01  Y-96.7
G01 X-270
G01 X-255
G01 X-240
G01 X-225
G01 X-210
G01 X-195
G01 X-180
G01 X-165
G01 X-150
G01 X-135
G01 X-120
G01 X-105
G01 X-90
G01 X-75.099
G01 X-60
G01 X-45
G01 X-30
G01 X-15
G01 X0
G01 X15
G01 X30
G01 X44.9
G01 X59.9
G01 X74.9
G01 X89.9
G01 X105
G01 X120
G01 X134.9
G01 X149.9
G01 X164.9
G01 X179.9
G01 X195
G01 X209.9
G01 X224.9
G01 X239.9
G01 X254.9
G01 X269.899
G01 X284.899
G01 X299.899
G01  Y-96.599
G01 X284.899
G01 X269.899
G01 X254.9
G01 X239.9
G01 X224.9
G01 X209.9
G01 X194.9
G01 X179.9
G01 X164.9
G01 X149.9
G01 X134.9
G01 X119.9
G01 X104.9
G01 X90
G01 X75
G01 X60
G01 X45
G01 X29.899
G01 X14.9
G01 X0
G01 X-15.1
G01 X-30
G01 X-45.1
G01 X-60
G01 X-75
G01 X-90
G01 X-105
G01 X-120
G01 X-135
G01 X-150
G01 X-165
G01 X-180
G01 X-195
G01 X-210
G01 X-225
G01 X-240
G01 X-255
G01 X-270
G01 X-285
G01  Y-96.5
G01 X-270
G01 X-255
G01 X-240
G01 X-225
G01 X-210
G01 X-195
G01 X-180
G01 X-165
G01 X-150
G01 X-135.1
G01 X-120
G01 X-105.099
G01 X-90
G01 X-75
G01 X-60
G01 X-45
G01 X-30.1
G01 X-15
G01 X-0.1
G01 X15
G01 X30
G01 X45
G01 X60
G01 X75
G01 X90
G01 X104.9
G01 X119.9
G01 X135
G01 X149.9
G01 X165
G01 X179.9
G01 X194.9
G01 X209.9
G01 X225
G01 X239.9
G01 X254.9
G01 X269.899
G01 X284.899
G01 X299.899
G01  Y-96.4
G01 X284.899
G01 X269.899
G01 X254.9
G01 X239.9
G01 X224.9
G01 X209.9
G01 X195
G01 X179.9
G01 X164.9
G01 X149.9
G01 X134.9
G01 X120
G01 X105
G01 X89.9
G01 X74.9
G01 X59.9
G01 X44.9
G01 X30
G01 X15
G01 X0
G01 X-15
G01 X-30
G01 X-45
G01 X-60
G01 X-75
G01 X-90
G01 X-105
G01 X-120
G01 X-135
G01 X-150
G01 X-165
G01 X-180
G01 X-195
G01 X-210
G01 X-225
G01 X-240
G01 X-255
G01 X-270
G01 X-285
G01  Y-96.3
G01 X-270
G01 X-255
G01 X-240
G01 X-225
G01 X-210
G01 X-195
G01 X-180
G01 X-165
G01 X-150
G01 X-135
G01 X-120
G01 X-105
G01 X-90
G01 X-75.099
G01 X-60
G01 X-45.1
G01 X-30
G01 X-15.1
G01 X0
G01 X14.9
G01 X29.899
G01 X45
G01 X59.9
G01 X75
G01 X89.9
G01 X105
G01 X119.9
G01 X134.9
G01 X150
G01 X164.9
G01 X180
G01 X194.9
G01 X209.9
G01 X224.9
G01 X239.9
G01 X255
G01 X269.899
G01 X284.899
G01 X299.899
G01  Y-96.2
G01 X285
G01 X269.899
G01 X254.9
G01 X239.9
G01 X225
G01 X209.9
G01 X194.9
G01 X179.9
G01 X165
G01 X149.9
G01 X135
G01 X119.9
G01 X104.9
G01 X90
G01 X75
G01 X60
G01 X45
G01 X30
G01 X15
G01 X0
G01 X-15
G01 X-30
G01 X-45
G01 X-60
G01 X-75
G01 X-90
G01 X-105
G01 X-120
G01 X-135
G01 X-150
G01 X-165
G01 X-180
G01 X-195
G01 X-210
G01 X-225
G01 X-240
G01 X-255
G01 X-270
G01 X-285
G01  Y-96.099
G01 X-270
G01 X-255
G01 X-240
G01 X-225
G01 X-210
G01 X-195
G01 X-180
G01 X-165
G01 X-150
G01 X-135
G01 X-120
G01 X-105
G01 X-90
G01 X-75
G01 X-60.1
G01 X-45
G01 X-30.1
G01 X-15
G01 X-0.1
G01 X15
G01 X30
G01 X44.9
G01 X60
G01 X74.9
G01 X90
G01 X104.9
G01 X120
G01 X134.9
G01 X149.9
G01 X164.9
G01 X179.9
G01 X195
G01 X209.9
G01 X224.9
G01 X239.9
G01 X254.9
G01 X269.899
G01 X284.899
G01 X299.899
G01  Y-96
G01 X284.899
G01 X269.899
G01 X255
G01 X239.9
G01 X224.9
G01 X209.9
G01 X194.9
G01 X180
G01 X164.9
G01 X150
G01 X134.9
G01 X119.9
G01 X105
G01 X89.9
G01 X75
G01 X59.9
G01 X45
G01 X29.899
G01 X14.9
G01 X0
G01 X-15.1
G01 X-30
G01 X-45.1
G01 X-60
G01 X-75
G01 X-90
G01 X-105
G01 X-120
G01 X-135
G01 X-150
G01 X-165
G01 X-180
G01 X-195
G01 X-210
G01 X-225
G01 X-240
G01 X-255
G01 X-270
G01 X-285
G01  Y-95.9
G01 X-270
G01 X-255
G01 X-240
G01 X-225
G01 X-210
G01 X-195
G01 X-180
G01 X-165
G01 X-150
G01 X-135.1
G01 X-120
G01 X-105.099
G01 X-90
G01 X-75.099
G01 X-60
G01 X-45
G01 X-30
G01 X-15
G01 X0
G01 X15
G01 X30
G01 X44.9
G01 X59.9
G01 X74.9
G01 X89.9
G01 X105
G01 X119.9
G01 X135
G01 X149.9
G01 X165
G01 X179.9
G01 X194.9
G01 X209.9
G01 X224.9
G01 X239.9
G01 X254.9
G01 X269.899
G01 X284.899
G01 X299.899
G01  Y-95.8
G01 X284.899
G01 X269.899
G01 X254.9
G01 X239.9
G01 X225
G01 X209.9
G01 X195
G01 X179.9
G01 X164.9
G01 X149.9
G01 X134.9
G01 X120
G01 X104.9
G01 X90
G01 X75
G01 X60
G01 X45
G01 X30
G01 X15
G01 X0
G01 X-15
G01 X-30
G01 X-45
G01 X-60
G01 X-75
G01 X-90
G01 X-105
G01 X-120
G01 X-135
G01 X-150
G01 X-165
G01 X-180
G01 X-195
G01 X-210
G01 X-225
G01 X-240
G01 X-255
G01 X-270
G01 X-285
G01  Y-95.7
G01 X-270
G01 X-255
G01 X-240
G01 X-225
G01 X-210
G01 X-195
G01 X-180
G01 X-165
G01 X-150
G01 X-135
G01 X-120
G01 X-105
G01 X-90
G01 X-75
G01 X-60
G01 X-45.1
G01 X-30.1
G01 X-15.1
G01 X-0.1
G01 X14.9
G01 X29.899
G01 X45
G01 X60
G01 X75
G01 X90
G01 X104.9
G01 X119.9
G01 X134.9
G01 X149.9
G01 X164.9
G01 X179.9
G01 X194.9
G01 X209.9
G01 X224.9
G01 X239.9
G01 X254.9
G01 X269.899
G01 X284.899
G01 X299.899
G01  Y-95.599
G01 X285
G01 X269.899
G01 X255
G01 X239.9
G01 X224.9
G01 X209.9
G01 X194.9
G01 X180
G01 X165
G01 X150
G01 X135
G01 X119.9
G01 X105
G01 X89.9
G01 X74.9
G01 X59.9
G01 X44.9
G01 X30
G01 X15
G01 X0
G01 X-15
G01 X-30
G01 X-45
G01 X-60
G01 X-75
G01 X-90
G01 X-105
G01 X-120
G01 X-135
G01 X-150
G01 X-165
G01 X-180
G01 X-195
G01 X-210
G01 X-225
G01 X-240
G01 X-255
G01 X-270
G01 X-285
G01  Y-95.5
G01 X-270
G01 X-255
G01 X-240
G01 X-225
G01 X-210
G01 X-195
G01 X-180
G01 X-165
G01 X-150
G01 X-135
G01 X-120
G01 X-105
G01 X-90
G01 X-75.099
G01 X-60
G01 X-45
G01 X-30
G01 X-15
G01 X0
G01 X15
G01 X30
G01 X45
G01 X59.9
G01 X75
G01 X89.9
G01 X105
G01 X120
G01 X134.9
G01 X149.9
G01 X164.9
G01 X179.9
G01 X195
G01 X209.9
G01 X224.9
G01 X239.9
G01 X254.9
G01 X269.899
G01 X284.899
G01 X299.899
G01  Y-95.4
G01 X284.899
G01 X269.899
G01 X254.9
G01 X239.9
G01 X225
G01 X209.9
G01 X194.9
G01 X179.9
G01 X164.9
G01 X149.9
G01 X134.9
G01 X119.9
G01 X104.9
G01 X90
G01 X75
G01 X60
G01 X45
G01 X29.899
G01 X14.9
G01 X0
G01 X-15.1
G01 X-30
G01 X-45.1
G01 X-60
G01 X-75
G01 X-90
G01 X-105
G01 X-120
G01 X-135
G01 X-150
G01 X-165
G01 X-180
G01 X-195
G01 X-210
G01 X-225
G01 X-240
G01 X-255
G01 X-270
G01 X-285
G01  Y-95.3
G01 X-270
G01 X-255
G01 X-240
G01 X-225
G01 X-210
G01 X-195
G01 X-180
G01 X-165
G01 X-150
G01 X-135.1
G01 X-120
G01 X-105.099
G01 X-90
G01 X-75
G01 X-60
G01 X-45
G01 X-30.1
G01 X-15
G01 X-0.1
G01 X15
G01 X30
G01 X44.9
G01 X60
G01 X74.9
G01 X90
G01 X104.9
G01 X119.9
G01 X135
G01 X149.9
G01 X165
G01 X179.9
G01 X194.9
G01 X209.9
G01 X224.9
G01 X239.9
G01 X254.9
G01 X269.899
G01 X284.899
G01 X299.899
G01  Y-95.2
G01 X284.899
G01 X269.899
G01 X255
G01 X239.9
G01 X224.9
G01 X209.9
G01 X195
G01 X180
G01 X164.9
G01 X150
G01 X134.9
G01 X120
G01 X105
G01 X89.9
G01 X75
G01 X59.9
G01 X45
G01 X30
G01 X15
G01 X0
G01 X-15
G01 X-30
G01 X-45
G01 X-60
G01 X-75
G01 X-90
G01 X-105
G01 X-120
G01 X-135
G01 X-150
G01 X-165
G01 X-180
G01 X-195
G01 X-210
G01 X-225
G01 X-240
G01 X-255
G01 X-270
G01 X-285
G01  Y-95.099
G01 X-270
G01 X-255
G01 X-240
G01 X-225
G01 X-210
G01 X-195
G01 X-180
G01 X-165
G01 X-150
G01 X-135
G01 X-120
G01 X-105
G01 X-90
G01 X-75.099
G01 X-60
G01 X-45.1
G01 X-30
G01 X-15.1
G01 X0
G01 X14.9
G01 X29.899
G01 X44.9
G01 X59.9
G01 X74.9
G01 X89.9
G01 X105
G01 X119.9
G01 X134.9
G01 X149.9
G01 X164.9
G01 X179.9
G01 X194.9
G01 X209.9
G01 X224.9
G01 X239.9
G01 X254.9
G01 X269.899
G01 X284.899
G01 X299.899
G01  Y-95
G01 X285
G01 X269.899
G01 X254.9
G01 X239.9
G01 X225
G01 X209.9
G01 X194.9
G01 X179.9
G01 X165
G01 X149.9
G01 X135
G01 X119.9
G01 X104.9
G01 X90
G01 X75
G01 X60
G01 X45
G01 X30
G01 X15
G01 X0
G01 X-15
G01 X-30
G01 X-45
G01 X-60
G01 X-75
G01 X-90
G01 X-105
G01 X-120
G01 X-135
G01 X-150
G01 X-165
G01 X-180
G01 X-195
G01 X-210
G01 X-225
G01 X-240
G01 X-255
G01 X-270
G01 X-285
G01  Y-94.9
G01 X-270
G01 X-255
G01 X-240
G01 X-225
G01 X-210
G01 X-195
G01 X-180
G01 X-165
G01 X-150
G01 X-135
G01 X-120
G01 X-105
G01 X-90
G01 X-75
G01 X-60
G01 X-45
G01 X-30.1
G01 X-15
G01 X-0.1
G01 X15
G01 X30
G01 X45
G01 X60
G01 X75
G01 X90
G01 X104.9
G01 X120
G01 X134.9
G01 X149.9
G01 X164.9
G01 X179.9
G01 X195
G01 X209.9
G01 X224.9
G01 X239.9
G01 X254.9
G01 X269.899
G01 X284.899
G01 X299.899
G01  Y-94.8
G01 X284.899
G01 X269.899
G01 X255
G01 X239.9
G01 X224.9
G01 X209.9
G01 X194.9
G01 X180
G01 X164.9
G01 X150
G01 X134.9
G01 X119.9
G01 X105
G01 X89.9
G01 X74.9
G01 X59.9
G01 X44.9
G01 X29.899
G01 X14.9
G01 X0
G01 X-15.1
G01 X-30
G01 X-45.1
G01 X-60
G01 X-75
G01 X-90
G01 X-105
G01 X-120
G01 X-135
G01 X-150
G01 X-165
G01 X-180
G01 X-195
G01 X-210
G01 X-225
G01 X-240
G01 X-255
G01 X-270
G01 X-285
G01  Y-94.7
G01 X-270
G01 X-255
G01 X-240
G01 X-225
G01 X-210
G01 X-195
G01 X-180
G01 X-165
G01 X-150
G01 X-135.1
G01 X-120
G01 X-105.099
G01 X-90
G01 X-75.099
G01 X-60
G01 X-45
G01 X-30
G01 X-15
G01 X0
G01 X15
G01 X30
G01 X45
G01 X59.9
G01 X75
G01 X89.9
G01 X105
G01 X119.9
G01 X135
G01 X149.9
G01 X165
G01 X179.9
G01 X194.9
G01 X209.9
G01 X224.9
G01 X239.9
G01 X254.9
G01 X269.899
G01 X284.899
G01 X299.899
G01  Y-94.599
G01 X284.899
G01 X269.899
G01 X254.9
G01 X239.9
G01 X225
G01 X209.9
G01 X195
G01 X179.9
G01 X164.9
G01 X149.9
G01 X134.9
G01 X120
G01 X104.9
G01 X90
G01 X75
G01 X60
G01 X45
G01 X30
G01 X15
G01 X0
G01 X-15
G01 X-30
G01 X-45
G01 X-60
G01 X-75
G01 X-90
G01 X-105
G01 X-120
G01 X-135
G01 X-150
G01 X-165
G01 X-180
G01 X-195
G01 X-210
G01 X-225
G01 X-240
G01 X-255
G01 X-270
G01 X-285
G01  Y-94.5
G01 X-270
G01 X-255
G01 X-240
G01 X-225
G01 X-210
G01 X-195
G01 X-180
G01 X-165
G01 X-150
G01 X-135
G01 X-120
G01 X-105
G01 X-90
G01 X-75
G01 X-60
G01 X-45.1
G01 X-30.1
G01 X-15.1
G01 X-0.1
G01 X14.9
G01 X29.899
G01 X44.9
G01 X60
G01 X74.9
G01 X90
G01 X104.9
G01 X119.9
G01 X134.9
G01 X149.9
G01 X164.9
G01 X179.9
G01 X194.9
G01 X209.9
G01 X224.9
G01 X239.9
G01 X254.9
G01 X269.899
G01 X284.899
G01 X299.899
G01  Y-94.4
G01 X285
G01 X269.899
G01 X255
G01 X239.9
G01 X224.9
G01 X209.9
G01 X194.9
G01 X180
G01 X165
G01 X150
G01 X135
G01 X119.9
G01 X105
G01 X89.9
G01 X75
G01 X59.9
G01 X45
G01 X30
G01 X15
G01 X0
G01 X-15
G01 X-30
G01 X-45
G01 X-60
G01 X-75
G01 X-90
G01 X-105
G01 X-120
G01 X-135
G01 X-150
G01 X-165
G01 X-180
G01 X-195
G01 X-210
G01 X-225
G01 X-240
G01 X-255
G01 X-270
G01 X-285
G01  Y-94.3
G01 X-270
G01 X-255
G01 X-240
G01 X-225
G01 X-210
G01 X-195
G01 X-180
G01 X-165
G01 X-150
G01 X-135
G01 X-120
G01 X-105
G01 X-90
G01 X-75
G01 X-60
G01 X-45
G01 X-30
G01 X-15
G01 X0
G01 X15
G01 X30
G01 X44.9
G01 X59.9
G01 X74.9
G01 X89.9
G01 X105
G01 X120
G01 X134.9
G01 X149.9
G01 X164.9
G01 X179.9
G01 X195
G01 X209.9
G01 X224.9
G01 X239.9
G01 X254.9
G01 X269.899
G01 X284.899
G01 X299.899
G01  Y-94.2
G01 X284.899
G01 X269.899
G01 X254.9
G01 X239.9
G01 X224.9
G01 X209.9
G01 X194.9
G01 X179.9
G01 X164.9
G01 X149.9
G01 X134.9
G01 X119.9
G01 X104.9
G01 X90
G01 X75
G01 X60
G01 X45
G01 X29.899
G01 X14.9
G01 X0
G01 X-15.1
G01 X-30
G01 X-45.1
G01 X-60
G01 X-75.099
G01 X-90
G01 X-105
G01 X-120
G01 X-135
G01 X-150
G01 X-165
G01 X-180
G01 X-195
G01 X-210
G01 X-225
G01 X-240
G01 X-255
G01 X-270
G01 X-285
G01  Y-94.099
G01 X-270
G01 X-255
G01 X-240
G01 X-225
G01 X-210
G01 X-195
G01 X-180
G01 X-165
G01 X-150
G01 X-135.1
G01 X-120
G01 X-105.099
G01 X-90
G01 X-75
G01 X-60.1
G01 X-45
G01 X-30.1
G01 X-15
G01 X-0.1
G01 X15
G01 X30
G01 X45
G01 X60
G01 X75
G01 X90
G01 X104.9
G01 X119.9
G01 X135
G01 X149.9
G01 X165
G01 X179.9
G01 X194.9
G01 X209.9
G01 X225
G01 X239.9
G01 X254.9
G01 X269.899
G01 X284.899
G01 X299.899
G01  Y-94
G01 X284.899
G01 X269.899
G01 X255
G01 X239.9
G01 X224.9
G01 X209.9
G01 X195
G01 X180
G01 X164.9
G01 X150
G01 X134.9
G01 X120
G01 X105
G01 X89.9
G01 X74.9
G01 X59.9
G01 X44.9
G01 X30
G01 X15
G01 X0
G01 X-15
G01 X-30
G01 X-45
G01 X-60
G01 X-75
G01 X-90
G01 X-105
G01 X-120
G01 X-135
G01 X-150
G01 X-165
G01 X-180
G01 X-195
G01 X-210
G01 X-225
G01 X-240
G01 X-255
G01 X-270
G01 X-285
G01  Y-93.9
G01 X-270
G01 X-255
G01 X-240
G01 X-225
G01 X-210
G01 X-195
G01 X-180
G01 X-165
G01 X-150
G01 X-135
G01 X-120
G01 X-105
G01 X-90
G01 X-75.099
G01 X-60
G01 X-45.1
G01 X-30
G01 X-15.1
G01 X0
G01 X14.9
G01 X29.899
G01 X45
G01 X59.9
G01 X75
G01 X89.9
G01 X105
G01 X119.9
G01 X134.9
G01 X149.9
G01 X164.9
G01 X179.9
G01 X194.9
G01 X209.9
G01 X224.9
G01 X239.9
G01 X254.9
G01 X269.899
G01 X284.899
G01 X299.899
G01  Y-93.8
G01 X285
G01 X269.899
G01 X254.9
G01 X239.9
G01 X225
G01 X209.9
G01 X194.9
G01 X179.9
G01 X165
G01 X149.9
G01 X135
G01 X119.9
G01 X104.9
G01 X90
G01 X75
G01 X60
G01 X45
G01 X30
G01 X15
G01 X0
G01 X-15
G01 X-30
G01 X-45
G01 X-60
G01 X-75
G01 X-90
G01 X-105
G01 X-120
G01 X-135
G01 X-150
G01 X-165
G01 X-180
G01 X-195
G01 X-210
G01 X-225
G01 X-240
G01 X-255
G01 X-270
G01 X-285
G01  Y-93.7
G01 X-270
G01 X-255
G01 X-240
G01 X-225
G01 X-210
G01 X-195
G01 X-180
G01 X-165
G01 X-150
G01 X-135
G01 X-120
G01 X-105
G01 X-90
G01 X-75
G01 X-60
G01 X-45
G01 X-30.1
G01 X-15
G01 X-0.1
G01 X15
G01 X30
G01 X44.9
G01 X60
G01 X74.9
G01 X90
G01 X104.9
G01 X120
G01 X134.9
G01 X149.9
G01 X164.9
G01 X179.9
G01 X195
G01 X209.9
G01 X224.9
G01 X239.9
G01 X254.9
G01 X269.899
G01 X284.899
G01 X299.899
G01  Y-93.599
G01 X284.899
G01 X269.899
G01 X255
G01 X239.9
G01 X224.9
G01 X209.9
G01 X194.9
G01 X180
G01 X164.9
G01 X150
G01 X134.9
G01 X119.9
G01 X105
G01 X89.9
G01 X75
G01 X59.9
G01 X45
G01 X29.899
G01 X14.9
G01 X0
G01 X-15.1
G01 X-30
G01 X-45.1
G01 X-60
G01 X-75
G01 X-90
G01 X-105
G01 X-120
G01 X-135
G01 X-150
G01 X-165
G01 X-180
G01 X-195
G01 X-210
G01 X-225
G01 X-240
G01 X-255
G01 X-270
G01 X-285
G01  Y-93.5
G01 X-270
G01 X-255
G01 X-240
G01 X-225
G01 X-210
G01 X-195
G01 X-180
G01 X-165
G01 X-150
G01 X-135.1
G01 X-120
G01 X-105.099
G01 X-90
G01 X-75.099
G01 X-60
G01 X-45
G01 X-30
G01 X-15
G01 X0
G01 X15
G01 X30
G01 X44.9
G01 X59.9
G01 X74.9
G01 X89.9
G01 X105
G01 X119.9
G01 X135
G01 X149.9
G01 X165
G01 X179.9
G01 X194.9
G01 X209.9
G01 X224.9
G01 X239.9
G01 X254.9
G01 X269.899
G01 X284.899
G01 X299.899
G01  Y-93.4
G01 X284.899
G01 X269.899
G01 X254.9
G01 X239.9
G01 X225
G01 X209.9
G01 X195
G01 X179.9
G01 X164.9
G01 X149.9
G01 X134.9
G01 X120
G01 X104.9
G01 X90
G01 X75
G01 X60
G01 X45
G01 X30
G01 X15
G01 X0
G01 X-15
G01 X-30
G01 X-45
G01 X-60
G01 X-75
G01 X-90
G01 X-105
G01 X-120
G01 X-135
G01 X-150
G01 X-165
G01 X-180
G01 X-195
G01 X-210
G01 X-225
G01 X-240
G01 X-255
G01 X-270
G01 X-285
G01  Y-93.3
G01 X-270
G01 X-255
G01 X-240
G01 X-225
G01 X-210
G01 X-195
G01 X-180
G01 X-165
G01 X-150
G01 X-135
G01 X-120
G01 X-105
G01 X-90
G01 X-75
G01 X-60
G01 X-45.1
G01 X-30.1
G01 X-15.1
G01 X-0.1
G01 X14.9
G01 X29.899
G01 X45
G01 X60
G01 X75
G01 X90
G01 X104.9
G01 X119.9
G01 X134.9
G01 X149.9
G01 X164.9
G01 X179.9
G01 X194.9
G01 X209.9
G01 X224.9
G01 X239.9
G01 X254.9
G01 X269.899
G01 X284.899
G01 X299.899
G01  Y-93.2
G01 X285
G01 X269.899
G01 X255
G01 X239.9
G01 X224.9
G01 X209.9
G01 X194.9
G01 X180
G01 X165
G01 X150
G01 X135
G01 X119.9
G01 X105
G01 X89.9
G01 X74.9
G01 X59.9
G01 X44.9
G01 X30
G01 X15
G01 X0
G01 X-15
G01 X-30
G01 X-45
G01 X-60
G01 X-75
G01 X-90
G01 X-105
G01 X-120
G01 X-135
G01 X-150
G01 X-165
G01 X-180
G01 X-195
G01 X-210
G01 X-225
G01 X-240
G01 X-255
G01 X-270
G01 X-285
G01  Y-93.099
G01 X-270
G01 X-255
G01 X-240
G01 X-225
G01 X-210
G01 X-195
G01 X-180
G01 X-165
G01 X-150
G01 X-135
G01 X-120
G01 X-105
G01 X-90
G01 X-75.099
G01 X-60
G01 X-45
G01 X-30
G01 X-15
G01 X0
G01 X15
G01 X30
G01 X45
G01 X59.9
G01 X75
G01 X89.9
G01 X105
G01 X120
G01 X134.9
G01 X149.9
G01 X164.9
G01 X179.9
G01 X195
G01 X209.9
G01 X224.9
G01 X239.9
G01 X254.9
G01 X269.899
G01 X284.899
G01 X299.899
G01  Y-93
G01 X284.899
G01 X269.899
G01 X254.9
G01 X239.9
G01 X225
G01 X209.9
G01 X194.9
G01 X179.9
G01 X164.9
G01 X149.9
G01 X134.9
G01 X119.9
G01 X104.9
G01 X90
G01 X75
G01 X60
G01 X45
G01 X29.899
G01 X14.9
G01 X0
G01 X-15.1
G01 X-30
G01 X-45.1
G01 X-60
G01 X-75
G01 X-90
G01 X-105
G01 X-120
G01 X-135
G01 X-150
G01 X-165
G01 X-180
G01 X-195
G01 X-210
G01 X-225
G01 X-240
G01 X-255
G01 X-270
G01 X-285
G01  Y-92.9
G01 X-270
G01 X-255
G01 X-240
G01 X-225
G01 X-210
G01 X-195
G01 X-180
G01 X-165
G01 X-150
G01 X-135.1
G01 X-120
G01 X-105.099
G01 X-90
G01 X-75
G01 X-60
G01 X-45
G01 X-30.1
G01 X-15
G01 X-0.1
G01 X15
G01 X30
G01 X44.9
G01 X60
G01 X74.9
G01 X90
G01 X104.9
G01 X119.9
G01 X135
G01 X149.9
G01 X165
G01 X179.9
G01 X194.9
G01 X209.9
G01 X224.9
G01 X239.9
G01 X254.9
G01 X269.899
G01 X284.899
G01 X299.899
G01  Y-92.8
G01 X284.899
G01 X269.899
G01 X255
G01 X239.9
G01 X224.9
G01 X209.9
G01 X195
G01 X180
G01 X164.9
G01 X150
G01 X134.9
G01 X120
G01 X105
G01 X89.9
G01 X75
G01 X59.9
G01 X45
G01 X30
G01 X15
G01 X0
G01 X-15
G01 X-30
G01 X-45
G01 X-60
G01 X-75
G01 X-90
G01 X-105
G01 X-120
G01 X-135
G01 X-150
G01 X-165
G01 X-180
G01 X-195
G01 X-210
G01 X-225
G01 X-240
G01 X-255
G01 X-270
G01 X-285
G01  Y-92.7
G01 X-270
G01 X-255
G01 X-240
G01 X-225
G01 X-210
G01 X-195
G01 X-180
G01 X-165
G01 X-150
G01 X-135
G01 X-120
G01 X-105
G01 X-90
G01 X-75.099
G01 X-60
G01 X-45.1
G01 X-30
G01 X-15.1
G01 X0
G01 X14.9
G01 X29.899
G01 X44.9
G01 X59.9
G01 X74.9
G01 X89.9
G01 X105
G01 X119.9
G01 X134.9
G01 X149.9
G01 X164.9
G01 X179.9
G01 X194.9
G01 X209.9
G01 X224.9
G01 X239.9
G01 X254.9
G01 X269.899
G01 X284.899
G01 X299.899
G01  Y-92.599
G01 X285
G01 X269.899
G01 X254.9
G01 X239.9
G01 X225
G01 X209.9
G01 X194.9
G01 X179.9
G01 X165
G01 X149.9
G01 X135
G01 X119.9
G01 X104.9
G01 X90
G01 X75
G01 X60
G01 X45
G01 X30
G01 X15
G01 X0
G01 X-15
G01 X-30
G01 X-45
G01 X-60
G01 X-75
G01 X-90
G01 X-105
G01 X-120
G01 X-135
G01 X-150
G01 X-165
G01 X-180
G01 X-195
G01 X-210
G01 X-225
G01 X-240
G01 X-255
G01 X-270
G01 X-285
G01  Y-92.5
G01 X-270
G01 X-255
G01 X-240
G01 X-225
G01 X-210
G01 X-195
G01 X-180
G01 X-165
G01 X-150
G01 X-135
G01 X-120
G01 X-105
G01 X-90
G01 X-75
G01 X-60
G01 X-45
G01 X-30.1
G01 X-15
G01 X-0.1
G01 X15
G01 X30
G01 X45
G01 X60
G01 X75
G01 X90
G01 X104.9
G01 X120
G01 X134.9
G01 X149.9
G01 X164.9
G01 X179.9
G01 X195
G01 X209.9
G01 X224.9
G01 X239.9
G01 X254.9
G01 X269.899
G01 X284.899
G01 X299.899
G01  Y-92.4
G01 X284.899
G01 X269.899
G01 X255
G01 X239.9
G01 X224.9
G01 X209.9
G01 X194.9
G01 X180
G01 X164.9
G01 X150
G01 X134.9
G01 X119.9
G01 X105
G01 X89.9
G01 X74.9
G01 X59.9
G01 X44.9
G01 X29.899
G01 X14.9
G01 X0
G01 X-15.1
G01 X-30
G01 X-45.1
G01 X-60
G01 X-75
G01 X-90
G01 X-105
G01 X-120
G01 X-135
G01 X-150
G01 X-165
G01 X-180
G01 X-195
G01 X-210
G01 X-225
G01 X-240
G01 X-255
G01 X-270
G01 X-285
G01  Y-92.3
G01 X-270
G01 X-255
G01 X-240
G01 X-225
G01 X-210
G01 X-195
G01 X-180
G01 X-165
G01 X-150
G01 X-135.1
G01 X-120
G01 X-105.099
G01 X-90
G01 X-75.099
G01 X-60
G01 X-45
G01 X-30
G01 X-15
G01 X0
G01 X15
G01 X30
G01 X45
G01 X59.9
G01 X75
G01 X89.9
G01 X105
G01 X119.9
G01 X135
G01 X149.9
G01 X165
G01 X179.9
G01 X194.9
G01 X209.9
G01 X224.9
G01 X239.9
G01 X254.9
G01 X269.899
G01 X284.899
G01 X299.899
G01  Y-92.2
G01 X284.899
G01 X269.899
G01 X254.9
G01 X239.9
G01 X225
G01 X209.9
G01 X195
G01 X179.9
G01 X164.9
G01 X149.9
G01 X134.9
G01 X120
G01 X104.9
G01 X90
G01 X75
G01 X60
G01 X45
G01 X30
G01 X15
G01 X0
G01 X-15
G01 X-30
G01 X-45
G01 X-60
G01 X-75
G01 X-90
G01 X-105
G01 X-120
G01 X-135
G01 X-150
G01 X-165
G01 X-180
G01 X-195
G01 X-210
G01 X-225
G01 X-240
G01 X-255
G01 X-270
G01 X-285
G01  Y-92.099
G01 X-270
G01 X-255
G01 X-240
G01 X-225
G01 X-210
G01 X-195
G01 X-180
G01 X-165
G01 X-150
G01 X-135
G01 X-120
G01 X-105
G01 X-90
G01 X-75
G01 X-60.1
G01 X-45.1
G01 X-30.1
G01 X-15.1
G01 X-0.1
G01 X14.9
G01 X29.899
G01 X44.9
G01 X60
G01 X74.9
G01 X90
G01 X104.9
G01 X119.9
G01 X134.9
G01 X149.9
G01 X164.9
G01 X179.9
G01 X194.9
G01 X209.9
G01 X224.9
G01 X239.9
G01 X254.9
G01 X269.899
G01 X284.899
G01 X299.899
G01  Y-92
G01 X285
G01 X269.899
G01 X255
G01 X239.9
G01 X224.9
G01 X209.9
G01 X194.9
G01 X180
G01 X165
G01 X150
G01 X135
G01 X119.9
G01 X105
G01 X89.9
G01 X75
G01 X59.9
G01 X45
G01 X30
G01 X15
G01 X0
G01 X-15
G01 X-30
G01 X-45
G01 X-60
G01 X-75
G01 X-90
G01 X-105
G01 X-120
G01 X-135
G01 X-150
G01 X-165
G01 X-180
G01 X-195
G01 X-210
G01 X-225
G01 X-240
G01 X-255
G01 X-270
G01 X-285
G01  Y-91.9
G01 X-270
G01 X-255
G01 X-240
G01 X-225
G01 X-210
G01 X-195
G01 X-180
G01 X-165
G01 X-150
G01 X-135
G01 X-120
G01 X-105
G01 X-90
G01 X-75.099
G01 X-60
G01 X-45
G01 X-30
G01 X-15
G01 X0
G01 X15
G01 X30
G01 X44.9
G01 X59.9
G01 X74.9
G01 X89.9
G01 X105
G01 X120
G01 X134.9
G01 X149.9
G01 X164.9
G01 X179.9
G01 X195
G01 X209.9
G01 X224.9
G01 X239.9
G01 X254.9
G01 X269.899
G01 X284.899
G01 X299.899
G01  Y-91.8
G01 X284.899
G01 X269.899
G01 X254.9
G01 X239.9
G01 X225
G01 X209.9
G01 X194.9
G01 X179.9
G01 X164.9
G01 X149.9
G01 X134.9
G01 X119.9
G01 X104.9
G01 X90
G01 X75
G01 X60
G01 X45
G01 X29.899
G01 X14.9
G01 X0
G01 X-15.1
G01 X-30
G01 X-45.1
G01 X-60
G01 X-75
G01 X-90
G01 X-105
G01 X-120
G01 X-135
G01 X-150
G01 X-165
G01 X-180
G01 X-195
G01 X-210
G01 X-225
G01 X-240
G01 X-255
G01 X-270
G01 X-285
G01  Y-91.7
G01 X-270
G01 X-255
G01 X-240
G01 X-225
G01 X-210
G01 X-195
G01 X-180
G01 X-165
G01 X-150
G01 X-135.1
G01 X-120
G01 X-105.099
G01 X-90
G01 X-75
G01 X-60
G01 X-45
G01 X-30.1
G01 X-15
G01 X-0.1
G01 X15
G01 X30
G01 X45
G01 X60
G01 X75
G01 X90
G01 X104.9
G01 X119.9
G01 X135
G01 X149.9
G01 X165
G01 X179.9
G01 X194.9
G01 X209.9
G01 X224.9
G01 X239.9
G01 X254.9
G01 X269.899
G01 X284.899
G01 X299.899
G01  Y-91.599
G01 X284.899
G01 X269.899
G01 X255
G01 X239.9
G01 X224.9
G01 X209.9
G01 X195
G01 X180
G01 X164.9
G01 X150
G01 X134.9
G01 X120
G01 X105
G01 X89.9
G01 X74.9
G01 X59.9
G01 X44.9
G01 X30
G01 X15
G01 X0
G01 X-15
G01 X-30
G01 X-45
G01 X-60
G01 X-75
G01 X-90
G01 X-105
G01 X-120
G01 X-135
G01 X-150
G01 X-165
G01 X-180
G01 X-195
G01 X-210
G01 X-225
G01 X-240
G01 X-255
G01 X-270
G01 X-285
G01  Y-91.5
G01 X-270
G01 X-255
G01 X-240
G01 X-225
G01 X-210
G01 X-195
G01 X-180
G01 X-165
G01 X-150
G01 X-135
G01 X-120
G01 X-105
G01 X-90
G01 X-75.099
G01 X-60
G01 X-45.1
G01 X-30
G01 X-15.1
G01 X0
G01 X14.9
G01 X29.899
G01 X45
G01 X59.9
G01 X75
G01 X89.9
G01 X105
G01 X119.9
G01 X134.9
G01 X149.9
G01 X164.9
G01 X179.9
G01 X194.9
G01 X209.9
G01 X224.9
G01 X239.9
G01 X254.9
G01 X269.899
G01 X284.899
G01 X299.899
G01  Y-91.4
G01 X285
G01 X269.899
G01 X254.9
G01 X239.9
G01 X225
G01 X209.9
G01 X194.9
G01 X179.9
G01 X165
G01 X149.9
G01 X135
G01 X119.9
G01 X104.9
G01 X90
G01 X75
G01 X60
G01 X45
G01 X30
G01 X15
G01 X0
G01 X-15
G01 X-30
G01 X-45
G01 X-60
G01 X-75
G01 X-90
G01 X-105
G01 X-120
G01 X-135
G01 X-150
G01 X-165
G01 X-180
G01 X-195
G01 X-210
G01 X-225
G01 X-240
G01 X-255
G01 X-270
G01 X-285
G01  Y-91.3
G01 X-270
G01 X-255
G01 X-240
G01 X-225
G01 X-210
G01 X-195
G01 X-180
G01 X-165
G01 X-150
G01 X-135
G01 X-120
G01 X-105
G01 X-90
G01 X-75
G01 X-60
G01 X-45
G01 X-30.1
G01 X-15
G01 X-0.1
G01 X15
G01 X30
G01 X44.9
G01 X60
G01 X74.9
G01 X90
G01 X104.9
G01 X120
G01 X134.9
G01 X149.9
G01 X164.9
G01 X179.9
G01 X195
G01 X209.9
G01 X224.9
G01 X239.9
G01 X254.9
G01 X269.899
G01 X284.899
G01 X299.899
G01  Y-91.2
G01 X284.899
G01 X269.899
G01 X255
G01 X239.9
G01 X224.9
G01 X209.9
G01 X194.9
G01 X180
G01 X164.9
G01 X150
G01 X134.9
G01 X119.9
G01 X105
G01 X89.9
G01 X75
G01 X59.9
G01 X45
G01 X29.899
G01 X14.9
G01 X0
G01 X-15.1
G01 X-30
G01 X-45.1
G01 X-60
G01 X-75
G01 X-90
G01 X-105
G01 X-120
G01 X-135
G01 X-150
G01 X-165
G01 X-180
G01 X-195
G01 X-210
G01 X-225
G01 X-240
G01 X-255
G01 X-270
G01 X-285
G01  Y-91.099
G01 X-270
G01 X-255
G01 X-240
G01 X-225
G01 X-210
G01 X-195
G01 X-180
G01 X-165
G01 X-150
G01 X-135.1
G01 X-120
G01 X-105.099
G01 X-90
G01 X-75.099
G01 X-60
G01 X-45
G01 X-30
G01 X-15
G01 X0
G01 X15
G01 X30
G01 X44.9
G01 X59.9
G01 X74.9
G01 X89.9
G01 X105
G01 X119.9
G01 X135
G01 X149.9
G01 X165
G01 X179.9
G01 X194.9
G01 X209.9
G01 X224.9
G01 X239.9
G01 X254.9
G01 X269.899
G01 X284.899
G01 X299.899
G01  Y-91
G01 X284.899
G01 X269.899
G01 X254.9
G01 X239.9
G01 X225
G01 X209.9
G01 X195
G01 X179.9
G01 X164.9
G01 X149.9
G01 X134.9
G01 X120
G01 X104.9
G01 X90
G01 X75
G01 X60
G01 X45
G01 X30
G01 X15
G01 X0
G01 X-15
G01 X-30
G01 X-45
G01 X-60
G01 X-75
G01 X-90
G01 X-105
G01 X-120
G01 X-135
G01 X-150
G01 X-165
G01 X-180
G01 X-195
G01 X-210
G01 X-225
G01 X-240
G01 X-255
G01 X-270
G01 X-285
G01  Y-90.9
G01 X-270
G01 X-255
G01 X-240
G01 X-225
G01 X-210
G01 X-195
G01 X-180
G01 X-165
G01 X-150
G01 X-135
G01 X-120
G01 X-105
G01 X-90
G01 X-75
G01 X-60
G01 X-45.1
G01 X-30.1
G01 X-15.1
G01 X-0.1
G01 X14.9
G01 X29.899
G01 X45
G01 X60
G01 X75
G01 X90
G01 X104.9
G01 X119.9
G01 X134.9
G01 X149.9
G01 X164.9
G01 X179.9
G01 X194.9
G01 X209.9
G01 X224.9
G01 X239.9
G01 X254.9
G01 X269.899
G01 X284.899
G01 X299.899
G01  Y-90.8
G01 X285
G01 X269.899
G01 X255
G01 X239.9
G01 X224.9
G01 X209.9
G01 X194.9
G01 X180
G01 X165
G01 X150
G01 X135
G01 X119.9
G01 X105
G01 X89.9
G01 X74.9
G01 X59.9
G01 X44.9
G01 X30
G01 X15
G01 X0
G01 X-15
G01 X-30
G01 X-45
G01 X-60
G01 X-75
G01 X-90
G01 X-105
G01 X-120
G01 X-135
G01 X-150
G01 X-165
G01 X-180
G01 X-195
G01 X-210
G01 X-225
G01 X-240
G01 X-255
G01 X-270
G01 X-285
G01  Y-90.7
G01 X-270
G01 X-255
G01 X-240
G01 X-225
G01 X-210
G01 X-195
G01 X-180
G01 X-165
G01 X-150
G01 X-135
G01 X-120
G01 X-105
G01 X-90
G01 X-75.099
G01 X-60
G01 X-45
G01 X-30
G01 X-15
G01 X0
G01 X15
G01 X30
G01 X45
G01 X59.9
G01 X75
G01 X89.9
G01 X105
G01 X120
G01 X134.9
G01 X149.9
G01 X164.9
G01 X179.9
G01 X195
G01 X209.9
G01 X224.9
G01 X239.9
G01 X254.9
G01 X269.899
G01 X284.899
G01 X299.899
G01  Y-90.599
G01 X284.899
G01 X269.899
G01 X254.9
G01 X239.9
G01 X225
G01 X209.9
G01 X194.9
G01 X179.9
G01 X164.9
G01 X149.9
G01 X134.9
G01 X119.9
G01 X104.9
G01 X90
G01 X75
G01 X60
G01 X45
G01 X29.899
G01 X14.9
G01 X0
G01 X-15.1
G01 X-30
G01 X-45.1
G01 X-60
G01 X-75
G01 X-90
G01 X-105
G01 X-120
G01 X-135
G01 X-150
G01 X-165
G01 X-180
G01 X-195
G01 X-210
G01 X-225
G01 X-240
G01 X-255
G01 X-270
G01 X-285
G01  Y-90.5
G01 X-270
G01 X-255
G01 X-240
G01 X-225
G01 X-210
G01 X-195
G01 X-180
G01 X-165
G01 X-150
G01 X-135.1
G01 X-120
G01 X-105.099
G01 X-90
G01 X-75
G01 X-60
G01 X-45
G01 X-30.1
G01 X-15
G01 X-0.1
G01 X15
G01 X30
G01 X44.9
G01 X60
G01 X74.9
G01 X90
G01 X104.9
G01 X119.9
G01 X135
G01 X149.9
G01 X165
G01 X179.9
G01 X194.9
G01 X209.9
G01 X224.9
G01 X239.9
G01 X254.9
G01 X269.899
G01 X284.899
G01 X299.899
G01  Y-90.4
G01 X284.899
G01 X269.899
G01 X255
G01 X239.9
G01 X224.9
G01 X209.9
G01 X195
G01 X180
G01 X164.9
G01 X150
G01 X134.9
G01 X120
G01 X105
G01 X89.9
G01 X75
G01 X59.9
G01 X45
G01 X30
G01 X15
G01 X0
G01 X-15
G01 X-30
G01 X-45
G01 X-60
G01 X-75
G01 X-90
G01 X-105
G01 X-120
G01 X-135
G01 X-150
G01 X-165
G01 X-180
G01 X-195
G01 X-210
G01 X-225
G01 X-240
G01 X-255
G01 X-270
G01 X-285
G01  Y-90.3
G01 X-270
G01 X-255
G01 X-240
G01 X-225
G01 X-210
G01 X-195
G01 X-180
G01 X-165
G01 X-150
G01 X-135
G01 X-120
G01 X-105
G01 X-90
G01 X-75
G01 X-60
G01 X-45.1
G01 X-30
G01 X-15.1
G01 X0
G01 X14.9
G01 X29.899
G01 X44.9
G01 X59.9
G01 X74.9
G01 X89.9
G01 X105
G01 X119.9
G01 X134.9
G01 X149.9
G01 X164.9
G01 X179.9
G01 X194.9
G01 X209.9
G01 X224.9
G01 X239.9
G01 X254.9
G01 X269.899
G01 X284.899
G01 X299.899
G01  Y-90.2
G01 X285
G01 X269.899
G01 X254.9
G01 X239.9
G01 X225
G01 X209.9
G01 X194.9
G01 X179.9
G01 X165
G01 X149.9
G01 X135
G01 X119.9
G01 X104.9
G01 X90
G01 X75
G01 X60
G01 X45
G01 X30
G01 X15
G01 X0
G01 X-15
G01 X-30
G01 X-45
G01 X-60
G01 X-75.099
G01 X-90
G01 X-105
G01 X-120
G01 X-135
G01 X-150
G01 X-165
G01 X-180
G01 X-195
G01 X-210
G01 X-225
G01 X-240
G01 X-255
G01 X-270
G01 X-285
G01  Y-90.099
G01 X-270
G01 X-255
G01 X-240
G01 X-225
G01 X-210
G01 X-195
G01 X-180
G01 X-165
G01 X-150
G01 X-135
G01 X-120
G01 X-105
G01 X-90
G01 X-75
G01 X-60.1
G01 X-45
G01 X-30.1
G01 X-15
G01 X-0.1
G01 X15
G01 X30
G01 X45
G01 X60
G01 X75
G01 X90
G01 X104.9
G01 X120
G01 X134.9
G01 X149.9
G01 X164.9
G01 X179.9
G01 X195
G01 X209.9
G01 X224.9
G01 X239.9
G01 X254.9
G01 X269.899
G01 X284.899
G01 X299.899
G01  Y-90
G01 X284.899
G01 X269.899
G01 X255
G01 X239.9
G01 X224.9
G01 X209.9
G01 X194.9
G01 X180
G01 X164.9
G01 X150
G01 X134.9
G01 X119.9
G01 X105
G01 X89.9
G01 X74.9
G01 X59.9
G01 X44.9
G01 X29.899
G01 X14.9
G01 X0
G01 X-15.1
G01 X-30
G01 X-45.1
G01 X-60
G01 X-75
G01 X-90
G01 X-105
G01 X-120
G01 X-135
G01 X-150
G01 X-165
G01 X-180
G01 X-195
G01 X-210
G01 X-225
G01 X-240
G01 X-255
G01 X-270
G01 X-285
G01  Y-89.9
G01 X-270
G01 X-255
G01 X-240
G01 X-225
G01 X-210
G01 X-195
G01 X-180
G01 X-165
G01 X-150
G01 X-135.1
G01 X-120
G01 X-105.099
G01 X-90
G01 X-75.099
G01 X-60
G01 X-45
G01 X-30
G01 X-15
G01 X0
G01 X15
G01 X30
G01 X45
G01 X59.9
G01 X75
G01 X89.9
G01 X105
G01 X119.9
G01 X135
G01 X149.9
G01 X165
G01 X179.9
G01 X194.9
G01 X209.9
G01 X224.9
G01 X239.9
G01 X254.9
G01 X269.899
G01 X284.899
G01 X299.899
G01  Y-89.8
G01 X284.899
G01 X269.899
G01 X254.9
G01 X239.9
G01 X225
G01 X209.9
G01 X195
G01 X179.9
G01 X164.9
G01 X149.9
G01 X134.9
G01 X120
G01 X104.9
G01 X90
G01 X75
G01 X60
G01 X45
G01 X30
G01 X15
G01 X0
G01 X-15
G01 X-30
G01 X-45
G01 X-60
G01 X-75
G01 X-90
G01 X-105
G01 X-120
G01 X-135
G01 X-150
G01 X-165
G01 X-180
G01 X-195
G01 X-210
G01 X-225
G01 X-240
G01 X-255
G01 X-270
G01 X-285
G01  Y-89.7
G01 X-270
G01 X-255
G01 X-240
G01 X-225
G01 X-210
G01 X-195
G01 X-180
G01 X-165
G01 X-150
G01 X-135
G01 X-120
G01 X-105
G01 X-90
G01 X-75
G01 X-60
G01 X-45.1
G01 X-30.1
G01 X-15.1
G01 X-0.1
G01 X14.9
G01 X29.899
G01 X44.9
G01 X60
G01 X74.9
G01 X90
G01 X104.9
G01 X119.9
G01 X134.9
G01 X149.9
G01 X164.9
G01 X179.9
G01 X194.9
G01 X209.9
G01 X224.9
G01 X239.9
G01 X254.9
G01 X269.899
G01 X284.899
G01 X299.899
G01  Y-89.599
G01 X285
G01 X269.899
G01 X255
G01 X239.9
G01 X224.9
G01 X209.9
G01 X194.9
G01 X179.9
G01 X165
G01 X149.9
G01 X135
G01 X119.9
G01 X105
G01 X89.9
G01 X75
G01 X59.9
G01 X45
G01 X30
G01 X15
G01 X0
G01 X-15
G01 X-30
G01 X-45
G01 X-60
G01 X-75
G01 X-90
G01 X-105
G01 X-120
G01 X-135
G01 X-150
G01 X-165
G01 X-180
G01 X-195
G01 X-210
G01 X-225
G01 X-240
G01 X-255
G01 X-270
G01 X-285
G01  Y-89.5
G01 X-270
G01 X-255
G01 X-240
G01 X-225
G01 X-210
G01 X-195
G01 X-180
G01 X-165
G01 X-150
G01 X-135
G01 X-120
G01 X-105
G01 X-90
G01 X-75.099
G01 X-60
G01 X-45
G01 X-30
G01 X-15
G01 X0
G01 X15
G01 X30
G01 X44.9
G01 X59.9
G01 X74.9
G01 X89.9
G01 X105
G01 X120
G01 X134.9
G01 X150
G01 X164.9
G01 X180
G01 X195
G01 X209.9
G01 X224.9
G01 X239.9
G01 X254.9
G01 X269.899
G01 X284.899
G01 X299.899
G01  Y-89.4
G01 X284.899
G01 X269.899
G01 X254.9
G01 X239.9
G01 X225
G01 X209.9
G01 X194.9
G01 X179.9
G01 X164.9
G01 X149.9
G01 X134.9
G01 X119.9
G01 X104.9
G01 X90
G01 X75
G01 X60
G01 X45
G01 X29.899
G01 X14.9
G01 X0
G01 X-15.1
G01 X-30
G01 X-45.1
G01 X-60
G01 X-75
G01 X-90
G01 X-105
G01 X-120
G01 X-135
G01 X-150
G01 X-165
G01 X-180
G01 X-195
G01 X-210
G01 X-225
G01 X-240
G01 X-255
G01 X-270
G01 X-285
G01  Y-89.3
G01 X-270
G01 X-255
G01 X-240
G01 X-225
G01 X-210
G01 X-195
G01 X-180
G01 X-165
G01 X-150
G01 X-135.1
G01 X-120
G01 X-105.099
G01 X-90
G01 X-75
G01 X-60
G01 X-45
G01 X-30.1
G01 X-15
G01 X-0.1
G01 X15
G01 X30
G01 X45
G01 X60
G01 X75
G01 X90
G01 X104.9
G01 X119.9
G01 X135
G01 X149.9
G01 X165
G01 X179.9
G01 X194.9
G01 X209.9
G01 X224.9
G01 X239.9
G01 X254.9
G01 X269.899
G01 X284.899
G01 X299.899
G01  Y-89.2
G01 X284.899
G01 X269.899
G01 X254.9
G01 X239.9
G01 X224.9
G01 X209.9
G01 X195
G01 X180
G01 X164.9
G01 X150
G01 X134.9
G01 X120
G01 X105
G01 X89.9
G01 X74.9
G01 X59.9
G01 X44.9
G01 X30
G01 X15
G01 X0
G01 X-15
G01 X-30
G01 X-45
G01 X-60
G01 X-75
G01 X-90
G01 X-105
G01 X-120
G01 X-135
G01 X-150
G01 X-165
G01 X-180
G01 X-195
G01 X-210
G01 X-225
G01 X-240
G01 X-255
G01 X-270
G01 X-285
G01  Y-89.099
G01 X-270
G01 X-255
G01 X-240
G01 X-225
G01 X-210
G01 X-195
G01 X-180
G01 X-165
G01 X-150
G01 X-135
G01 X-120
G01 X-105
G01 X-90
G01 X-75.099
G01 X-60
G01 X-45.1
G01 X-30
G01 X-15.1
G01 X0
G01 X14.9
G01 X29.899
G01 X45
G01 X59.9
G01 X75
G01 X89.9
G01 X105
G01 X119.9
G01 X134.9
G01 X149.9
G01 X164.9
G01 X179.9
G01 X194.9
G01 X209.9
G01 X224.9
G01 X239.9
G01 X255
G01 X269.899
G01 X284.899
G01 X299.899
G01  Y-89
G01 X285
G01 X269.899
G01 X254.9
G01 X239.9
G01 X225
G01 X209.9
G01 X194.9
G01 X179.9
G01 X165
G01 X149.9
G01 X135
G01 X119.9
G01 X104.9
G01 X90
G01 X75
G01 X60
G01 X45
G01 X30
G01 X15
G01 X0
G01 X-15
G01 X-30
G01 X-45
G01 X-60
G01 X-75
G01 X-90
G01 X-105
G01 X-120
G01 X-135
G01 X-150
G01 X-165
G01 X-180
G01 X-195
G01 X-210
G01 X-225
G01 X-240
G01 X-255
G01 X-270
G01 X-285
G01  Y-88.9
G01 X-270
G01 X-255
G01 X-240
G01 X-225
G01 X-210
G01 X-195
G01 X-180
G01 X-165
G01 X-150
G01 X-135
G01 X-120
G01 X-105
G01 X-90
G01 X-75
G01 X-60
G01 X-45
G01 X-30.1
G01 X-15
G01 X-0.1
G01 X15
G01 X30
G01 X44.9
G01 X60
G01 X74.9
G01 X90
G01 X104.9
G01 X120
G01 X134.9
G01 X149.9
G01 X164.9
G01 X179.9
G01 X195
G01 X209.9
G01 X224.9
G01 X239.9
G01 X254.9
G01 X269.899
G01 X284.899
G01 X299.899
G01  Y-88.8
G01 X284.899
G01 X269.899
G01 X254.9
G01 X239.9
G01 X224.9
G01 X209.9
G01 X194.9
G01 X180
G01 X164.9
G01 X150
G01 X134.9
G01 X119.9
G01 X105
G01 X89.9
G01 X75
G01 X59.9
G01 X45
G01 X29.899
G01 X14.9
G01 X0
G01 X-15.1
G01 X-30
G01 X-45.1
G01 X-60
G01 X-75
G01 X-90
G01 X-105
G01 X-120
G01 X-135
G01 X-150
G01 X-165
G01 X-180
G01 X-195
G01 X-210
G01 X-225
G01 X-240
G01 X-255
G01 X-270
G01 X-285
G01  Y-88.7
G01 X-270
G01 X-255
G01 X-240
G01 X-225
G01 X-210
G01 X-195
G01 X-180
G01 X-165
G01 X-150
G01 X-135.1
G01 X-120
G01 X-105.099
G01 X-90
G01 X-75.099
G01 X-60
G01 X-45
G01 X-30
G01 X-15
G01 X0
G01 X15
G01 X30
G01 X44.9
G01 X59.9
G01 X74.9
G01 X89.9
G01 X105
G01 X119.9
G01 X135
G01 X149.9
G01 X165
G01 X179.9
G01 X194.9
G01 X209.9
G01 X224.9
G01 X239.9
G01 X255
G01 X269.899
G01 X284.899
G01 X299.899
G01  Y-88.599
G01 X284.899
G01 X269.899
G01 X254.9
G01 X239.9
G01 X225
G01 X209.9
G01 X195
G01 X179.9
G01 X164.9
G01 X149.9
G01 X134.9
G01 X120
G01 X104.9
G01 X90
G01 X75
G01 X60
G01 X45
G01 X30
G01 X15
G01 X0
G01 X-15
G01 X-30
G01 X-45
G01 X-60
G01 X-75
G01 X-90
G01 X-105
G01 X-120
G01 X-135
G01 X-150
G01 X-165
G01 X-180
G01 X-195
G01 X-210
G01 X-225
G01 X-240
G01 X-255
G01 X-270
G01 X-285
G01  Y-88.5
G01 X-270
G01 X-255
G01 X-240
G01 X-225
G01 X-210
G01 X-195
G01 X-180
G01 X-165
G01 X-150
G01 X-135
G01 X-120
G01 X-105
G01 X-90
G01 X-75
G01 X-60
G01 X-45.1
G01 X-30.1
G01 X-15.1
G01 X-0.1
G01 X14.9
G01 X29.899
G01 X45
G01 X60
G01 X75
G01 X90
G01 X104.9
G01 X119.9
G01 X134.9
G01 X149.9
G01 X164.9
G01 X179.9
G01 X194.9
G01 X209.9
G01 X224.9
G01 X239.9
G01 X254.9
G01 X269.899
G01 X284.899
G01 X299.899
G01  Y-88.4
G01 X285
G01 X269.899
G01 X255
G01 X239.9
G01 X224.9
G01 X209.9
G01 X194.9
G01 X180
G01 X165
G01 X150
G01 X135
G01 X119.9
G01 X105
G01 X89.9
G01 X74.9
G01 X59.9
G01 X44.9
G01 X30
G01 X15
G01 X0
G01 X-15
G01 X-30
G01 X-45
G01 X-60
G01 X-75
G01 X-90
G01 X-105
G01 X-120
G01 X-135
G01 X-150
G01 X-165
G01 X-180
G01 X-195
G01 X-210
G01 X-225
G01 X-240
G01 X-255
G01 X-270
G01 X-285
G01  Y-88.3
G01 X-270
G01 X-255
G01 X-240
G01 X-225
G01 X-210
G01 X-195
G01 X-180
G01 X-165
G01 X-150
G01 X-135
G01 X-120
G01 X-105
G01 X-90
G01 X-75.099
G01 X-60
G01 X-45
G01 X-30
G01 X-15
G01 X0
G01 X15
G01 X30
G01 X45
G01 X59.9
G01 X75
G01 X89.9
G01 X105
G01 X120
G01 X134.9
G01 X149.9
G01 X164.9
G01 X179.9
G01 X195
G01 X209.9
G01 X224.9
G01 X239.9
G01 X254.9
G01 X269.899
G01 X284.899
G01 X299.899
G01  Y-88.2
G01 X284.899
G01 X269.899
G01 X254.9
G01 X239.9
G01 X225
G01 X209.9
G01 X194.9
G01 X179.9
G01 X164.9
G01 X149.9
G01 X134.9
G01 X119.9
G01 X104.9
G01 X90
G01 X75
G01 X60
G01 X45
G01 X29.899
G01 X14.9
G01 X0
G01 X-15.1
G01 X-30
G01 X-45.1
G01 X-60
G01 X-75
G01 X-90
G01 X-105
G01 X-120
G01 X-135
G01 X-150
G01 X-165
G01 X-180
G01 X-195
G01 X-210
G01 X-225
G01 X-240
G01 X-255
G01 X-270
G01 X-285
G01  Y-88.099
G01 X-270
G01 X-255
G01 X-240
G01 X-225
G01 X-210
G01 X-195
G01 X-180
G01 X-165
G01 X-150
G01 X-135.1
G01 X-120
G01 X-105.099
G01 X-90
G01 X-75
G01 X-60.1
G01 X-45
G01 X-30.1
G01 X-15
G01 X-0.1
G01 X15
G01 X30
G01 X44.9
G01 X60
G01 X74.9
G01 X90
G01 X104.9
G01 X119.9
G01 X135
G01 X149.9
G01 X165
G01 X179.9
G01 X194.9
G01 X209.9
G01 X224.9
G01 X239.9
G01 X254.9
G01 X269.899
G01 X284.899
G01 X299.899
G01  Y-88
G01 X284.899
G01 X269.899
G01 X255
G01 X239.9
G01 X224.9
G01 X209.9
G01 X195
G01 X180
G01 X164.9
G01 X150
G01 X134.9
G01 X120
G01 X105
G01 X89.9
G01 X75
G01 X59.9
G01 X45
G01 X30
G01 X15
G01 X0
G01 X-15
G01 X-30
G01 X-45
G01 X-60
G01 X-75
G01 X-90
G01 X-105
G01 X-120
G01 X-135
G01 X-150
G01 X-165
G01 X-180
G01 X-195
G01 X-210
G01 X-225
G01 X-240
G01 X-255
G01 X-270
G01 X-285
G01  Y-87.9
G01 X-270
G01 X-255
G01 X-240
G01 X-225
G01 X-210
G01 X-195
G01 X-180
G01 X-165
G01 X-150
G01 X-135
G01 X-120
G01 X-105
G01 X-90
G01 X-75.099
G01 X-60
G01 X-45.1
G01 X-30
G01 X-15.1
G01 X0
G01 X14.9
G01 X29.899
G01 X44.9
G01 X59.9
G01 X74.9
G01 X89.9
G01 X105
G01 X119.9
G01 X134.9
G01 X149.9
G01 X164.9
G01 X179.9
G01 X194.9
G01 X209.9
G01 X224.9
G01 X239.9
G01 X254.9
G01 X269.899
G01 X284.899
G01 X299.899
G01  Y-87.8
G01 X285
G01 X269.899
G01 X254.9
G01 X239.9
G01 X225
G01 X209.9
G01 X194.9
G01 X179.9
G01 X165
G01 X149.9
G01 X135
G01 X119.9
G01 X104.9
G01 X90
