CONST robtarget p0:= [[0.0,0.0,-10.0], [-1, 0, 0, 0],[-1, 0, 1, 0], [ 9E+9,9E+9, 9E9, 9E9, 9E9, 9E9]];
CONST robtarget p1:= [[0.0,1.414,0.0], [-1, 0, 0, 0],[-1, 0, 1, 0], [ 9E+9,9E+9, 9E9, 9E9, 9E9, 9E9]];
CONST robtarget p2:= [[1.318,0.096,0.0], [-1, 0, 0, 0],[-1, 0, 1, 0], [ 9E+9,9E+9, 9E9, 9E9, 9E9, 9E9]];
CONST robtarget p3:= [[2.738,0.091,0.0], [-1, 0, 0, 0],[-1, 0, 1, 0], [ 9E+9,9E+9, 9E9, 9E9, 9E9, 9E9]];
CONST robtarget p4:= [[0.0,2.828,0.0], [-1, 0, 0, 0],[-1, 0, 1, 0], [ 9E+9,9E+9, 9E9, 9E9, 9E9, 9E9]];
CONST robtarget p5:= [[0.0,4.243,0.0], [-1, 0, 0, 0],[-1, 0, 1, 0], [ 9E+9,9E+9, 9E9, 9E9, 9E9, 9E9]];
CONST robtarget p6:= [[4.158,0.085,0.0], [-1, 0, 0, 0],[-1, 0, 1, 0], [ 9E+9,9E+9, 9E9, 9E9, 9E9, 9E9]];
CONST robtarget p7:= [[5.577,0.08,0.0], [-1, 0, 0, 0],[-1, 0, 1, 0], [ 9E+9,9E+9, 9E9, 9E9, 9E9, 9E9]];
CONST robtarget p8:= [[0.0,5.657,0.0], [-1, 0, 0, 0],[-1, 0, 1, 0], [ 9E+9,9E+9, 9E9, 9E9, 9E9, 9E9]];
CONST robtarget p9:= [[0.0,7.071,0.0], [-1, 0, 0, 0],[-1, 0, 1, 0], [ 9E+9,9E+9, 9E9, 9E9, 9E9, 9E9]];
CONST robtarget p10:= [[6.997,0.074,0.0], [-1, 0, 0, 0],[-1, 0, 1, 0], [ 9E+9,9E+9, 9E9, 9E9, 9E9, 9E9]];
CONST robtarget p11:= [[8.417,0.069,0.0], [-1, 0, 0, 0],[-1, 0, 1, 0], [ 9E+9,9E+9, 9E9, 9E9, 9E9, 9E9]];
CONST robtarget p12:= [[0.0,8.485,0.0], [-1, 0, 0, 0],[-1, 0, 1, 0], [ 9E+9,9E+9, 9E9, 9E9, 9E9, 9E9]];
CONST robtarget p13:= [[0.0,9.899,0.0], [-1, 0, 0, 0],[-1, 0, 1, 0], [ 9E+9,9E+9, 9E9, 9E9, 9E9, 9E9]];
CONST robtarget p14:= [[9.836,0.063,0.0], [-1, 0, 0, 0],[-1, 0, 1, 0], [ 9E+9,9E+9, 9E9, 9E9, 9E9, 9E9]];
CONST robtarget p15:= [[11.256,0.057,0.0], [-1, 0, 0, 0],[-1, 0, 1, 0], [ 9E+9,9E+9, 9E9, 9E9, 9E9, 9E9]];
CONST robtarget p16:= [[0.0,11.314,0.0], [-1, 0, 0, 0],[-1, 0, 1, 0], [ 9E+9,9E+9, 9E9, 9E9, 9E9, 9E9]];
CONST robtarget p17:= [[0.0,12.728,0.0], [-1, 0, 0, 0],[-1, 0, 1, 0], [ 9E+9,9E+9, 9E9, 9E9, 9E9, 9E9]];
CONST robtarget p18:= [[12.676,0.052,0.0], [-1, 0, 0, 0],[-1, 0, 1, 0], [ 9E+9,9E+9, 9E9, 9E9, 9E9, 9E9]];
CONST robtarget p19:= [[13.304,0.839,0.0], [-1, 0, 0, 0],[-1, 0, 1, 0], [ 9E+9,9E+9, 9E9, 9E9, 9E9, 9E9]];
CONST robtarget p20:= [[0.742,13.4,0.0], [-1, 0, 0, 0],[-1, 0, 1, 0], [ 9E+9,9E+9, 9E9, 9E9, 9E9, 9E9]];
CONST robtarget p21:= [[2.156,13.4,0.0], [-1, 0, 0, 0],[-1, 0, 1, 0], [ 9E+9,9E+9, 9E9, 9E9, 9E9, 9E9]];
CONST robtarget p22:= [[13.303,2.253,0.0], [-1, 0, 0, 0],[-1, 0, 1, 0], [ 9E+9,9E+9, 9E9, 9E9, 9E9, 9E9]];
CONST robtarget p23:= [[13.303,3.668,0.0], [-1, 0, 0, 0],[-1, 0, 1, 0], [ 9E+9,9E+9, 9E9, 9E9, 9E9, 9E9]];
CONST robtarget p24:= [[3.571,13.4,0.0], [-1, 0, 0, 0],[-1, 0, 1, 0], [ 9E+9,9E+9, 9E9, 9E9, 9E9, 9E9]];
CONST robtarget p25:= [[4.985,13.4,0.0], [-1, 0, 0, 0],[-1, 0, 1, 0], [ 9E+9,9E+9, 9E9, 9E9, 9E9, 9E9]];
CONST robtarget p26:= [[13.302,5.083,0.0], [-1, 0, 0, 0],[-1, 0, 1, 0], [ 9E+9,9E+9, 9E9, 9E9, 9E9, 9E9]];
CONST robtarget p27:= [[13.302,6.497,0.0], [-1, 0, 0, 0],[-1, 0, 1, 0], [ 9E+9,9E+9, 9E9, 9E9, 9E9, 9E9]];
CONST robtarget p28:= [[6.399,13.4,0.0], [-1, 0, 0, 0],[-1, 0, 1, 0], [ 9E+9,9E+9, 9E9, 9E9, 9E9, 9E9]];
CONST robtarget p29:= [[7.813,13.4,0.0], [-1, 0, 0, 0],[-1, 0, 1, 0], [ 9E+9,9E+9, 9E9, 9E9, 9E9, 9E9]];
CONST robtarget p30:= [[13.301,7.912,0.0], [-1, 0, 0, 0],[-1, 0, 1, 0], [ 9E+9,9E+9, 9E9, 9E9, 9E9, 9E9]];
CONST robtarget p31:= [[13.301,9.327,0.0], [-1, 0, 0, 0],[-1, 0, 1, 0], [ 9E+9,9E+9, 9E9, 9E9, 9E9, 9E9]];
CONST robtarget p32:= [[9.227,13.4,0.0], [-1, 0, 0, 0],[-1, 0, 1, 0], [ 9E+9,9E+9, 9E9, 9E9, 9E9, 9E9]];
CONST robtarget p33:= [[10.642,13.4,0.0], [-1, 0, 0, 0],[-1, 0, 1, 0], [ 9E+9,9E+9, 9E9, 9E9, 9E9, 9E9]];
CONST robtarget p34:= [[13.3,10.742,0.0], [-1, 0, 0, 0],[-1, 0, 1, 0], [ 9E+9,9E+9, 9E9, 9E9, 9E9, 9E9]];
CONST robtarget p35:= [[13.3,12.156,0.0], [-1, 0, 0, 0],[-1, 0, 1, 0], [ 9E+9,9E+9, 9E9, 9E9, 9E9, 9E9]];
CONST robtarget p36:= [[12.056,13.4,0.0], [-1, 0, 0, 0],[-1, 0, 1, 0], [ 9E+9,9E+9, 9E9, 9E9, 9E9, 9E9]];
CONST robtarget p37:= [[13.3,13.57,0.0], [-1, 0, 0, 0],[-1, 0, 1, 0], [ 9E+9,9E+9, 9E9, 9E9, 9E9, 9E9]];
CONST robtarget p38:= [[13.47,13.4,0.0], [-1, 0, 0, 0],[-1, 0, 1, 0], [ 9E+9,9E+9, 9E9, 9E9, 9E9, 9E9]];
CONST robtarget p39:= [[14.884,13.4,0.0], [-1, 0, 0, 0],[-1, 0, 1, 0], [ 9E+9,9E+9, 9E9, 9E9, 9E9, 9E9]];
CONST robtarget p40:= [[13.3,14.984,0.0], [-1, 0, 0, 0],[-1, 0, 1, 0], [ 9E+9,9E+9, 9E9, 9E9, 9E9, 9E9]];
CONST robtarget p41:= [[13.3,16.398,0.0], [-1, 0, 0, 0],[-1, 0, 1, 0], [ 9E+9,9E+9, 9E9, 9E9, 9E9, 9E9]];
CONST robtarget p42:= [[16.298,13.4,0.0], [-1, 0, 0, 0],[-1, 0, 1, 0], [ 9E+9,9E+9, 9E9, 9E9, 9E9, 9E9]];
CONST robtarget p43:= [[17.713,13.4,0.0], [-1, 0, 0, 0],[-1, 0, 1, 0], [ 9E+9,9E+9, 9E9, 9E9, 9E9, 9E9]];
CONST robtarget p44:= [[13.3,17.813,0.0], [-1, 0, 0, 0],[-1, 0, 1, 0], [ 9E+9,9E+9, 9E9, 9E9, 9E9, 9E9]];
CONST robtarget p45:= [[13.3,19.227,0.0], [-1, 0, 0, 0],[-1, 0, 1, 0], [ 9E+9,9E+9, 9E9, 9E9, 9E9, 9E9]];
CONST robtarget p46:= [[19.127,13.4,0.0], [-1, 0, 0, 0],[-1, 0, 1, 0], [ 9E+9,9E+9, 9E9, 9E9, 9E9, 9E9]];
CONST robtarget p47:= [[20.541,13.4,0.0], [-1, 0, 0, 0],[-1, 0, 1, 0], [ 9E+9,9E+9, 9E9, 9E9, 9E9, 9E9]];
CONST robtarget p48:= [[13.3,20.641,0.0], [-1, 0, 0, 0],[-1, 0, 1, 0], [ 9E+9,9E+9, 9E9, 9E9, 9E9, 9E9]];
CONST robtarget p49:= [[13.3,22.055,0.0], [-1, 0, 0, 0],[-1, 0, 1, 0], [ 9E+9,9E+9, 9E9, 9E9, 9E9, 9E9]];
CONST robtarget p50:= [[21.955,13.4,0.0], [-1, 0, 0, 0],[-1, 0, 1, 0], [ 9E+9,9E+9, 9E9, 9E9, 9E9, 9E9]];
CONST robtarget p51:= [[23.37,13.4,0.0], [-1, 0, 0, 0],[-1, 0, 1, 0], [ 9E+9,9E+9, 9E9, 9E9, 9E9, 9E9]];
CONST robtarget p52:= [[13.3,23.47,0.0], [-1, 0, 0, 0],[-1, 0, 1, 0], [ 9E+9,9E+9, 9E9, 9E9, 9E9, 9E9]];
CONST robtarget p53:= [[13.3,24.884,0.0], [-1, 0, 0, 0],[-1, 0, 1, 0], [ 9E+9,9E+9, 9E9, 9E9, 9E9, 9E9]];
CONST robtarget p54:= [[24.784,13.4,0.0], [-1, 0, 0, 0],[-1, 0, 1, 0], [ 9E+9,9E+9, 9E9, 9E9, 9E9, 9E9]];
CONST robtarget p55:= [[26.198,13.4,0.0], [-1, 0, 0, 0],[-1, 0, 1, 0], [ 9E+9,9E+9, 9E9, 9E9, 9E9, 9E9]];
CONST robtarget p56:= [[13.3,26.298,0.0], [-1, 0, 0, 0],[-1, 0, 1, 0], [ 9E+9,9E+9, 9E9, 9E9, 9E9, 9E9]];
CONST robtarget p57:= [[12.898,26.7,0.0], [-1, 0, 0, 0],[-1, 0, 1, 0], [ 9E+9,9E+9, 9E9, 9E9, 9E9, 9E9]];
CONST robtarget p58:= [[0.0,39.598,0.0], [-1, 0, 0, 0],[-1, 0, 1, 0], [ 9E+9,9E+9, 9E9, 9E9, 9E9, 9E9]];
CONST robtarget p59:= [[1.012,40.0,0.0], [-1, 0, 0, 0],[-1, 0, 1, 0], [ 9E+9,9E+9, 9E9, 9E9, 9E9, 9E9]];
CONST robtarget p60:= [[13.3,27.712,0.0], [-1, 0, 0, 0],[-1, 0, 1, 0], [ 9E+9,9E+9, 9E9, 9E9, 9E9, 9E9]];
CONST robtarget p61:= [[13.3,29.126,0.0], [-1, 0, 0, 0],[-1, 0, 1, 0], [ 9E+9,9E+9, 9E9, 9E9, 9E9, 9E9]];
CONST robtarget p62:= [[2.426,40.0,0.0], [-1, 0, 0, 0],[-1, 0, 1, 0], [ 9E+9,9E+9, 9E9, 9E9, 9E9, 9E9]];
CONST robtarget p63:= [[3.841,40.0,0.0], [-1, 0, 0, 0],[-1, 0, 1, 0], [ 9E+9,9E+9, 9E9, 9E9, 9E9, 9E9]];
CONST robtarget p64:= [[13.3,30.541,0.0], [-1, 0, 0, 0],[-1, 0, 1, 0], [ 9E+9,9E+9, 9E9, 9E9, 9E9, 9E9]];
CONST robtarget p65:= [[13.3,31.955,0.0], [-1, 0, 0, 0],[-1, 0, 1, 0], [ 9E+9,9E+9, 9E9, 9E9, 9E9, 9E9]];
CONST robtarget p66:= [[5.255,40.0,0.0], [-1, 0, 0, 0],[-1, 0, 1, 0], [ 9E+9,9E+9, 9E9, 9E9, 9E9, 9E9]];
CONST robtarget p67:= [[6.669,40.0,0.0], [-1, 0, 0, 0],[-1, 0, 1, 0], [ 9E+9,9E+9, 9E9, 9E9, 9E9, 9E9]];
CONST robtarget p68:= [[13.3,33.369,0.0], [-1, 0, 0, 0],[-1, 0, 1, 0], [ 9E+9,9E+9, 9E9, 9E9, 9E9, 9E9]];
CONST robtarget p69:= [[13.3,34.783,0.0], [-1, 0, 0, 0],[-1, 0, 1, 0], [ 9E+9,9E+9, 9E9, 9E9, 9E9, 9E9]];
CONST robtarget p70:= [[8.083,40.0,0.0], [-1, 0, 0, 0],[-1, 0, 1, 0], [ 9E+9,9E+9, 9E9, 9E9, 9E9, 9E9]];
CONST robtarget p71:= [[9.497,40.0,0.0], [-1, 0, 0, 0],[-1, 0, 1, 0], [ 9E+9,9E+9, 9E9, 9E9, 9E9, 9E9]];
CONST robtarget p72:= [[13.3,36.197,0.0], [-1, 0, 0, 0],[-1, 0, 1, 0], [ 9E+9,9E+9, 9E9, 9E9, 9E9, 9E9]];
CONST robtarget p73:= [[13.3,37.612,0.0], [-1, 0, 0, 0],[-1, 0, 1, 0], [ 9E+9,9E+9, 9E9, 9E9, 9E9, 9E9]];
CONST robtarget p74:= [[10.912,40.0,0.0], [-1, 0, 0, 0],[-1, 0, 1, 0], [ 9E+9,9E+9, 9E9, 9E9, 9E9, 9E9]];
CONST robtarget p75:= [[12.326,40.0,0.0], [-1, 0, 0, 0],[-1, 0, 1, 0], [ 9E+9,9E+9, 9E9, 9E9, 9E9, 9E9]];
CONST robtarget p76:= [[13.3,39.026,0.0], [-1, 0, 0, 0],[-1, 0, 1, 0], [ 9E+9,9E+9, 9E9, 9E9, 9E9, 9E9]];
CONST robtarget p77:= [[13.74,40.0,0.0], [-1, 0, 0, 0],[-1, 0, 1, 0], [ 9E+9,9E+9, 9E9, 9E9, 9E9, 9E9]];
CONST robtarget p78:= [[13.3,40.44,0.0], [-1, 0, 0, 0],[-1, 0, 1, 0], [ 9E+9,9E+9, 9E9, 9E9, 9E9, 9E9]];
CONST robtarget p79:= [[13.3,41.854,0.0], [-1, 0, 0, 0],[-1, 0, 1, 0], [ 9E+9,9E+9, 9E9, 9E9, 9E9, 9E9]];
CONST robtarget p80:= [[15.154,40.0,0.0], [-1, 0, 0, 0],[-1, 0, 1, 0], [ 9E+9,9E+9, 9E9, 9E9, 9E9, 9E9]];
CONST robtarget p81:= [[16.569,40.0,0.0], [-1, 0, 0, 0],[-1, 0, 1, 0], [ 9E+9,9E+9, 9E9, 9E9, 9E9, 9E9]];
CONST robtarget p82:= [[13.3,43.269,0.0], [-1, 0, 0, 0],[-1, 0, 1, 0], [ 9E+9,9E+9, 9E9, 9E9, 9E9, 9E9]];
CONST robtarget p83:= [[13.3,44.683,0.0], [-1, 0, 0, 0],[-1, 0, 1, 0], [ 9E+9,9E+9, 9E9, 9E9, 9E9, 9E9]];
CONST robtarget p84:= [[17.983,40.0,0.0], [-1, 0, 0, 0],[-1, 0, 1, 0], [ 9E+9,9E+9, 9E9, 9E9, 9E9, 9E9]];
CONST robtarget p85:= [[19.397,40.0,0.0], [-1, 0, 0, 0],[-1, 0, 1, 0], [ 9E+9,9E+9, 9E9, 9E9, 9E9, 9E9]];
CONST robtarget p86:= [[13.3,46.097,0.0], [-1, 0, 0, 0],[-1, 0, 1, 0], [ 9E+9,9E+9, 9E9, 9E9, 9E9, 9E9]];
CONST robtarget p87:= [[13.3,47.511,0.0], [-1, 0, 0, 0],[-1, 0, 1, 0], [ 9E+9,9E+9, 9E9, 9E9, 9E9, 9E9]];
CONST robtarget p88:= [[20.811,40.0,0.0], [-1, 0, 0, 0],[-1, 0, 1, 0], [ 9E+9,9E+9, 9E9, 9E9, 9E9, 9E9]];
CONST robtarget p89:= [[22.225,40.0,0.0], [-1, 0, 0, 0],[-1, 0, 1, 0], [ 9E+9,9E+9, 9E9, 9E9, 9E9, 9E9]];
CONST robtarget p90:= [[13.3,48.925,0.0], [-1, 0, 0, 0],[-1, 0, 1, 0], [ 9E+9,9E+9, 9E9, 9E9, 9E9, 9E9]];
CONST robtarget p91:= [[13.3,50.34,0.0], [-1, 0, 0, 0],[-1, 0, 1, 0], [ 9E+9,9E+9, 9E9, 9E9, 9E9, 9E9]];
CONST robtarget p92:= [[23.64,40.0,0.0], [-1, 0, 0, 0],[-1, 0, 1, 0], [ 9E+9,9E+9, 9E9, 9E9, 9E9, 9E9]];
CONST robtarget p93:= [[25.054,40.0,0.0], [-1, 0, 0, 0],[-1, 0, 1, 0], [ 9E+9,9E+9, 9E9, 9E9, 9E9, 9E9]];
CONST robtarget p94:= [[13.3,51.754,0.0], [-1, 0, 0, 0],[-1, 0, 1, 0], [ 9E+9,9E+9, 9E9, 9E9, 9E9, 9E9]];
CONST robtarget p95:= [[13.3,53.168,0.0], [-1, 0, 0, 0],[-1, 0, 1, 0], [ 9E+9,9E+9, 9E9, 9E9, 9E9, 9E9]];
CONST robtarget p96:= [[26.468,40.0,0.0], [-1, 0, 0, 0],[-1, 0, 1, 0], [ 9E+9,9E+9, 9E9, 9E9, 9E9, 9E9]];
CONST robtarget p97:= [[26.6,39.868,0.0], [-1, 0, 0, 0],[-1, 0, 1, 0], [ 9E+9,9E+9, 9E9, 9E9, 9E9, 9E9]];
CONST robtarget p98:= [[39.768,26.7,0.0], [-1, 0, 0, 0],[-1, 0, 1, 0], [ 9E+9,9E+9, 9E9, 9E9, 9E9, 9E9]];
CONST robtarget p99:= [[39.9,26.568,0.0], [-1, 0, 0, 0],[-1, 0, 1, 0], [ 9E+9,9E+9, 9E9, 9E9, 9E9, 9E9]];
CONST robtarget p100:= [[53.068,13.4,0.0], [-1, 0, 0, 0],[-1, 0, 1, 0], [ 9E+9,9E+9, 9E9, 9E9, 9E9, 9E9]];
CONST robtarget p101:= [[53.2,13.268,0.0], [-1, 0, 0, 0],[-1, 0, 1, 0], [ 9E+9,9E+9, 9E9, 9E9, 9E9, 9E9]];
CONST robtarget p102:= [[66.366,0.102,0.0], [-1, 0, 0, 0],[-1, 0, 1, 0], [ 9E+9,9E+9, 9E9, 9E9, 9E9, 9E9]];
CONST robtarget p103:= [[66.5,1.382,0.0], [-1, 0, 0, 0],[-1, 0, 1, 0], [ 9E+9,9E+9, 9E9, 9E9, 9E9, 9E9]];
CONST robtarget p104:= [[54.482,13.4,0.0], [-1, 0, 0, 0],[-1, 0, 1, 0], [ 9E+9,9E+9, 9E9, 9E9, 9E9, 9E9]];
CONST robtarget p105:= [[55.896,13.4,0.0], [-1, 0, 0, 0],[-1, 0, 1, 0], [ 9E+9,9E+9, 9E9, 9E9, 9E9, 9E9]];
CONST robtarget p106:= [[66.5,2.796,0.0], [-1, 0, 0, 0],[-1, 0, 1, 0], [ 9E+9,9E+9, 9E9, 9E9, 9E9, 9E9]];
CONST robtarget p107:= [[66.5,4.211,0.0], [-1, 0, 0, 0],[-1, 0, 1, 0], [ 9E+9,9E+9, 9E9, 9E9, 9E9, 9E9]];
CONST robtarget p108:= [[57.311,13.4,0.0], [-1, 0, 0, 0],[-1, 0, 1, 0], [ 9E+9,9E+9, 9E9, 9E9, 9E9, 9E9]];
CONST robtarget p109:= [[58.725,13.4,0.0], [-1, 0, 0, 0],[-1, 0, 1, 0], [ 9E+9,9E+9, 9E9, 9E9, 9E9, 9E9]];
CONST robtarget p110:= [[66.5,5.625,0.0], [-1, 0, 0, 0],[-1, 0, 1, 0], [ 9E+9,9E+9, 9E9, 9E9, 9E9, 9E9]];
CONST robtarget p111:= [[66.5,7.039,0.0], [-1, 0, 0, 0],[-1, 0, 1, 0], [ 9E+9,9E+9, 9E9, 9E9, 9E9, 9E9]];
CONST robtarget p112:= [[60.139,13.4,0.0], [-1, 0, 0, 0],[-1, 0, 1, 0], [ 9E+9,9E+9, 9E9, 9E9, 9E9, 9E9]];
CONST robtarget p113:= [[61.553,13.4,0.0], [-1, 0, 0, 0],[-1, 0, 1, 0], [ 9E+9,9E+9, 9E9, 9E9, 9E9, 9E9]];
CONST robtarget p114:= [[66.5,8.453,0.0], [-1, 0, 0, 0],[-1, 0, 1, 0], [ 9E+9,9E+9, 9E9, 9E9, 9E9, 9E9]];
CONST robtarget p115:= [[66.5,9.868,0.0], [-1, 0, 0, 0],[-1, 0, 1, 0], [ 9E+9,9E+9, 9E9, 9E9, 9E9, 9E9]];
CONST robtarget p116:= [[62.968,13.4,0.0], [-1, 0, 0, 0],[-1, 0, 1, 0], [ 9E+9,9E+9, 9E9, 9E9, 9E9, 9E9]];
CONST robtarget p117:= [[64.382,13.4,0.0], [-1, 0, 0, 0],[-1, 0, 1, 0], [ 9E+9,9E+9, 9E9, 9E9, 9E9, 9E9]];
CONST robtarget p118:= [[66.5,11.282,0.0], [-1, 0, 0, 0],[-1, 0, 1, 0], [ 9E+9,9E+9, 9E9, 9E9, 9E9, 9E9]];
CONST robtarget p119:= [[66.5,12.696,0.0], [-1, 0, 0, 0],[-1, 0, 1, 0], [ 9E+9,9E+9, 9E9, 9E9, 9E9, 9E9]];
CONST robtarget p120:= [[65.796,13.4,0.0], [-1, 0, 0, 0],[-1, 0, 1, 0], [ 9E+9,9E+9, 9E9, 9E9, 9E9, 9E9]];
CONST robtarget p121:= [[53.2,14.682,0.0], [-1, 0, 0, 0],[-1, 0, 1, 0], [ 9E+9,9E+9, 9E9, 9E9, 9E9, 9E9]];
CONST robtarget p122:= [[41.182,26.7,0.0], [-1, 0, 0, 0],[-1, 0, 1, 0], [ 9E+9,9E+9, 9E9, 9E9, 9E9, 9E9]];
CONST robtarget p123:= [[42.596,26.7,0.0], [-1, 0, 0, 0],[-1, 0, 1, 0], [ 9E+9,9E+9, 9E9, 9E9, 9E9, 9E9]];
CONST robtarget p124:= [[53.2,16.096,0.0], [-1, 0, 0, 0],[-1, 0, 1, 0], [ 9E+9,9E+9, 9E9, 9E9, 9E9, 9E9]];
CONST robtarget p125:= [[53.2,17.511,0.0], [-1, 0, 0, 0],[-1, 0, 1, 0], [ 9E+9,9E+9, 9E9, 9E9, 9E9, 9E9]];
CONST robtarget p126:= [[44.011,26.7,0.0], [-1, 0, 0, 0],[-1, 0, 1, 0], [ 9E+9,9E+9, 9E9, 9E9, 9E9, 9E9]];
CONST robtarget p127:= [[45.425,26.7,0.0], [-1, 0, 0, 0],[-1, 0, 1, 0], [ 9E+9,9E+9, 9E9, 9E9, 9E9, 9E9]];
CONST robtarget p128:= [[53.2,18.925,0.0], [-1, 0, 0, 0],[-1, 0, 1, 0], [ 9E+9,9E+9, 9E9, 9E9, 9E9, 9E9]];
CONST robtarget p129:= [[53.2,20.339,0.0], [-1, 0, 0, 0],[-1, 0, 1, 0], [ 9E+9,9E+9, 9E9, 9E9, 9E9, 9E9]];
CONST robtarget p130:= [[46.839,26.7,0.0], [-1, 0, 0, 0],[-1, 0, 1, 0], [ 9E+9,9E+9, 9E9, 9E9, 9E9, 9E9]];
CONST robtarget p131:= [[48.253,26.7,0.0], [-1, 0, 0, 0],[-1, 0, 1, 0], [ 9E+9,9E+9, 9E9, 9E9, 9E9, 9E9]];
CONST robtarget p132:= [[53.2,21.753,0.0], [-1, 0, 0, 0],[-1, 0, 1, 0], [ 9E+9,9E+9, 9E9, 9E9, 9E9, 9E9]];
CONST robtarget p133:= [[53.2,23.168,0.0], [-1, 0, 0, 0],[-1, 0, 1, 0], [ 9E+9,9E+9, 9E9, 9E9, 9E9, 9E9]];
CONST robtarget p134:= [[49.668,26.7,0.0], [-1, 0, 0, 0],[-1, 0, 1, 0], [ 9E+9,9E+9, 9E9, 9E9, 9E9, 9E9]];
CONST robtarget p135:= [[51.082,26.7,0.0], [-1, 0, 0, 0],[-1, 0, 1, 0], [ 9E+9,9E+9, 9E9, 9E9, 9E9, 9E9]];
CONST robtarget p136:= [[53.2,24.582,0.0], [-1, 0, 0, 0],[-1, 0, 1, 0], [ 9E+9,9E+9, 9E9, 9E9, 9E9, 9E9]];
CONST robtarget p137:= [[53.2,25.996,0.0], [-1, 0, 0, 0],[-1, 0, 1, 0], [ 9E+9,9E+9, 9E9, 9E9, 9E9, 9E9]];
CONST robtarget p138:= [[52.496,26.7,0.0], [-1, 0, 0, 0],[-1, 0, 1, 0], [ 9E+9,9E+9, 9E9, 9E9, 9E9, 9E9]];
CONST robtarget p139:= [[53.2,27.41,0.0], [-1, 0, 0, 0],[-1, 0, 1, 0], [ 9E+9,9E+9, 9E9, 9E9, 9E9, 9E9]];
CONST robtarget p140:= [[53.91,26.7,0.0], [-1, 0, 0, 0],[-1, 0, 1, 0], [ 9E+9,9E+9, 9E9, 9E9, 9E9, 9E9]];
CONST robtarget p141:= [[55.324,26.7,0.0], [-1, 0, 0, 0],[-1, 0, 1, 0], [ 9E+9,9E+9, 9E9, 9E9, 9E9, 9E9]];
CONST robtarget p142:= [[53.2,28.824,0.0], [-1, 0, 0, 0],[-1, 0, 1, 0], [ 9E+9,9E+9, 9E9, 9E9, 9E9, 9E9]];
CONST robtarget p143:= [[53.2,30.239,0.0], [-1, 0, 0, 0],[-1, 0, 1, 0], [ 9E+9,9E+9, 9E9, 9E9, 9E9, 9E9]];
CONST robtarget p144:= [[56.739,26.7,0.0], [-1, 0, 0, 0],[-1, 0, 1, 0], [ 9E+9,9E+9, 9E9, 9E9, 9E9, 9E9]];
CONST robtarget p145:= [[58.153,26.7,0.0], [-1, 0, 0, 0],[-1, 0, 1, 0], [ 9E+9,9E+9, 9E9, 9E9, 9E9, 9E9]];
CONST robtarget p146:= [[53.2,31.653,0.0], [-1, 0, 0, 0],[-1, 0, 1, 0], [ 9E+9,9E+9, 9E9, 9E9, 9E9, 9E9]];
CONST robtarget p147:= [[53.2,33.067,0.0], [-1, 0, 0, 0],[-1, 0, 1, 0], [ 9E+9,9E+9, 9E9, 9E9, 9E9, 9E9]];
CONST robtarget p148:= [[59.567,26.7,0.0], [-1, 0, 0, 0],[-1, 0, 1, 0], [ 9E+9,9E+9, 9E9, 9E9, 9E9, 9E9]];
CONST robtarget p149:= [[60.981,26.7,0.0], [-1, 0, 0, 0],[-1, 0, 1, 0], [ 9E+9,9E+9, 9E9, 9E9, 9E9, 9E9]];
CONST robtarget p150:= [[53.2,34.481,0.0], [-1, 0, 0, 0],[-1, 0, 1, 0], [ 9E+9,9E+9, 9E9, 9E9, 9E9, 9E9]];
CONST robtarget p151:= [[53.2,35.895,0.0], [-1, 0, 0, 0],[-1, 0, 1, 0], [ 9E+9,9E+9, 9E9, 9E9, 9E9, 9E9]];
CONST robtarget p152:= [[62.395,26.7,0.0], [-1, 0, 0, 0],[-1, 0, 1, 0], [ 9E+9,9E+9, 9E9, 9E9, 9E9, 9E9]];
CONST robtarget p153:= [[63.81,26.7,0.0], [-1, 0, 0, 0],[-1, 0, 1, 0], [ 9E+9,9E+9, 9E9, 9E9, 9E9, 9E9]];
CONST robtarget p154:= [[53.2,37.31,0.0], [-1, 0, 0, 0],[-1, 0, 1, 0], [ 9E+9,9E+9, 9E9, 9E9, 9E9, 9E9]];
CONST robtarget p155:= [[53.2,38.724,0.0], [-1, 0, 0, 0],[-1, 0, 1, 0], [ 9E+9,9E+9, 9E9, 9E9, 9E9, 9E9]];
CONST robtarget p156:= [[65.224,26.7,0.0], [-1, 0, 0, 0],[-1, 0, 1, 0], [ 9E+9,9E+9, 9E9, 9E9, 9E9, 9E9]];
CONST robtarget p157:= [[66.5,26.838,0.0], [-1, 0, 0, 0],[-1, 0, 1, 0], [ 9E+9,9E+9, 9E9, 9E9, 9E9, 9E9]];
CONST robtarget p158:= [[53.338,40.0,0.0], [-1, 0, 0, 0],[-1, 0, 1, 0], [ 9E+9,9E+9, 9E9, 9E9, 9E9, 9E9]];
CONST robtarget p159:= [[53.2,40.138,0.0], [-1, 0, 0, 0],[-1, 0, 1, 0], [ 9E+9,9E+9, 9E9, 9E9, 9E9, 9E9]];
CONST robtarget p160:= [[40.038,53.3,0.0], [-1, 0, 0, 0],[-1, 0, 1, 0], [ 9E+9,9E+9, 9E9, 9E9, 9E9, 9E9]];
CONST robtarget p161:= [[39.9,53.438,0.0], [-1, 0, 0, 0],[-1, 0, 1, 0], [ 9E+9,9E+9, 9E9, 9E9, 9E9, 9E9]];
CONST robtarget p162:= [[26.738,66.6,0.0], [-1, 0, 0, 0],[-1, 0, 1, 0], [ 9E+9,9E+9, 9E9, 9E9, 9E9, 9E9]];
CONST robtarget p163:= [[26.6,65.324,0.0], [-1, 0, 0, 0],[-1, 0, 1, 0], [ 9E+9,9E+9, 9E9, 9E9, 9E9, 9E9]];
CONST robtarget p164:= [[38.624,53.3,0.0], [-1, 0, 0, 0],[-1, 0, 1, 0], [ 9E+9,9E+9, 9E9, 9E9, 9E9, 9E9]];
CONST robtarget p165:= [[37.21,53.3,0.0], [-1, 0, 0, 0],[-1, 0, 1, 0], [ 9E+9,9E+9, 9E9, 9E9, 9E9, 9E9]];
CONST robtarget p166:= [[26.6,63.91,0.0], [-1, 0, 0, 0],[-1, 0, 1, 0], [ 9E+9,9E+9, 9E9, 9E9, 9E9, 9E9]];
CONST robtarget p167:= [[26.6,62.495,0.0], [-1, 0, 0, 0],[-1, 0, 1, 0], [ 9E+9,9E+9, 9E9, 9E9, 9E9, 9E9]];
CONST robtarget p168:= [[35.795,53.3,0.0], [-1, 0, 0, 0],[-1, 0, 1, 0], [ 9E+9,9E+9, 9E9, 9E9, 9E9, 9E9]];
CONST robtarget p169:= [[34.381,53.3,0.0], [-1, 0, 0, 0],[-1, 0, 1, 0], [ 9E+9,9E+9, 9E9, 9E9, 9E9, 9E9]];
CONST robtarget p170:= [[26.6,61.081,0.0], [-1, 0, 0, 0],[-1, 0, 1, 0], [ 9E+9,9E+9, 9E9, 9E9, 9E9, 9E9]];
CONST robtarget p171:= [[26.6,59.667,0.0], [-1, 0, 0, 0],[-1, 0, 1, 0], [ 9E+9,9E+9, 9E9, 9E9, 9E9, 9E9]];
CONST robtarget p172:= [[32.967,53.3,0.0], [-1, 0, 0, 0],[-1, 0, 1, 0], [ 9E+9,9E+9, 9E9, 9E9, 9E9, 9E9]];
CONST robtarget p173:= [[31.553,53.3,0.0], [-1, 0, 0, 0],[-1, 0, 1, 0], [ 9E+9,9E+9, 9E9, 9E9, 9E9, 9E9]];
CONST robtarget p174:= [[26.6,58.253,0.0], [-1, 0, 0, 0],[-1, 0, 1, 0], [ 9E+9,9E+9, 9E9, 9E9, 9E9, 9E9]];
CONST robtarget p175:= [[26.6,56.839,0.0], [-1, 0, 0, 0],[-1, 0, 1, 0], [ 9E+9,9E+9, 9E9, 9E9, 9E9, 9E9]];
CONST robtarget p176:= [[30.139,53.3,0.0], [-1, 0, 0, 0],[-1, 0, 1, 0], [ 9E+9,9E+9, 9E9, 9E9, 9E9, 9E9]];
CONST robtarget p177:= [[28.724,53.3,0.0], [-1, 0, 0, 0],[-1, 0, 1, 0], [ 9E+9,9E+9, 9E9, 9E9, 9E9, 9E9]];
CONST robtarget p178:= [[26.6,55.424,0.0], [-1, 0, 0, 0],[-1, 0, 1, 0], [ 9E+9,9E+9, 9E9, 9E9, 9E9, 9E9]];
CONST robtarget p179:= [[26.6,54.01,0.0], [-1, 0, 0, 0],[-1, 0, 1, 0], [ 9E+9,9E+9, 9E9, 9E9, 9E9, 9E9]];
CONST robtarget p180:= [[27.31,53.3,0.0], [-1, 0, 0, 0],[-1, 0, 1, 0], [ 9E+9,9E+9, 9E9, 9E9, 9E9, 9E9]];
CONST robtarget p181:= [[26.6,52.596,0.0], [-1, 0, 0, 0],[-1, 0, 1, 0], [ 9E+9,9E+9, 9E9, 9E9, 9E9, 9E9]];
CONST robtarget p182:= [[25.896,53.3,0.0], [-1, 0, 0, 0],[-1, 0, 1, 0], [ 9E+9,9E+9, 9E9, 9E9, 9E9, 9E9]];
CONST robtarget p183:= [[24.482,53.3,0.0], [-1, 0, 0, 0],[-1, 0, 1, 0], [ 9E+9,9E+9, 9E9, 9E9, 9E9, 9E9]];
CONST robtarget p184:= [[26.6,51.182,0.0], [-1, 0, 0, 0],[-1, 0, 1, 0], [ 9E+9,9E+9, 9E9, 9E9, 9E9, 9E9]];
CONST robtarget p185:= [[26.6,49.768,0.0], [-1, 0, 0, 0],[-1, 0, 1, 0], [ 9E+9,9E+9, 9E9, 9E9, 9E9, 9E9]];
CONST robtarget p186:= [[23.068,53.3,0.0], [-1, 0, 0, 0],[-1, 0, 1, 0], [ 9E+9,9E+9, 9E9, 9E9, 9E9, 9E9]];
CONST robtarget p187:= [[21.653,53.3,0.0], [-1, 0, 0, 0],[-1, 0, 1, 0], [ 9E+9,9E+9, 9E9, 9E9, 9E9, 9E9]];
CONST robtarget p188:= [[26.6,48.353,0.0], [-1, 0, 0, 0],[-1, 0, 1, 0], [ 9E+9,9E+9, 9E9, 9E9, 9E9, 9E9]];
CONST robtarget p189:= [[26.6,46.939,0.0], [-1, 0, 0, 0],[-1, 0, 1, 0], [ 9E+9,9E+9, 9E9, 9E9, 9E9, 9E9]];
CONST robtarget p190:= [[20.239,53.3,0.0], [-1, 0, 0, 0],[-1, 0, 1, 0], [ 9E+9,9E+9, 9E9, 9E9, 9E9, 9E9]];
CONST robtarget p191:= [[18.825,53.3,0.0], [-1, 0, 0, 0],[-1, 0, 1, 0], [ 9E+9,9E+9, 9E9, 9E9, 9E9, 9E9]];
CONST robtarget p192:= [[26.6,45.525,0.0], [-1, 0, 0, 0],[-1, 0, 1, 0], [ 9E+9,9E+9, 9E9, 9E9, 9E9, 9E9]];
CONST robtarget p193:= [[26.6,44.111,0.0], [-1, 0, 0, 0],[-1, 0, 1, 0], [ 9E+9,9E+9, 9E9, 9E9, 9E9, 9E9]];
CONST robtarget p194:= [[17.411,53.3,0.0], [-1, 0, 0, 0],[-1, 0, 1, 0], [ 9E+9,9E+9, 9E9, 9E9, 9E9, 9E9]];
CONST robtarget p195:= [[15.996,53.3,0.0], [-1, 0, 0, 0],[-1, 0, 1, 0], [ 9E+9,9E+9, 9E9, 9E9, 9E9, 9E9]];
CONST robtarget p196:= [[26.6,42.696,0.0], [-1, 0, 0, 0],[-1, 0, 1, 0], [ 9E+9,9E+9, 9E9, 9E9, 9E9, 9E9]];
CONST robtarget p197:= [[26.6,41.282,0.0], [-1, 0, 0, 0],[-1, 0, 1, 0], [ 9E+9,9E+9, 9E9, 9E9, 9E9, 9E9]];
CONST robtarget p198:= [[14.582,53.3,0.0], [-1, 0, 0, 0],[-1, 0, 1, 0], [ 9E+9,9E+9, 9E9, 9E9, 9E9, 9E9]];
CONST robtarget p199:= [[13.3,54.582,0.0], [-1, 0, 0, 0],[-1, 0, 1, 0], [ 9E+9,9E+9, 9E9, 9E9, 9E9, 9E9]];
CONST robtarget p200:= [[1.282,66.6,0.0], [-1, 0, 0, 0],[-1, 0, 1, 0], [ 9E+9,9E+9, 9E9, 9E9, 9E9, 9E9]];
CONST robtarget p201:= [[0.0,66.468,0.0], [-1, 0, 0, 0],[-1, 0, 1, 0], [ 9E+9,9E+9, 9E9, 9E9, 9E9, 9E9]];
CONST robtarget p202:= [[13.168,53.3,0.0], [-1, 0, 0, 0],[-1, 0, 1, 0], [ 9E+9,9E+9, 9E9, 9E9, 9E9, 9E9]];
CONST robtarget p203:= [[11.754,53.3,0.0], [-1, 0, 0, 0],[-1, 0, 1, 0], [ 9E+9,9E+9, 9E9, 9E9, 9E9, 9E9]];
CONST robtarget p204:= [[0.0,65.054,0.0], [-1, 0, 0, 0],[-1, 0, 1, 0], [ 9E+9,9E+9, 9E9, 9E9, 9E9, 9E9]];
CONST robtarget p205:= [[0.0,63.64,0.0], [-1, 0, 0, 0],[-1, 0, 1, 0], [ 9E+9,9E+9, 9E9, 9E9, 9E9, 9E9]];
CONST robtarget p206:= [[10.34,53.3,0.0], [-1, 0, 0, 0],[-1, 0, 1, 0], [ 9E+9,9E+9, 9E9, 9E9, 9E9, 9E9]];
CONST robtarget p207:= [[8.925,53.3,0.0], [-1, 0, 0, 0],[-1, 0, 1, 0], [ 9E+9,9E+9, 9E9, 9E9, 9E9, 9E9]];
CONST robtarget p208:= [[0.0,62.225,0.0], [-1, 0, 0, 0],[-1, 0, 1, 0], [ 9E+9,9E+9, 9E9, 9E9, 9E9, 9E9]];
CONST robtarget p209:= [[0.0,60.811,0.0], [-1, 0, 0, 0],[-1, 0, 1, 0], [ 9E+9,9E+9, 9E9, 9E9, 9E9, 9E9]];
CONST robtarget p210:= [[7.511,53.3,0.0], [-1, 0, 0, 0],[-1, 0, 1, 0], [ 9E+9,9E+9, 9E9, 9E9, 9E9, 9E9]];
CONST robtarget p211:= [[6.097,53.3,0.0], [-1, 0, 0, 0],[-1, 0, 1, 0], [ 9E+9,9E+9, 9E9, 9E9, 9E9, 9E9]];
CONST robtarget p212:= [[0.0,59.397,0.0], [-1, 0, 0, 0],[-1, 0, 1, 0], [ 9E+9,9E+9, 9E9, 9E9, 9E9, 9E9]];
CONST robtarget p213:= [[0.0,57.983,0.0], [-1, 0, 0, 0],[-1, 0, 1, 0], [ 9E+9,9E+9, 9E9, 9E9, 9E9, 9E9]];
CONST robtarget p214:= [[4.683,53.3,0.0], [-1, 0, 0, 0],[-1, 0, 1, 0], [ 9E+9,9E+9, 9E9, 9E9, 9E9, 9E9]];
CONST robtarget p215:= [[3.269,53.3,0.0], [-1, 0, 0, 0],[-1, 0, 1, 0], [ 9E+9,9E+9, 9E9, 9E9, 9E9, 9E9]];
CONST robtarget p216:= [[0.0,56.569,0.0], [-1, 0, 0, 0],[-1, 0, 1, 0], [ 9E+9,9E+9, 9E9, 9E9, 9E9, 9E9]];
CONST robtarget p217:= [[0.0,55.154,0.0], [-1, 0, 0, 0],[-1, 0, 1, 0], [ 9E+9,9E+9, 9E9, 9E9, 9E9, 9E9]];
CONST robtarget p218:= [[1.854,53.3,0.0], [-1, 0, 0, 0],[-1, 0, 1, 0], [ 9E+9,9E+9, 9E9, 9E9, 9E9, 9E9]];
CONST robtarget p219:= [[0.44,53.3,0.0], [-1, 0, 0, 0],[-1, 0, 1, 0], [ 9E+9,9E+9, 9E9, 9E9, 9E9, 9E9]];
CONST robtarget p220:= [[0.0,53.74,0.0], [-1, 0, 0, 0],[-1, 0, 1, 0], [ 9E+9,9E+9, 9E9, 9E9, 9E9, 9E9]];
CONST robtarget p221:= [[2.696,66.6,0.0], [-1, 0, 0, 0],[-1, 0, 1, 0], [ 9E+9,9E+9, 9E9, 9E9, 9E9, 9E9]];
CONST robtarget p222:= [[13.3,55.996,0.0], [-1, 0, 0, 0],[-1, 0, 1, 0], [ 9E+9,9E+9, 9E9, 9E9, 9E9, 9E9]];
CONST robtarget p223:= [[13.3,57.411,0.0], [-1, 0, 0, 0],[-1, 0, 1, 0], [ 9E+9,9E+9, 9E9, 9E9, 9E9, 9E9]];
CONST robtarget p224:= [[4.111,66.6,0.0], [-1, 0, 0, 0],[-1, 0, 1, 0], [ 9E+9,9E+9, 9E9, 9E9, 9E9, 9E9]];
CONST robtarget p225:= [[5.525,66.6,0.0], [-1, 0, 0, 0],[-1, 0, 1, 0], [ 9E+9,9E+9, 9E9, 9E9, 9E9, 9E9]];
CONST robtarget p226:= [[13.3,58.825,0.0], [-1, 0, 0, 0],[-1, 0, 1, 0], [ 9E+9,9E+9, 9E9, 9E9, 9E9, 9E9]];
CONST robtarget p227:= [[13.3,60.239,0.0], [-1, 0, 0, 0],[-1, 0, 1, 0], [ 9E+9,9E+9, 9E9, 9E9, 9E9, 9E9]];
CONST robtarget p228:= [[6.939,66.6,0.0], [-1, 0, 0, 0],[-1, 0, 1, 0], [ 9E+9,9E+9, 9E9, 9E9, 9E9, 9E9]];
CONST robtarget p229:= [[8.353,66.6,0.0], [-1, 0, 0, 0],[-1, 0, 1, 0], [ 9E+9,9E+9, 9E9, 9E9, 9E9, 9E9]];
CONST robtarget p230:= [[13.3,61.653,0.0], [-1, 0, 0, 0],[-1, 0, 1, 0], [ 9E+9,9E+9, 9E9, 9E9, 9E9, 9E9]];
CONST robtarget p231:= [[13.3,63.068,0.0], [-1, 0, 0, 0],[-1, 0, 1, 0], [ 9E+9,9E+9, 9E9, 9E9, 9E9, 9E9]];
CONST robtarget p232:= [[9.768,66.6,0.0], [-1, 0, 0, 0],[-1, 0, 1, 0], [ 9E+9,9E+9, 9E9, 9E9, 9E9, 9E9]];
CONST robtarget p233:= [[11.182,66.6,0.0], [-1, 0, 0, 0],[-1, 0, 1, 0], [ 9E+9,9E+9, 9E9, 9E9, 9E9, 9E9]];
CONST robtarget p234:= [[13.3,64.482,0.0], [-1, 0, 0, 0],[-1, 0, 1, 0], [ 9E+9,9E+9, 9E9, 9E9, 9E9, 9E9]];
CONST robtarget p235:= [[13.3,65.896,0.0], [-1, 0, 0, 0],[-1, 0, 1, 0], [ 9E+9,9E+9, 9E9, 9E9, 9E9, 9E9]];
CONST robtarget p236:= [[12.596,66.6,0.0], [-1, 0, 0, 0],[-1, 0, 1, 0], [ 9E+9,9E+9, 9E9, 9E9, 9E9, 9E9]];
CONST robtarget p237:= [[28.152,66.6,0.0], [-1, 0, 0, 0],[-1, 0, 1, 0], [ 9E+9,9E+9, 9E9, 9E9, 9E9, 9E9]];
CONST robtarget p238:= [[39.9,54.852,0.0], [-1, 0, 0, 0],[-1, 0, 1, 0], [ 9E+9,9E+9, 9E9, 9E9, 9E9, 9E9]];
CONST robtarget p239:= [[39.9,56.267,0.0], [-1, 0, 0, 0],[-1, 0, 1, 0], [ 9E+9,9E+9, 9E9, 9E9, 9E9, 9E9]];
CONST robtarget p240:= [[29.567,66.6,0.0], [-1, 0, 0, 0],[-1, 0, 1, 0], [ 9E+9,9E+9, 9E9, 9E9, 9E9, 9E9]];
CONST robtarget p241:= [[30.981,66.6,0.0], [-1, 0, 0, 0],[-1, 0, 1, 0], [ 9E+9,9E+9, 9E9, 9E9, 9E9, 9E9]];
CONST robtarget p242:= [[39.9,57.681,0.0], [-1, 0, 0, 0],[-1, 0, 1, 0], [ 9E+9,9E+9, 9E9, 9E9, 9E9, 9E9]];
CONST robtarget p243:= [[39.9,59.095,0.0], [-1, 0, 0, 0],[-1, 0, 1, 0], [ 9E+9,9E+9, 9E9, 9E9, 9E9, 9E9]];
CONST robtarget p244:= [[32.395,66.6,0.0], [-1, 0, 0, 0],[-1, 0, 1, 0], [ 9E+9,9E+9, 9E9, 9E9, 9E9, 9E9]];
CONST robtarget p245:= [[33.809,66.6,0.0], [-1, 0, 0, 0],[-1, 0, 1, 0], [ 9E+9,9E+9, 9E9, 9E9, 9E9, 9E9]];
CONST robtarget p246:= [[39.9,60.509,0.0], [-1, 0, 0, 0],[-1, 0, 1, 0], [ 9E+9,9E+9, 9E9, 9E9, 9E9, 9E9]];
CONST robtarget p247:= [[39.9,61.923,0.0], [-1, 0, 0, 0],[-1, 0, 1, 0], [ 9E+9,9E+9, 9E9, 9E9, 9E9, 9E9]];
CONST robtarget p248:= [[35.223,66.6,0.0], [-1, 0, 0, 0],[-1, 0, 1, 0], [ 9E+9,9E+9, 9E9, 9E9, 9E9, 9E9]];
CONST robtarget p249:= [[36.638,66.6,0.0], [-1, 0, 0, 0],[-1, 0, 1, 0], [ 9E+9,9E+9, 9E9, 9E9, 9E9, 9E9]];
CONST robtarget p250:= [[39.9,63.338,0.0], [-1, 0, 0, 0],[-1, 0, 1, 0], [ 9E+9,9E+9, 9E9, 9E9, 9E9, 9E9]];
CONST robtarget p251:= [[39.9,64.752,0.0], [-1, 0, 0, 0],[-1, 0, 1, 0], [ 9E+9,9E+9, 9E9, 9E9, 9E9, 9E9]];
CONST robtarget p252:= [[38.052,66.6,0.0], [-1, 0, 0, 0],[-1, 0, 1, 0], [ 9E+9,9E+9, 9E9, 9E9, 9E9, 9E9]];
CONST robtarget p253:= [[39.466,66.6,0.0], [-1, 0, 0, 0],[-1, 0, 1, 0], [ 9E+9,9E+9, 9E9, 9E9, 9E9, 9E9]];
CONST robtarget p254:= [[39.9,66.166,0.0], [-1, 0, 0, 0],[-1, 0, 1, 0], [ 9E+9,9E+9, 9E9, 9E9, 9E9, 9E9]];
CONST robtarget p255:= [[41.452,53.3,0.0], [-1, 0, 0, 0],[-1, 0, 1, 0], [ 9E+9,9E+9, 9E9, 9E9, 9E9, 9E9]];
CONST robtarget p256:= [[53.2,41.552,0.0], [-1, 0, 0, 0],[-1, 0, 1, 0], [ 9E+9,9E+9, 9E9, 9E9, 9E9, 9E9]];
CONST robtarget p257:= [[53.2,42.967,0.0], [-1, 0, 0, 0],[-1, 0, 1, 0], [ 9E+9,9E+9, 9E9, 9E9, 9E9, 9E9]];
CONST robtarget p258:= [[42.867,53.3,0.0], [-1, 0, 0, 0],[-1, 0, 1, 0], [ 9E+9,9E+9, 9E9, 9E9, 9E9, 9E9]];
CONST robtarget p259:= [[44.281,53.3,0.0], [-1, 0, 0, 0],[-1, 0, 1, 0], [ 9E+9,9E+9, 9E9, 9E9, 9E9, 9E9]];
CONST robtarget p260:= [[53.2,44.381,0.0], [-1, 0, 0, 0],[-1, 0, 1, 0], [ 9E+9,9E+9, 9E9, 9E9, 9E9, 9E9]];
CONST robtarget p261:= [[53.2,45.795,0.0], [-1, 0, 0, 0],[-1, 0, 1, 0], [ 9E+9,9E+9, 9E9, 9E9, 9E9, 9E9]];
CONST robtarget p262:= [[45.695,53.3,0.0], [-1, 0, 0, 0],[-1, 0, 1, 0], [ 9E+9,9E+9, 9E9, 9E9, 9E9, 9E9]];
CONST robtarget p263:= [[47.109,53.3,0.0], [-1, 0, 0, 0],[-1, 0, 1, 0], [ 9E+9,9E+9, 9E9, 9E9, 9E9, 9E9]];
CONST robtarget p264:= [[53.2,47.209,0.0], [-1, 0, 0, 0],[-1, 0, 1, 0], [ 9E+9,9E+9, 9E9, 9E9, 9E9, 9E9]];
CONST robtarget p265:= [[53.2,48.623,0.0], [-1, 0, 0, 0],[-1, 0, 1, 0], [ 9E+9,9E+9, 9E9, 9E9, 9E9, 9E9]];
CONST robtarget p266:= [[48.523,53.3,0.0], [-1, 0, 0, 0],[-1, 0, 1, 0], [ 9E+9,9E+9, 9E9, 9E9, 9E9, 9E9]];
CONST robtarget p267:= [[49.938,53.3,0.0], [-1, 0, 0, 0],[-1, 0, 1, 0], [ 9E+9,9E+9, 9E9, 9E9, 9E9, 9E9]];
CONST robtarget p268:= [[53.2,50.038,0.0], [-1, 0, 0, 0],[-1, 0, 1, 0], [ 9E+9,9E+9, 9E9, 9E9, 9E9, 9E9]];
CONST robtarget p269:= [[53.2,51.452,0.0], [-1, 0, 0, 0],[-1, 0, 1, 0], [ 9E+9,9E+9, 9E9, 9E9, 9E9, 9E9]];
CONST robtarget p270:= [[51.352,53.3,0.0], [-1, 0, 0, 0],[-1, 0, 1, 0], [ 9E+9,9E+9, 9E9, 9E9, 9E9, 9E9]];
CONST robtarget p271:= [[52.766,53.3,0.0], [-1, 0, 0, 0],[-1, 0, 1, 0], [ 9E+9,9E+9, 9E9, 9E9, 9E9, 9E9]];
CONST robtarget p272:= [[53.2,52.866,0.0], [-1, 0, 0, 0],[-1, 0, 1, 0], [ 9E+9,9E+9, 9E9, 9E9, 9E9, 9E9]];
CONST robtarget p273:= [[54.18,53.3,0.0], [-1, 0, 0, 0],[-1, 0, 1, 0], [ 9E+9,9E+9, 9E9, 9E9, 9E9, 9E9]];
CONST robtarget p274:= [[53.2,54.28,0.0], [-1, 0, 0, 0],[-1, 0, 1, 0], [ 9E+9,9E+9, 9E9, 9E9, 9E9, 9E9]];
CONST robtarget p275:= [[53.2,55.694,0.0], [-1, 0, 0, 0],[-1, 0, 1, 0], [ 9E+9,9E+9, 9E9, 9E9, 9E9, 9E9]];
CONST robtarget p276:= [[55.594,53.3,0.0], [-1, 0, 0, 0],[-1, 0, 1, 0], [ 9E+9,9E+9, 9E9, 9E9, 9E9, 9E9]];
CONST robtarget p277:= [[57.009,53.3,0.0], [-1, 0, 0, 0],[-1, 0, 1, 0], [ 9E+9,9E+9, 9E9, 9E9, 9E9, 9E9]];
CONST robtarget p278:= [[53.2,57.109,0.0], [-1, 0, 0, 0],[-1, 0, 1, 0], [ 9E+9,9E+9, 9E9, 9E9, 9E9, 9E9]];
CONST robtarget p279:= [[53.2,58.523,0.0], [-1, 0, 0, 0],[-1, 0, 1, 0], [ 9E+9,9E+9, 9E9, 9E9, 9E9, 9E9]];
CONST robtarget p280:= [[58.423,53.3,0.0], [-1, 0, 0, 0],[-1, 0, 1, 0], [ 9E+9,9E+9, 9E9, 9E9, 9E9, 9E9]];
CONST robtarget p281:= [[59.837,53.3,0.0], [-1, 0, 0, 0],[-1, 0, 1, 0], [ 9E+9,9E+9, 9E9, 9E9, 9E9, 9E9]];
CONST robtarget p282:= [[53.2,59.937,0.0], [-1, 0, 0, 0],[-1, 0, 1, 0], [ 9E+9,9E+9, 9E9, 9E9, 9E9, 9E9]];
CONST robtarget p283:= [[53.2,61.351,0.0], [-1, 0, 0, 0],[-1, 0, 1, 0], [ 9E+9,9E+9, 9E9, 9E9, 9E9, 9E9]];
CONST robtarget p284:= [[61.251,53.3,0.0], [-1, 0, 0, 0],[-1, 0, 1, 0], [ 9E+9,9E+9, 9E9, 9E9, 9E9, 9E9]];
CONST robtarget p285:= [[62.666,53.3,0.0], [-1, 0, 0, 0],[-1, 0, 1, 0], [ 9E+9,9E+9, 9E9, 9E9, 9E9, 9E9]];
CONST robtarget p286:= [[53.2,62.766,0.0], [-1, 0, 0, 0],[-1, 0, 1, 0], [ 9E+9,9E+9, 9E9, 9E9, 9E9, 9E9]];
CONST robtarget p287:= [[53.2,64.18,0.0], [-1, 0, 0, 0],[-1, 0, 1, 0], [ 9E+9,9E+9, 9E9, 9E9, 9E9, 9E9]];
CONST robtarget p288:= [[64.08,53.3,0.0], [-1, 0, 0, 0],[-1, 0, 1, 0], [ 9E+9,9E+9, 9E9, 9E9, 9E9, 9E9]];
CONST robtarget p289:= [[65.494,53.3,0.0], [-1, 0, 0, 0],[-1, 0, 1, 0], [ 9E+9,9E+9, 9E9, 9E9, 9E9, 9E9]];
CONST robtarget p290:= [[53.2,65.594,0.0], [-1, 0, 0, 0],[-1, 0, 1, 0], [ 9E+9,9E+9, 9E9, 9E9, 9E9, 9E9]];
CONST robtarget p291:= [[53.608,66.6,0.0], [-1, 0, 0, 0],[-1, 0, 1, 0], [ 9E+9,9E+9, 9E9, 9E9, 9E9, 9E9]];
CONST robtarget p292:= [[66.5,53.708,0.0], [-1, 0, 0, 0],[-1, 0, 1, 0], [ 9E+9,9E+9, 9E9, 9E9, 9E9, 9E9]];
CONST robtarget p293:= [[66.5,55.122,0.0], [-1, 0, 0, 0],[-1, 0, 1, 0], [ 9E+9,9E+9, 9E9, 9E9, 9E9, 9E9]];
CONST robtarget p294:= [[55.022,66.6,0.0], [-1, 0, 0, 0],[-1, 0, 1, 0], [ 9E+9,9E+9, 9E9, 9E9, 9E9, 9E9]];
CONST robtarget p295:= [[56.437,66.6,0.0], [-1, 0, 0, 0],[-1, 0, 1, 0], [ 9E+9,9E+9, 9E9, 9E9, 9E9, 9E9]];
CONST robtarget p296:= [[66.5,56.537,0.0], [-1, 0, 0, 0],[-1, 0, 1, 0], [ 9E+9,9E+9, 9E9, 9E9, 9E9, 9E9]];
CONST robtarget p297:= [[66.5,57.951,0.0], [-1, 0, 0, 0],[-1, 0, 1, 0], [ 9E+9,9E+9, 9E9, 9E9, 9E9, 9E9]];
CONST robtarget p298:= [[57.851,66.6,0.0], [-1, 0, 0, 0],[-1, 0, 1, 0], [ 9E+9,9E+9, 9E9, 9E9, 9E9, 9E9]];
CONST robtarget p299:= [[59.265,66.6,0.0], [-1, 0, 0, 0],[-1, 0, 1, 0], [ 9E+9,9E+9, 9E9, 9E9, 9E9, 9E9]];
CONST robtarget p300:= [[66.5,59.365,0.0], [-1, 0, 0, 0],[-1, 0, 1, 0], [ 9E+9,9E+9, 9E9, 9E9, 9E9, 9E9]];
CONST robtarget p301:= [[66.5,60.779,0.0], [-1, 0, 0, 0],[-1, 0, 1, 0], [ 9E+9,9E+9, 9E9, 9E9, 9E9, 9E9]];
CONST robtarget p302:= [[60.679,66.6,0.0], [-1, 0, 0, 0],[-1, 0, 1, 0], [ 9E+9,9E+9, 9E9, 9E9, 9E9, 9E9]];
CONST robtarget p303:= [[62.093,66.6,0.0], [-1, 0, 0, 0],[-1, 0, 1, 0], [ 9E+9,9E+9, 9E9, 9E9, 9E9, 9E9]];
CONST robtarget p304:= [[66.5,62.193,0.0], [-1, 0, 0, 0],[-1, 0, 1, 0], [ 9E+9,9E+9, 9E9, 9E9, 9E9, 9E9]];
CONST robtarget p305:= [[66.5,63.608,0.0], [-1, 0, 0, 0],[-1, 0, 1, 0], [ 9E+9,9E+9, 9E9, 9E9, 9E9, 9E9]];
CONST robtarget p306:= [[63.508,66.6,0.0], [-1, 0, 0, 0],[-1, 0, 1, 0], [ 9E+9,9E+9, 9E9, 9E9, 9E9, 9E9]];
CONST robtarget p307:= [[64.922,66.6,0.0], [-1, 0, 0, 0],[-1, 0, 1, 0], [ 9E+9,9E+9, 9E9, 9E9, 9E9, 9E9]];
CONST robtarget p308:= [[66.5,65.022,0.0], [-1, 0, 0, 0],[-1, 0, 1, 0], [ 9E+9,9E+9, 9E9, 9E9, 9E9, 9E9]];
CONST robtarget p309:= [[66.5,66.436,0.0], [-1, 0, 0, 0],[-1, 0, 1, 0], [ 9E+9,9E+9, 9E9, 9E9, 9E9, 9E9]];
CONST robtarget p310:= [[66.336,66.6,0.0], [-1, 0, 0, 0],[-1, 0, 1, 0], [ 9E+9,9E+9, 9E9, 9E9, 9E9, 9E9]];
CONST robtarget p311:= [[66.066,40.0,0.0], [-1, 0, 0, 0],[-1, 0, 1, 0], [ 9E+9,9E+9, 9E9, 9E9, 9E9, 9E9]];
CONST robtarget p312:= [[66.5,39.566,0.0], [-1, 0, 0, 0],[-1, 0, 1, 0], [ 9E+9,9E+9, 9E9, 9E9, 9E9, 9E9]];
CONST robtarget p313:= [[66.5,38.152,0.0], [-1, 0, 0, 0],[-1, 0, 1, 0], [ 9E+9,9E+9, 9E9, 9E9, 9E9, 9E9]];
CONST robtarget p314:= [[64.652,40.0,0.0], [-1, 0, 0, 0],[-1, 0, 1, 0], [ 9E+9,9E+9, 9E9, 9E9, 9E9, 9E9]];
CONST robtarget p315:= [[63.238,40.0,0.0], [-1, 0, 0, 0],[-1, 0, 1, 0], [ 9E+9,9E+9, 9E9, 9E9, 9E9, 9E9]];
CONST robtarget p316:= [[66.5,36.738,0.0], [-1, 0, 0, 0],[-1, 0, 1, 0], [ 9E+9,9E+9, 9E9, 9E9, 9E9, 9E9]];
CONST robtarget p317:= [[66.5,35.323,0.0], [-1, 0, 0, 0],[-1, 0, 1, 0], [ 9E+9,9E+9, 9E9, 9E9, 9E9, 9E9]];
CONST robtarget p318:= [[61.823,40.0,0.0], [-1, 0, 0, 0],[-1, 0, 1, 0], [ 9E+9,9E+9, 9E9, 9E9, 9E9, 9E9]];
CONST robtarget p319:= [[60.409,40.0,0.0], [-1, 0, 0, 0],[-1, 0, 1, 0], [ 9E+9,9E+9, 9E9, 9E9, 9E9, 9E9]];
CONST robtarget p320:= [[66.5,33.909,0.0], [-1, 0, 0, 0],[-1, 0, 1, 0], [ 9E+9,9E+9, 9E9, 9E9, 9E9, 9E9]];
CONST robtarget p321:= [[66.5,32.495,0.0], [-1, 0, 0, 0],[-1, 0, 1, 0], [ 9E+9,9E+9, 9E9, 9E9, 9E9, 9E9]];
CONST robtarget p322:= [[58.995,40.0,0.0], [-1, 0, 0, 0],[-1, 0, 1, 0], [ 9E+9,9E+9, 9E9, 9E9, 9E9, 9E9]];
CONST robtarget p323:= [[57.581,40.0,0.0], [-1, 0, 0, 0],[-1, 0, 1, 0], [ 9E+9,9E+9, 9E9, 9E9, 9E9, 9E9]];
CONST robtarget p324:= [[66.5,31.081,0.0], [-1, 0, 0, 0],[-1, 0, 1, 0], [ 9E+9,9E+9, 9E9, 9E9, 9E9, 9E9]];
CONST robtarget p325:= [[66.5,29.667,0.0], [-1, 0, 0, 0],[-1, 0, 1, 0], [ 9E+9,9E+9, 9E9, 9E9, 9E9, 9E9]];
CONST robtarget p326:= [[56.167,40.0,0.0], [-1, 0, 0, 0],[-1, 0, 1, 0], [ 9E+9,9E+9, 9E9, 9E9, 9E9, 9E9]];
CONST robtarget p327:= [[54.752,40.0,0.0], [-1, 0, 0, 0],[-1, 0, 1, 0], [ 9E+9,9E+9, 9E9, 9E9, 9E9, 9E9]];
CONST robtarget p328:= [[66.5,28.252,0.0], [-1, 0, 0, 0],[-1, 0, 1, 0], [ 9E+9,9E+9, 9E9, 9E9, 9E9, 9E9]];
CONST robtarget p329:= [[50.51,40.0,0.0], [-1, 0, 0, 0],[-1, 0, 1, 0], [ 9E+9,9E+9, 9E9, 9E9, 9E9, 9E9]];
CONST robtarget p330:= [[39.9,50.61,0.0], [-1, 0, 0, 0],[-1, 0, 1, 0], [ 9E+9,9E+9, 9E9, 9E9, 9E9, 9E9]];
CONST robtarget p331:= [[39.9,49.195,0.0], [-1, 0, 0, 0],[-1, 0, 1, 0], [ 9E+9,9E+9, 9E9, 9E9, 9E9, 9E9]];
CONST robtarget p332:= [[49.095,40.0,0.0], [-1, 0, 0, 0],[-1, 0, 1, 0], [ 9E+9,9E+9, 9E9, 9E9, 9E9, 9E9]];
CONST robtarget p333:= [[47.681,40.0,0.0], [-1, 0, 0, 0],[-1, 0, 1, 0], [ 9E+9,9E+9, 9E9, 9E9, 9E9, 9E9]];
CONST robtarget p334:= [[39.9,47.781,0.0], [-1, 0, 0, 0],[-1, 0, 1, 0], [ 9E+9,9E+9, 9E9, 9E9, 9E9, 9E9]];
CONST robtarget p335:= [[39.9,46.367,0.0], [-1, 0, 0, 0],[-1, 0, 1, 0], [ 9E+9,9E+9, 9E9, 9E9, 9E9, 9E9]];
CONST robtarget p336:= [[46.267,40.0,0.0], [-1, 0, 0, 0],[-1, 0, 1, 0], [ 9E+9,9E+9, 9E9, 9E9, 9E9, 9E9]];
CONST robtarget p337:= [[44.853,40.0,0.0], [-1, 0, 0, 0],[-1, 0, 1, 0], [ 9E+9,9E+9, 9E9, 9E9, 9E9, 9E9]];
CONST robtarget p338:= [[39.9,44.953,0.0], [-1, 0, 0, 0],[-1, 0, 1, 0], [ 9E+9,9E+9, 9E9, 9E9, 9E9, 9E9]];
CONST robtarget p339:= [[39.9,43.539,0.0], [-1, 0, 0, 0],[-1, 0, 1, 0], [ 9E+9,9E+9, 9E9, 9E9, 9E9, 9E9]];
CONST robtarget p340:= [[43.439,40.0,0.0], [-1, 0, 0, 0],[-1, 0, 1, 0], [ 9E+9,9E+9, 9E9, 9E9, 9E9, 9E9]];
CONST robtarget p341:= [[42.024,40.0,0.0], [-1, 0, 0, 0],[-1, 0, 1, 0], [ 9E+9,9E+9, 9E9, 9E9, 9E9, 9E9]];
CONST robtarget p342:= [[39.9,42.124,0.0], [-1, 0, 0, 0],[-1, 0, 1, 0], [ 9E+9,9E+9, 9E9, 9E9, 9E9, 9E9]];
CONST robtarget p343:= [[39.9,40.71,0.0], [-1, 0, 0, 0],[-1, 0, 1, 0], [ 9E+9,9E+9, 9E9, 9E9, 9E9, 9E9]];
CONST robtarget p344:= [[40.61,40.0,0.0], [-1, 0, 0, 0],[-1, 0, 1, 0], [ 9E+9,9E+9, 9E9, 9E9, 9E9, 9E9]];
CONST robtarget p345:= [[39.9,39.296,0.0], [-1, 0, 0, 0],[-1, 0, 1, 0], [ 9E+9,9E+9, 9E9, 9E9, 9E9, 9E9]];
CONST robtarget p346:= [[39.196,40.0,0.0], [-1, 0, 0, 0],[-1, 0, 1, 0], [ 9E+9,9E+9, 9E9, 9E9, 9E9, 9E9]];
CONST robtarget p347:= [[37.782,40.0,0.0], [-1, 0, 0, 0],[-1, 0, 1, 0], [ 9E+9,9E+9, 9E9, 9E9, 9E9, 9E9]];
CONST robtarget p348:= [[39.9,37.882,0.0], [-1, 0, 0, 0],[-1, 0, 1, 0], [ 9E+9,9E+9, 9E9, 9E9, 9E9, 9E9]];
CONST robtarget p349:= [[39.9,36.468,0.0], [-1, 0, 0, 0],[-1, 0, 1, 0], [ 9E+9,9E+9, 9E9, 9E9, 9E9, 9E9]];
CONST robtarget p350:= [[36.368,40.0,0.0], [-1, 0, 0, 0],[-1, 0, 1, 0], [ 9E+9,9E+9, 9E9, 9E9, 9E9, 9E9]];
CONST robtarget p351:= [[34.953,40.0,0.0], [-1, 0, 0, 0],[-1, 0, 1, 0], [ 9E+9,9E+9, 9E9, 9E9, 9E9, 9E9]];
CONST robtarget p352:= [[39.9,35.053,0.0], [-1, 0, 0, 0],[-1, 0, 1, 0], [ 9E+9,9E+9, 9E9, 9E9, 9E9, 9E9]];
CONST robtarget p353:= [[39.9,33.639,0.0], [-1, 0, 0, 0],[-1, 0, 1, 0], [ 9E+9,9E+9, 9E9, 9E9, 9E9, 9E9]];
CONST robtarget p354:= [[33.539,40.0,0.0], [-1, 0, 0, 0],[-1, 0, 1, 0], [ 9E+9,9E+9, 9E9, 9E9, 9E9, 9E9]];
CONST robtarget p355:= [[32.125,40.0,0.0], [-1, 0, 0, 0],[-1, 0, 1, 0], [ 9E+9,9E+9, 9E9, 9E9, 9E9, 9E9]];
CONST robtarget p356:= [[39.9,32.225,0.0], [-1, 0, 0, 0],[-1, 0, 1, 0], [ 9E+9,9E+9, 9E9, 9E9, 9E9, 9E9]];
CONST robtarget p357:= [[39.9,30.811,0.0], [-1, 0, 0, 0],[-1, 0, 1, 0], [ 9E+9,9E+9, 9E9, 9E9, 9E9, 9E9]];
CONST robtarget p358:= [[30.711,40.0,0.0], [-1, 0, 0, 0],[-1, 0, 1, 0], [ 9E+9,9E+9, 9E9, 9E9, 9E9, 9E9]];
CONST robtarget p359:= [[29.296,40.0,0.0], [-1, 0, 0, 0],[-1, 0, 1, 0], [ 9E+9,9E+9, 9E9, 9E9, 9E9, 9E9]];
CONST robtarget p360:= [[39.9,29.396,0.0], [-1, 0, 0, 0],[-1, 0, 1, 0], [ 9E+9,9E+9, 9E9, 9E9, 9E9, 9E9]];
CONST robtarget p361:= [[39.9,27.982,0.0], [-1, 0, 0, 0],[-1, 0, 1, 0], [ 9E+9,9E+9, 9E9, 9E9, 9E9, 9E9]];
CONST robtarget p362:= [[27.882,40.0,0.0], [-1, 0, 0, 0],[-1, 0, 1, 0], [ 9E+9,9E+9, 9E9, 9E9, 9E9, 9E9]];
CONST robtarget p363:= [[26.6,37.04,0.0], [-1, 0, 0, 0],[-1, 0, 1, 0], [ 9E+9,9E+9, 9E9, 9E9, 9E9, 9E9]];
CONST robtarget p364:= [[36.94,26.7,0.0], [-1, 0, 0, 0],[-1, 0, 1, 0], [ 9E+9,9E+9, 9E9, 9E9, 9E9, 9E9]];
CONST robtarget p365:= [[38.354,26.7,0.0], [-1, 0, 0, 0],[-1, 0, 1, 0], [ 9E+9,9E+9, 9E9, 9E9, 9E9, 9E9]];
CONST robtarget p366:= [[26.6,38.454,0.0], [-1, 0, 0, 0],[-1, 0, 1, 0], [ 9E+9,9E+9, 9E9, 9E9, 9E9, 9E9]];
CONST robtarget p367:= [[26.6,34.211,0.0], [-1, 0, 0, 0],[-1, 0, 1, 0], [ 9E+9,9E+9, 9E9, 9E9, 9E9, 9E9]];
CONST robtarget p368:= [[34.111,26.7,0.0], [-1, 0, 0, 0],[-1, 0, 1, 0], [ 9E+9,9E+9, 9E9, 9E9, 9E9, 9E9]];
CONST robtarget p369:= [[35.525,26.7,0.0], [-1, 0, 0, 0],[-1, 0, 1, 0], [ 9E+9,9E+9, 9E9, 9E9, 9E9, 9E9]];
CONST robtarget p370:= [[26.6,35.625,0.0], [-1, 0, 0, 0],[-1, 0, 1, 0], [ 9E+9,9E+9, 9E9, 9E9, 9E9, 9E9]];
CONST robtarget p371:= [[26.6,31.383,0.0], [-1, 0, 0, 0],[-1, 0, 1, 0], [ 9E+9,9E+9, 9E9, 9E9, 9E9, 9E9]];
CONST robtarget p372:= [[31.283,26.7,0.0], [-1, 0, 0, 0],[-1, 0, 1, 0], [ 9E+9,9E+9, 9E9, 9E9, 9E9, 9E9]];
CONST robtarget p373:= [[32.697,26.7,0.0], [-1, 0, 0, 0],[-1, 0, 1, 0], [ 9E+9,9E+9, 9E9, 9E9, 9E9, 9E9]];
CONST robtarget p374:= [[26.6,32.797,0.0], [-1, 0, 0, 0],[-1, 0, 1, 0], [ 9E+9,9E+9, 9E9, 9E9, 9E9, 9E9]];
CONST robtarget p375:= [[26.6,28.554,0.0], [-1, 0, 0, 0],[-1, 0, 1, 0], [ 9E+9,9E+9, 9E9, 9E9, 9E9, 9E9]];
CONST robtarget p376:= [[28.454,26.7,0.0], [-1, 0, 0, 0],[-1, 0, 1, 0], [ 9E+9,9E+9, 9E9, 9E9, 9E9, 9E9]];
CONST robtarget p377:= [[29.869,26.7,0.0], [-1, 0, 0, 0],[-1, 0, 1, 0], [ 9E+9,9E+9, 9E9, 9E9, 9E9, 9E9]];
CONST robtarget p378:= [[26.6,29.969,0.0], [-1, 0, 0, 0],[-1, 0, 1, 0], [ 9E+9,9E+9, 9E9, 9E9, 9E9, 9E9]];
CONST robtarget p379:= [[27.04,26.7,0.0], [-1, 0, 0, 0],[-1, 0, 1, 0], [ 9E+9,9E+9, 9E9, 9E9, 9E9, 9E9]];
CONST robtarget p380:= [[26.6,27.14,0.0], [-1, 0, 0, 0],[-1, 0, 1, 0], [ 9E+9,9E+9, 9E9, 9E9, 9E9, 9E9]];
CONST robtarget p381:= [[25.626,26.7,0.0], [-1, 0, 0, 0],[-1, 0, 1, 0], [ 9E+9,9E+9, 9E9, 9E9, 9E9, 9E9]];
CONST robtarget p382:= [[26.6,25.726,0.0], [-1, 0, 0, 0],[-1, 0, 1, 0], [ 9E+9,9E+9, 9E9, 9E9, 9E9, 9E9]];
CONST robtarget p383:= [[26.6,24.312,0.0], [-1, 0, 0, 0],[-1, 0, 1, 0], [ 9E+9,9E+9, 9E9, 9E9, 9E9, 9E9]];
CONST robtarget p384:= [[24.212,26.7,0.0], [-1, 0, 0, 0],[-1, 0, 1, 0], [ 9E+9,9E+9, 9E9, 9E9, 9E9, 9E9]];
CONST robtarget p385:= [[22.797,26.7,0.0], [-1, 0, 0, 0],[-1, 0, 1, 0], [ 9E+9,9E+9, 9E9, 9E9, 9E9, 9E9]];
CONST robtarget p386:= [[26.6,22.897,0.0], [-1, 0, 0, 0],[-1, 0, 1, 0], [ 9E+9,9E+9, 9E9, 9E9, 9E9, 9E9]];
CONST robtarget p387:= [[26.6,21.483,0.0], [-1, 0, 0, 0],[-1, 0, 1, 0], [ 9E+9,9E+9, 9E9, 9E9, 9E9, 9E9]];
CONST robtarget p388:= [[21.383,26.7,0.0], [-1, 0, 0, 0],[-1, 0, 1, 0], [ 9E+9,9E+9, 9E9, 9E9, 9E9, 9E9]];
CONST robtarget p389:= [[19.969,26.7,0.0], [-1, 0, 0, 0],[-1, 0, 1, 0], [ 9E+9,9E+9, 9E9, 9E9, 9E9, 9E9]];
CONST robtarget p390:= [[26.6,20.069,0.0], [-1, 0, 0, 0],[-1, 0, 1, 0], [ 9E+9,9E+9, 9E9, 9E9, 9E9, 9E9]];
CONST robtarget p391:= [[26.6,18.655,0.0], [-1, 0, 0, 0],[-1, 0, 1, 0], [ 9E+9,9E+9, 9E9, 9E9, 9E9, 9E9]];
CONST robtarget p392:= [[18.555,26.7,0.0], [-1, 0, 0, 0],[-1, 0, 1, 0], [ 9E+9,9E+9, 9E9, 9E9, 9E9, 9E9]];
CONST robtarget p393:= [[17.141,26.7,0.0], [-1, 0, 0, 0],[-1, 0, 1, 0], [ 9E+9,9E+9, 9E9, 9E9, 9E9, 9E9]];
CONST robtarget p394:= [[26.6,17.241,0.0], [-1, 0, 0, 0],[-1, 0, 1, 0], [ 9E+9,9E+9, 9E9, 9E9, 9E9, 9E9]];
CONST robtarget p395:= [[26.6,15.826,0.0], [-1, 0, 0, 0],[-1, 0, 1, 0], [ 9E+9,9E+9, 9E9, 9E9, 9E9, 9E9]];
CONST robtarget p396:= [[15.726,26.7,0.0], [-1, 0, 0, 0],[-1, 0, 1, 0], [ 9E+9,9E+9, 9E9, 9E9, 9E9, 9E9]];
CONST robtarget p397:= [[14.312,26.7,0.0], [-1, 0, 0, 0],[-1, 0, 1, 0], [ 9E+9,9E+9, 9E9, 9E9, 9E9, 9E9]];
CONST robtarget p398:= [[26.6,14.412,0.0], [-1, 0, 0, 0],[-1, 0, 1, 0], [ 9E+9,9E+9, 9E9, 9E9, 9E9, 9E9]];
CONST robtarget p399:= [[27.612,13.4,0.0], [-1, 0, 0, 0],[-1, 0, 1, 0], [ 9E+9,9E+9, 9E9, 9E9, 9E9, 9E9]];
CONST robtarget p400:= [[39.9,1.112,0.0], [-1, 0, 0, 0],[-1, 0, 1, 0], [ 9E+9,9E+9, 9E9, 9E9, 9E9, 9E9]];
CONST robtarget p401:= [[39.498,0.1,0.0], [-1, 0, 0, 0],[-1, 0, 1, 0], [ 9E+9,9E+9, 9E9, 9E9, 9E9, 9E9]];
CONST robtarget p402:= [[26.6,12.998,0.0], [-1, 0, 0, 0],[-1, 0, 1, 0], [ 9E+9,9E+9, 9E9, 9E9, 9E9, 9E9]];
CONST robtarget p403:= [[26.6,11.584,0.0], [-1, 0, 0, 0],[-1, 0, 1, 0], [ 9E+9,9E+9, 9E9, 9E9, 9E9, 9E9]];
CONST robtarget p404:= [[38.084,0.1,0.0], [-1, 0, 0, 0],[-1, 0, 1, 0], [ 9E+9,9E+9, 9E9, 9E9, 9E9, 9E9]];
CONST robtarget p405:= [[36.67,0.1,0.0], [-1, 0, 0, 0],[-1, 0, 1, 0], [ 9E+9,9E+9, 9E9, 9E9, 9E9, 9E9]];
CONST robtarget p406:= [[26.6,10.17,0.0], [-1, 0, 0, 0],[-1, 0, 1, 0], [ 9E+9,9E+9, 9E9, 9E9, 9E9, 9E9]];
CONST robtarget p407:= [[26.6,8.755,0.0], [-1, 0, 0, 0],[-1, 0, 1, 0], [ 9E+9,9E+9, 9E9, 9E9, 9E9, 9E9]];
CONST robtarget p408:= [[35.255,0.1,0.0], [-1, 0, 0, 0],[-1, 0, 1, 0], [ 9E+9,9E+9, 9E9, 9E9, 9E9, 9E9]];
CONST robtarget p409:= [[33.841,0.1,0.0], [-1, 0, 0, 0],[-1, 0, 1, 0], [ 9E+9,9E+9, 9E9, 9E9, 9E9, 9E9]];
CONST robtarget p410:= [[26.6,7.341,0.0], [-1, 0, 0, 0],[-1, 0, 1, 0], [ 9E+9,9E+9, 9E9, 9E9, 9E9, 9E9]];
CONST robtarget p411:= [[26.6,5.927,0.0], [-1, 0, 0, 0],[-1, 0, 1, 0], [ 9E+9,9E+9, 9E9, 9E9, 9E9, 9E9]];
CONST robtarget p412:= [[32.427,0.1,0.0], [-1, 0, 0, 0],[-1, 0, 1, 0], [ 9E+9,9E+9, 9E9, 9E9, 9E9, 9E9]];
CONST robtarget p413:= [[31.013,0.1,0.0], [-1, 0, 0, 0],[-1, 0, 1, 0], [ 9E+9,9E+9, 9E9, 9E9, 9E9, 9E9]];
CONST robtarget p414:= [[26.6,4.513,0.0], [-1, 0, 0, 0],[-1, 0, 1, 0], [ 9E+9,9E+9, 9E9, 9E9, 9E9, 9E9]];
CONST robtarget p415:= [[26.6,3.098,0.0], [-1, 0, 0, 0],[-1, 0, 1, 0], [ 9E+9,9E+9, 9E9, 9E9, 9E9, 9E9]];
CONST robtarget p416:= [[29.598,0.1,0.0], [-1, 0, 0, 0],[-1, 0, 1, 0], [ 9E+9,9E+9, 9E9, 9E9, 9E9, 9E9]];
CONST robtarget p417:= [[28.184,0.1,0.0], [-1, 0, 0, 0],[-1, 0, 1, 0], [ 9E+9,9E+9, 9E9, 9E9, 9E9, 9E9]];
CONST robtarget p418:= [[26.6,1.684,0.0], [-1, 0, 0, 0],[-1, 0, 1, 0], [ 9E+9,9E+9, 9E9, 9E9, 9E9, 9E9]];
CONST robtarget p419:= [[26.6,0.27,0.0], [-1, 0, 0, 0],[-1, 0, 1, 0], [ 9E+9,9E+9, 9E9, 9E9, 9E9, 9E9]];
CONST robtarget p420:= [[26.77,0.1,0.0], [-1, 0, 0, 0],[-1, 0, 1, 0], [ 9E+9,9E+9, 9E9, 9E9, 9E9, 9E9]];
CONST robtarget p421:= [[39.9,2.526,0.0], [-1, 0, 0, 0],[-1, 0, 1, 0], [ 9E+9,9E+9, 9E9, 9E9, 9E9, 9E9]];
CONST robtarget p422:= [[29.026,13.4,0.0], [-1, 0, 0, 0],[-1, 0, 1, 0], [ 9E+9,9E+9, 9E9, 9E9, 9E9, 9E9]];
CONST robtarget p423:= [[30.441,13.4,0.0], [-1, 0, 0, 0],[-1, 0, 1, 0], [ 9E+9,9E+9, 9E9, 9E9, 9E9, 9E9]];
CONST robtarget p424:= [[39.9,3.941,0.0], [-1, 0, 0, 0],[-1, 0, 1, 0], [ 9E+9,9E+9, 9E9, 9E9, 9E9, 9E9]];
CONST robtarget p425:= [[39.9,5.355,0.0], [-1, 0, 0, 0],[-1, 0, 1, 0], [ 9E+9,9E+9, 9E9, 9E9, 9E9, 9E9]];
CONST robtarget p426:= [[31.855,13.4,0.0], [-1, 0, 0, 0],[-1, 0, 1, 0], [ 9E+9,9E+9, 9E9, 9E9, 9E9, 9E9]];
CONST robtarget p427:= [[33.269,13.4,0.0], [-1, 0, 0, 0],[-1, 0, 1, 0], [ 9E+9,9E+9, 9E9, 9E9, 9E9, 9E9]];
CONST robtarget p428:= [[39.9,6.769,0.0], [-1, 0, 0, 0],[-1, 0, 1, 0], [ 9E+9,9E+9, 9E9, 9E9, 9E9, 9E9]];
CONST robtarget p429:= [[39.9,8.183,0.0], [-1, 0, 0, 0],[-1, 0, 1, 0], [ 9E+9,9E+9, 9E9, 9E9, 9E9, 9E9]];
CONST robtarget p430:= [[34.683,13.4,0.0], [-1, 0, 0, 0],[-1, 0, 1, 0], [ 9E+9,9E+9, 9E9, 9E9, 9E9, 9E9]];
CONST robtarget p431:= [[36.097,13.4,0.0], [-1, 0, 0, 0],[-1, 0, 1, 0], [ 9E+9,9E+9, 9E9, 9E9, 9E9, 9E9]];
CONST robtarget p432:= [[39.9,9.597,0.0], [-1, 0, 0, 0],[-1, 0, 1, 0], [ 9E+9,9E+9, 9E9, 9E9, 9E9, 9E9]];
CONST robtarget p433:= [[39.9,11.012,0.0], [-1, 0, 0, 0],[-1, 0, 1, 0], [ 9E+9,9E+9, 9E9, 9E9, 9E9, 9E9]];
CONST robtarget p434:= [[37.512,13.4,0.0], [-1, 0, 0, 0],[-1, 0, 1, 0], [ 9E+9,9E+9, 9E9, 9E9, 9E9, 9E9]];
CONST robtarget p435:= [[38.926,13.4,0.0], [-1, 0, 0, 0],[-1, 0, 1, 0], [ 9E+9,9E+9, 9E9, 9E9, 9E9, 9E9]];
CONST robtarget p436:= [[39.9,12.426,0.0], [-1, 0, 0, 0],[-1, 0, 1, 0], [ 9E+9,9E+9, 9E9, 9E9, 9E9, 9E9]];
CONST robtarget p437:= [[40.34,13.4,0.0], [-1, 0, 0, 0],[-1, 0, 1, 0], [ 9E+9,9E+9, 9E9, 9E9, 9E9, 9E9]];
CONST robtarget p438:= [[39.9,13.84,0.0], [-1, 0, 0, 0],[-1, 0, 1, 0], [ 9E+9,9E+9, 9E9, 9E9, 9E9, 9E9]];
CONST robtarget p439:= [[39.9,15.254,0.0], [-1, 0, 0, 0],[-1, 0, 1, 0], [ 9E+9,9E+9, 9E9, 9E9, 9E9, 9E9]];
CONST robtarget p440:= [[41.754,13.4,0.0], [-1, 0, 0, 0],[-1, 0, 1, 0], [ 9E+9,9E+9, 9E9, 9E9, 9E9, 9E9]];
CONST robtarget p441:= [[43.169,13.4,0.0], [-1, 0, 0, 0],[-1, 0, 1, 0], [ 9E+9,9E+9, 9E9, 9E9, 9E9, 9E9]];
CONST robtarget p442:= [[39.9,16.669,0.0], [-1, 0, 0, 0],[-1, 0, 1, 0], [ 9E+9,9E+9, 9E9, 9E9, 9E9, 9E9]];
CONST robtarget p443:= [[39.9,18.083,0.0], [-1, 0, 0, 0],[-1, 0, 1, 0], [ 9E+9,9E+9, 9E9, 9E9, 9E9, 9E9]];
CONST robtarget p444:= [[44.583,13.4,0.0], [-1, 0, 0, 0],[-1, 0, 1, 0], [ 9E+9,9E+9, 9E9, 9E9, 9E9, 9E9]];
CONST robtarget p445:= [[45.997,13.4,0.0], [-1, 0, 0, 0],[-1, 0, 1, 0], [ 9E+9,9E+9, 9E9, 9E9, 9E9, 9E9]];
CONST robtarget p446:= [[39.9,19.497,0.0], [-1, 0, 0, 0],[-1, 0, 1, 0], [ 9E+9,9E+9, 9E9, 9E9, 9E9, 9E9]];
CONST robtarget p447:= [[39.9,20.911,0.0], [-1, 0, 0, 0],[-1, 0, 1, 0], [ 9E+9,9E+9, 9E9, 9E9, 9E9, 9E9]];
CONST robtarget p448:= [[47.411,13.4,0.0], [-1, 0, 0, 0],[-1, 0, 1, 0], [ 9E+9,9E+9, 9E9, 9E9, 9E9, 9E9]];
CONST robtarget p449:= [[48.825,13.4,0.0], [-1, 0, 0, 0],[-1, 0, 1, 0], [ 9E+9,9E+9, 9E9, 9E9, 9E9, 9E9]];
CONST robtarget p450:= [[39.9,22.325,0.0], [-1, 0, 0, 0],[-1, 0, 1, 0], [ 9E+9,9E+9, 9E9, 9E9, 9E9, 9E9]];
CONST robtarget p451:= [[39.9,23.74,0.0], [-1, 0, 0, 0],[-1, 0, 1, 0], [ 9E+9,9E+9, 9E9, 9E9, 9E9, 9E9]];
CONST robtarget p452:= [[50.24,13.4,0.0], [-1, 0, 0, 0],[-1, 0, 1, 0], [ 9E+9,9E+9, 9E9, 9E9, 9E9, 9E9]];
CONST robtarget p453:= [[51.654,13.4,0.0], [-1, 0, 0, 0],[-1, 0, 1, 0], [ 9E+9,9E+9, 9E9, 9E9, 9E9, 9E9]];
CONST robtarget p454:= [[39.9,25.154,0.0], [-1, 0, 0, 0],[-1, 0, 1, 0], [ 9E+9,9E+9, 9E9, 9E9, 9E9, 9E9]];
CONST robtarget p455:= [[53.2,10.44,0.0], [-1, 0, 0, 0],[-1, 0, 1, 0], [ 9E+9,9E+9, 9E9, 9E9, 9E9, 9E9]];
CONST robtarget p456:= [[63.549,0.091,0.0], [-1, 0, 0, 0],[-1, 0, 1, 0], [ 9E+9,9E+9, 9E9, 9E9, 9E9, 9E9]];
CONST robtarget p457:= [[64.957,0.097,0.0], [-1, 0, 0, 0],[-1, 0, 1, 0], [ 9E+9,9E+9, 9E9, 9E9, 9E9, 9E9]];
CONST robtarget p458:= [[53.2,11.854,0.0], [-1, 0, 0, 0],[-1, 0, 1, 0], [ 9E+9,9E+9, 9E9, 9E9, 9E9, 9E9]];
CONST robtarget p459:= [[53.2,7.611,0.0], [-1, 0, 0, 0],[-1, 0, 1, 0], [ 9E+9,9E+9, 9E9, 9E9, 9E9, 9E9]];
CONST robtarget p460:= [[60.731,0.08,0.0], [-1, 0, 0, 0],[-1, 0, 1, 0], [ 9E+9,9E+9, 9E9, 9E9, 9E9, 9E9]];
CONST robtarget p461:= [[59.323,0.074,0.0], [-1, 0, 0, 0],[-1, 0, 1, 0], [ 9E+9,9E+9, 9E9, 9E9, 9E9, 9E9]];
CONST robtarget p462:= [[53.2,6.197,0.0], [-1, 0, 0, 0],[-1, 0, 1, 0], [ 9E+9,9E+9, 9E9, 9E9, 9E9, 9E9]];
CONST robtarget p463:= [[53.2,4.783,0.0], [-1, 0, 0, 0],[-1, 0, 1, 0], [ 9E+9,9E+9, 9E9, 9E9, 9E9, 9E9]];
CONST robtarget p464:= [[57.914,0.069,0.0], [-1, 0, 0, 0],[-1, 0, 1, 0], [ 9E+9,9E+9, 9E9, 9E9, 9E9, 9E9]];
CONST robtarget p465:= [[56.506,0.063,0.0], [-1, 0, 0, 0],[-1, 0, 1, 0], [ 9E+9,9E+9, 9E9, 9E9, 9E9, 9E9]];
CONST robtarget p466:= [[53.2,3.369,0.0], [-1, 0, 0, 0],[-1, 0, 1, 0], [ 9E+9,9E+9, 9E9, 9E9, 9E9, 9E9]];
CONST robtarget p467:= [[53.2,1.954,0.0], [-1, 0, 0, 0],[-1, 0, 1, 0], [ 9E+9,9E+9, 9E9, 9E9, 9E9, 9E9]];
CONST robtarget p468:= [[55.097,0.057,0.0], [-1, 0, 0, 0],[-1, 0, 1, 0], [ 9E+9,9E+9, 9E9, 9E9, 9E9, 9E9]];
CONST robtarget p469:= [[53.689,0.052,0.0], [-1, 0, 0, 0],[-1, 0, 1, 0], [ 9E+9,9E+9, 9E9, 9E9, 9E9, 9E9]];
CONST robtarget p470:= [[53.2,0.54,0.0], [-1, 0, 0, 0],[-1, 0, 1, 0], [ 9E+9,9E+9, 9E9, 9E9, 9E9, 9E9]];
CONST robtarget p471:= [[62.14,0.085,0.0], [-1, 0, 0, 0],[-1, 0, 1, 0], [ 9E+9,9E+9, 9E9, 9E9, 9E9, 9E9]];
CONST robtarget p472:= [[53.2,9.025,0.0], [-1, 0, 0, 0],[-1, 0, 1, 0], [ 9E+9,9E+9, 9E9, 9E9, 9E9, 9E9]];
CONST robtarget p473:= [[39.9,52.024,0.0], [-1, 0, 0, 0],[-1, 0, 1, 0], [ 9E+9,9E+9, 9E9, 9E9, 9E9, 9E9]];
CONST robtarget p474:= [[51.924,40.0,0.0], [-1, 0, 0, 0],[-1, 0, 1, 0], [ 9E+9,9E+9, 9E9, 9E9, 9E9, 9E9]];
CONST robtarget p475:= [[10.07,26.7,0.0], [-1, 0, 0, 0],[-1, 0, 1, 0], [ 9E+9,9E+9, 9E9, 9E9, 9E9, 9E9]];
CONST robtarget p476:= [[0.0,36.77,0.0], [-1, 0, 0, 0],[-1, 0, 1, 0], [ 9E+9,9E+9, 9E9, 9E9, 9E9, 9E9]];
CONST robtarget p477:= [[0.0,38.184,0.0], [-1, 0, 0, 0],[-1, 0, 1, 0], [ 9E+9,9E+9, 9E9, 9E9, 9E9, 9E9]];
CONST robtarget p478:= [[11.484,26.7,0.0], [-1, 0, 0, 0],[-1, 0, 1, 0], [ 9E+9,9E+9, 9E9, 9E9, 9E9, 9E9]];
CONST robtarget p479:= [[7.241,26.7,0.0], [-1, 0, 0, 0],[-1, 0, 1, 0], [ 9E+9,9E+9, 9E9, 9E9, 9E9, 9E9]];
CONST robtarget p480:= [[0.0,33.941,0.0], [-1, 0, 0, 0],[-1, 0, 1, 0], [ 9E+9,9E+9, 9E9, 9E9, 9E9, 9E9]];
CONST robtarget p481:= [[0.0,35.355,0.0], [-1, 0, 0, 0],[-1, 0, 1, 0], [ 9E+9,9E+9, 9E9, 9E9, 9E9, 9E9]];
CONST robtarget p482:= [[8.655,26.7,0.0], [-1, 0, 0, 0],[-1, 0, 1, 0], [ 9E+9,9E+9, 9E9, 9E9, 9E9, 9E9]];
CONST robtarget p483:= [[4.413,26.7,0.0], [-1, 0, 0, 0],[-1, 0, 1, 0], [ 9E+9,9E+9, 9E9, 9E9, 9E9, 9E9]];
CONST robtarget p484:= [[0.0,31.113,0.0], [-1, 0, 0, 0],[-1, 0, 1, 0], [ 9E+9,9E+9, 9E9, 9E9, 9E9, 9E9]];
CONST robtarget p485:= [[0.0,29.698,0.0], [-1, 0, 0, 0],[-1, 0, 1, 0], [ 9E+9,9E+9, 9E9, 9E9, 9E9, 9E9]];
CONST robtarget p486:= [[2.998,26.7,0.0], [-1, 0, 0, 0],[-1, 0, 1, 0], [ 9E+9,9E+9, 9E9, 9E9, 9E9, 9E9]];
CONST robtarget p487:= [[1.584,26.7,0.0], [-1, 0, 0, 0],[-1, 0, 1, 0], [ 9E+9,9E+9, 9E9, 9E9, 9E9, 9E9]];
CONST robtarget p488:= [[0.0,28.284,0.0], [-1, 0, 0, 0],[-1, 0, 1, 0], [ 9E+9,9E+9, 9E9, 9E9, 9E9, 9E9]];
CONST robtarget p489:= [[0.0,26.87,0.0], [-1, 0, 0, 0],[-1, 0, 1, 0], [ 9E+9,9E+9, 9E9, 9E9, 9E9, 9E9]];
CONST robtarget p490:= [[0.17,26.7,0.0], [-1, 0, 0, 0],[-1, 0, 1, 0], [ 9E+9,9E+9, 9E9, 9E9, 9E9, 9E9]];
CONST robtarget p491:= [[0.0,32.527,0.0], [-1, 0, 0, 0],[-1, 0, 1, 0], [ 9E+9,9E+9, 9E9, 9E9, 9E9, 9E9]];
CONST robtarget p492:= [[5.827,26.7,0.0], [-1, 0, 0, 0],[-1, 0, 1, 0], [ 9E+9,9E+9, 9E9, 9E9, 9E9, 9E9]];
CONST robtarget p493:= [[13.227,0.107,0.0], [-1, 0, 0, 0],[-1, 0, 1, 0], [ 9E+9,9E+9, 9E9, 9E9, 9E9, 9E9]];
CONST robtarget p494:= [[13.15,0.05,0.0], [-1, 0, 0, 0],[-1, 0, 1, 0], [ 9E+9,9E+9, 9E9, 9E9, 9E9, 9E9]];
CONST robtarget p495:= [[6.575,0.076,0.0], [-1, 0, 0, 0],[-1, 0, 1, 0], [ 9E+9,9E+9, 9E9, 9E9, 9E9, 9E9]];
CONST robtarget p496:= [[0.0,0.101,0.0], [-1, 0, 0, 0],[-1, 0, 1, 0], [ 9E+9,9E+9, 9E9, 9E9, 9E9, 9E9]];
CONST robtarget p497:= [[0.0,6.751,0.0], [-1, 0, 0, 0],[-1, 0, 1, 0], [ 9E+9,9E+9, 9E9, 9E9, 9E9, 9E9]];
CONST robtarget p498:= [[0.0,13.4,0.0], [-1, 0, 0, 0],[-1, 0, 1, 0], [ 9E+9,9E+9, 9E9, 9E9, 9E9, 9E9]];
CONST robtarget p499:= [[6.65,13.4,0.0], [-1, 0, 0, 0],[-1, 0, 1, 0], [ 9E+9,9E+9, 9E9, 9E9, 9E9, 9E9]];
CONST robtarget p500:= [[13.3,13.4,0.0], [-1, 0, 0, 0],[-1, 0, 1, 0], [ 9E+9,9E+9, 9E9, 9E9, 9E9, 9E9]];
CONST robtarget p501:= [[13.3,20.05,0.0], [-1, 0, 0, 0],[-1, 0, 1, 0], [ 9E+9,9E+9, 9E9, 9E9, 9E9, 9E9]];
CONST robtarget p502:= [[13.3,26.7,0.0], [-1, 0, 0, 0],[-1, 0, 1, 0], [ 9E+9,9E+9, 9E9, 9E9, 9E9, 9E9]];
CONST robtarget p503:= [[6.65,26.7,0.0], [-1, 0, 0, 0],[-1, 0, 1, 0], [ 9E+9,9E+9, 9E9, 9E9, 9E9, 9E9]];
CONST robtarget p504:= [[0.0,26.7,0.0], [-1, 0, 0, 0],[-1, 0, 1, 0], [ 9E+9,9E+9, 9E9, 9E9, 9E9, 9E9]];
CONST robtarget p505:= [[0.0,33.35,0.0], [-1, 0, 0, 0],[-1, 0, 1, 0], [ 9E+9,9E+9, 9E9, 9E9, 9E9, 9E9]];
CONST robtarget p506:= [[0.0,40.0,0.0], [-1, 0, 0, 0],[-1, 0, 1, 0], [ 9E+9,9E+9, 9E9, 9E9, 9E9, 9E9]];
CONST robtarget p507:= [[6.65,40.0,0.0], [-1, 0, 0, 0],[-1, 0, 1, 0], [ 9E+9,9E+9, 9E9, 9E9, 9E9, 9E9]];
CONST robtarget p508:= [[13.3,40.0,0.0], [-1, 0, 0, 0],[-1, 0, 1, 0], [ 9E+9,9E+9, 9E9, 9E9, 9E9, 9E9]];
CONST robtarget p509:= [[13.3,46.65,0.0], [-1, 0, 0, 0],[-1, 0, 1, 0], [ 9E+9,9E+9, 9E9, 9E9, 9E9, 9E9]];
CONST robtarget p510:= [[13.3,53.3,0.0], [-1, 0, 0, 0],[-1, 0, 1, 0], [ 9E+9,9E+9, 9E9, 9E9, 9E9, 9E9]];
CONST robtarget p511:= [[6.65,53.3,0.0], [-1, 0, 0, 0],[-1, 0, 1, 0], [ 9E+9,9E+9, 9E9, 9E9, 9E9, 9E9]];
CONST robtarget p512:= [[0.0,53.3,0.0], [-1, 0, 0, 0],[-1, 0, 1, 0], [ 9E+9,9E+9, 9E9, 9E9, 9E9, 9E9]];
CONST robtarget p513:= [[0.0,59.95,0.0], [-1, 0, 0, 0],[-1, 0, 1, 0], [ 9E+9,9E+9, 9E9, 9E9, 9E9, 9E9]];
CONST robtarget p514:= [[0.0,66.6,0.0], [-1, 0, 0, 0],[-1, 0, 1, 0], [ 9E+9,9E+9, 9E9, 9E9, 9E9, 9E9]];
CONST robtarget p515:= [[6.65,66.6,0.0], [-1, 0, 0, 0],[-1, 0, 1, 0], [ 9E+9,9E+9, 9E9, 9E9, 9E9, 9E9]];
CONST robtarget p516:= [[13.3,66.6,0.0], [-1, 0, 0, 0],[-1, 0, 1, 0], [ 9E+9,9E+9, 9E9, 9E9, 9E9, 9E9]];
CONST robtarget p517:= [[13.3,59.95,0.0], [-1, 0, 0, 0],[-1, 0, 1, 0], [ 9E+9,9E+9, 9E9, 9E9, 9E9, 9E9]];
CONST robtarget p518:= [[13.3,53.3,0.0], [-1, 0, 0, 0],[-1, 0, 1, 0], [ 9E+9,9E+9, 9E9, 9E9, 9E9, 9E9]];
CONST robtarget p519:= [[19.95,53.3,0.0], [-1, 0, 0, 0],[-1, 0, 1, 0], [ 9E+9,9E+9, 9E9, 9E9, 9E9, 9E9]];
CONST robtarget p520:= [[26.6,53.3,0.0], [-1, 0, 0, 0],[-1, 0, 1, 0], [ 9E+9,9E+9, 9E9, 9E9, 9E9, 9E9]];
CONST robtarget p521:= [[26.6,59.95,0.0], [-1, 0, 0, 0],[-1, 0, 1, 0], [ 9E+9,9E+9, 9E9, 9E9, 9E9, 9E9]];
CONST robtarget p522:= [[26.6,66.6,0.0], [-1, 0, 0, 0],[-1, 0, 1, 0], [ 9E+9,9E+9, 9E9, 9E9, 9E9, 9E9]];
CONST robtarget p523:= [[33.25,66.6,0.0], [-1, 0, 0, 0],[-1, 0, 1, 0], [ 9E+9,9E+9, 9E9, 9E9, 9E9, 9E9]];
CONST robtarget p524:= [[39.9,66.6,0.0], [-1, 0, 0, 0],[-1, 0, 1, 0], [ 9E+9,9E+9, 9E9, 9E9, 9E9, 9E9]];
CONST robtarget p525:= [[39.9,59.95,0.0], [-1, 0, 0, 0],[-1, 0, 1, 0], [ 9E+9,9E+9, 9E9, 9E9, 9E9, 9E9]];
CONST robtarget p526:= [[39.9,53.3,0.0], [-1, 0, 0, 0],[-1, 0, 1, 0], [ 9E+9,9E+9, 9E9, 9E9, 9E9, 9E9]];
CONST robtarget p527:= [[46.55,53.3,0.0], [-1, 0, 0, 0],[-1, 0, 1, 0], [ 9E+9,9E+9, 9E9, 9E9, 9E9, 9E9]];
CONST robtarget p528:= [[53.2,53.3,0.0], [-1, 0, 0, 0],[-1, 0, 1, 0], [ 9E+9,9E+9, 9E9, 9E9, 9E9, 9E9]];
CONST robtarget p529:= [[53.2,59.95,0.0], [-1, 0, 0, 0],[-1, 0, 1, 0], [ 9E+9,9E+9, 9E9, 9E9, 9E9, 9E9]];
CONST robtarget p530:= [[53.2,66.6,0.0], [-1, 0, 0, 0],[-1, 0, 1, 0], [ 9E+9,9E+9, 9E9, 9E9, 9E9, 9E9]];
CONST robtarget p531:= [[59.85,66.6,0.0], [-1, 0, 0, 0],[-1, 0, 1, 0], [ 9E+9,9E+9, 9E9, 9E9, 9E9, 9E9]];
CONST robtarget p532:= [[66.5,66.6,0.0], [-1, 0, 0, 0],[-1, 0, 1, 0], [ 9E+9,9E+9, 9E9, 9E9, 9E9, 9E9]];
CONST robtarget p533:= [[66.5,59.95,0.0], [-1, 0, 0, 0],[-1, 0, 1, 0], [ 9E+9,9E+9, 9E9, 9E9, 9E9, 9E9]];
CONST robtarget p534:= [[66.5,53.3,0.0], [-1, 0, 0, 0],[-1, 0, 1, 0], [ 9E+9,9E+9, 9E9, 9E9, 9E9, 9E9]];
CONST robtarget p535:= [[59.85,53.3,0.0], [-1, 0, 0, 0],[-1, 0, 1, 0], [ 9E+9,9E+9, 9E9, 9E9, 9E9, 9E9]];
CONST robtarget p536:= [[53.2,53.3,0.0], [-1, 0, 0, 0],[-1, 0, 1, 0], [ 9E+9,9E+9, 9E9, 9E9, 9E9, 9E9]];
CONST robtarget p537:= [[53.2,46.65,0.0], [-1, 0, 0, 0],[-1, 0, 1, 0], [ 9E+9,9E+9, 9E9, 9E9, 9E9, 9E9]];
CONST robtarget p538:= [[53.2,40.0,0.0], [-1, 0, 0, 0],[-1, 0, 1, 0], [ 9E+9,9E+9, 9E9, 9E9, 9E9, 9E9]];
CONST robtarget p539:= [[59.85,40.0,0.0], [-1, 0, 0, 0],[-1, 0, 1, 0], [ 9E+9,9E+9, 9E9, 9E9, 9E9, 9E9]];
CONST robtarget p540:= [[66.5,40.0,0.0], [-1, 0, 0, 0],[-1, 0, 1, 0], [ 9E+9,9E+9, 9E9, 9E9, 9E9, 9E9]];
CONST robtarget p541:= [[66.5,33.35,0.0], [-1, 0, 0, 0],[-1, 0, 1, 0], [ 9E+9,9E+9, 9E9, 9E9, 9E9, 9E9]];
CONST robtarget p542:= [[66.5,26.7,0.0], [-1, 0, 0, 0],[-1, 0, 1, 0], [ 9E+9,9E+9, 9E9, 9E9, 9E9, 9E9]];
CONST robtarget p543:= [[59.85,26.7,0.0], [-1, 0, 0, 0],[-1, 0, 1, 0], [ 9E+9,9E+9, 9E9, 9E9, 9E9, 9E9]];
CONST robtarget p544:= [[53.2,26.7,0.0], [-1, 0, 0, 0],[-1, 0, 1, 0], [ 9E+9,9E+9, 9E9, 9E9, 9E9, 9E9]];
CONST robtarget p545:= [[53.2,20.05,0.0], [-1, 0, 0, 0],[-1, 0, 1, 0], [ 9E+9,9E+9, 9E9, 9E9, 9E9, 9E9]];
CONST robtarget p546:= [[53.2,13.4,0.0], [-1, 0, 0, 0],[-1, 0, 1, 0], [ 9E+9,9E+9, 9E9, 9E9, 9E9, 9E9]];
CONST robtarget p547:= [[59.85,13.4,0.0], [-1, 0, 0, 0],[-1, 0, 1, 0], [ 9E+9,9E+9, 9E9, 9E9, 9E9, 9E9]];
CONST robtarget p548:= [[66.5,13.4,0.0], [-1, 0, 0, 0],[-1, 0, 1, 0], [ 9E+9,9E+9, 9E9, 9E9, 9E9, 9E9]];
CONST robtarget p549:= [[66.5,6.751,0.0], [-1, 0, 0, 0],[-1, 0, 1, 0], [ 9E+9,9E+9, 9E9, 9E9, 9E9, 9E9]];
CONST robtarget p550:= [[66.5,0.103,0.0], [-1, 0, 0, 0],[-1, 0, 1, 0], [ 9E+9,9E+9, 9E9, 9E9, 9E9, 9E9]];
CONST robtarget p551:= [[59.892,0.076,0.0], [-1, 0, 0, 0],[-1, 0, 1, 0], [ 9E+9,9E+9, 9E9, 9E9, 9E9, 9E9]];
CONST robtarget p552:= [[53.283,0.05,0.0], [-1, 0, 0, 0],[-1, 0, 1, 0], [ 9E+9,9E+9, 9E9, 9E9, 9E9, 9E9]];
CONST robtarget p553:= [[53.242,0.092,0.0], [-1, 0, 0, 0],[-1, 0, 1, 0], [ 9E+9,9E+9, 9E9, 9E9, 9E9, 9E9]];
CONST robtarget p554:= [[53.2,0.133,0.0], [-1, 0, 0, 0],[-1, 0, 1, 0], [ 9E+9,9E+9, 9E9, 9E9, 9E9, 9E9]];
CONST robtarget p555:= [[53.2,6.767,0.0], [-1, 0, 0, 0],[-1, 0, 1, 0], [ 9E+9,9E+9, 9E9, 9E9, 9E9, 9E9]];
CONST robtarget p556:= [[53.2,13.4,0.0], [-1, 0, 0, 0],[-1, 0, 1, 0], [ 9E+9,9E+9, 9E9, 9E9, 9E9, 9E9]];
CONST robtarget p557:= [[46.55,13.4,0.0], [-1, 0, 0, 0],[-1, 0, 1, 0], [ 9E+9,9E+9, 9E9, 9E9, 9E9, 9E9]];
CONST robtarget p558:= [[39.9,13.4,0.0], [-1, 0, 0, 0],[-1, 0, 1, 0], [ 9E+9,9E+9, 9E9, 9E9, 9E9, 9E9]];
CONST robtarget p559:= [[39.9,6.75,0.0], [-1, 0, 0, 0],[-1, 0, 1, 0], [ 9E+9,9E+9, 9E9, 9E9, 9E9, 9E9]];
CONST robtarget p560:= [[39.9,0.1,0.0], [-1, 0, 0, 0],[-1, 0, 1, 0], [ 9E+9,9E+9, 9E9, 9E9, 9E9, 9E9]];
CONST robtarget p561:= [[33.25,0.1,0.0], [-1, 0, 0, 0],[-1, 0, 1, 0], [ 9E+9,9E+9, 9E9, 9E9, 9E9, 9E9]];
CONST robtarget p562:= [[26.6,0.1,0.0], [-1, 0, 0, 0],[-1, 0, 1, 0], [ 9E+9,9E+9, 9E9, 9E9, 9E9, 9E9]];
CONST robtarget p563:= [[26.6,6.75,0.0], [-1, 0, 0, 0],[-1, 0, 1, 0], [ 9E+9,9E+9, 9E9, 9E9, 9E9, 9E9]];
CONST robtarget p564:= [[26.6,13.4,0.0], [-1, 0, 0, 0],[-1, 0, 1, 0], [ 9E+9,9E+9, 9E9, 9E9, 9E9, 9E9]];
CONST robtarget p565:= [[19.95,13.4,0.0], [-1, 0, 0, 0],[-1, 0, 1, 0], [ 9E+9,9E+9, 9E9, 9E9, 9E9, 9E9]];
CONST robtarget p566:= [[13.299,13.4,0.0], [-1, 0, 0, 0],[-1, 0, 1, 0], [ 9E+9,9E+9, 9E9, 9E9, 9E9, 9E9]];
CONST robtarget p567:= [[13.301,6.782,0.0], [-1, 0, 0, 0],[-1, 0, 1, 0], [ 9E+9,9E+9, 9E9, 9E9, 9E9, 9E9]];
CONST robtarget p568:= [[13.304,0.164,0.0], [-1, 0, 0, 0],[-1, 0, 1, 0], [ 9E+9,9E+9, 9E9, 9E9, 9E9, 9E9]];
CONST robtarget p569:= [[13.227,0.107,0.0], [-1, 0, 0, 0],[-1, 0, 1, 0], [ 9E+9,9E+9, 9E9, 9E9, 9E9, 9E9]];
CONST robtarget p570:= [[33.25,13.4,0.0], [-1, 0, 0, 0],[-1, 0, 1, 0], [ 9E+9,9E+9, 9E9, 9E9, 9E9, 9E9]];
CONST robtarget p571:= [[39.9,13.4,0.0], [-1, 0, 0, 0],[-1, 0, 1, 0], [ 9E+9,9E+9, 9E9, 9E9, 9E9, 9E9]];
CONST robtarget p572:= [[39.9,20.05,0.0], [-1, 0, 0, 0],[-1, 0, 1, 0], [ 9E+9,9E+9, 9E9, 9E9, 9E9, 9E9]];
CONST robtarget p573:= [[39.9,26.7,0.0], [-1, 0, 0, 0],[-1, 0, 1, 0], [ 9E+9,9E+9, 9E9, 9E9, 9E9, 9E9]];
CONST robtarget p574:= [[46.55,26.7,0.0], [-1, 0, 0, 0],[-1, 0, 1, 0], [ 9E+9,9E+9, 9E9, 9E9, 9E9, 9E9]];
CONST robtarget p575:= [[53.2,26.7,0.0], [-1, 0, 0, 0],[-1, 0, 1, 0], [ 9E+9,9E+9, 9E9, 9E9, 9E9, 9E9]];
CONST robtarget p576:= [[53.2,33.35,0.0], [-1, 0, 0, 0],[-1, 0, 1, 0], [ 9E+9,9E+9, 9E9, 9E9, 9E9, 9E9]];
CONST robtarget p577:= [[53.2,40.0,0.0], [-1, 0, 0, 0],[-1, 0, 1, 0], [ 9E+9,9E+9, 9E9, 9E9, 9E9, 9E9]];
CONST robtarget p578:= [[46.55,40.0,0.0], [-1, 0, 0, 0],[-1, 0, 1, 0], [ 9E+9,9E+9, 9E9, 9E9, 9E9, 9E9]];
CONST robtarget p579:= [[39.9,40.0,0.0], [-1, 0, 0, 0],[-1, 0, 1, 0], [ 9E+9,9E+9, 9E9, 9E9, 9E9, 9E9]];
CONST robtarget p580:= [[39.9,46.65,0.0], [-1, 0, 0, 0],[-1, 0, 1, 0], [ 9E+9,9E+9, 9E9, 9E9, 9E9, 9E9]];
CONST robtarget p581:= [[39.9,53.3,0.0], [-1, 0, 0, 0],[-1, 0, 1, 0], [ 9E+9,9E+9, 9E9, 9E9, 9E9, 9E9]];
CONST robtarget p582:= [[33.25,53.3,0.0], [-1, 0, 0, 0],[-1, 0, 1, 0], [ 9E+9,9E+9, 9E9, 9E9, 9E9, 9E9]];
CONST robtarget p583:= [[26.6,53.3,0.0], [-1, 0, 0, 0],[-1, 0, 1, 0], [ 9E+9,9E+9, 9E9, 9E9, 9E9, 9E9]];
CONST robtarget p584:= [[26.6,46.65,0.0], [-1, 0, 0, 0],[-1, 0, 1, 0], [ 9E+9,9E+9, 9E9, 9E9, 9E9, 9E9]];
CONST robtarget p585:= [[26.6,40.0,0.0], [-1, 0, 0, 0],[-1, 0, 1, 0], [ 9E+9,9E+9, 9E9, 9E9, 9E9, 9E9]];
CONST robtarget p586:= [[19.95,40.0,0.0], [-1, 0, 0, 0],[-1, 0, 1, 0], [ 9E+9,9E+9, 9E9, 9E9, 9E9, 9E9]];
CONST robtarget p587:= [[13.3,40.0,0.0], [-1, 0, 0, 0],[-1, 0, 1, 0], [ 9E+9,9E+9, 9E9, 9E9, 9E9, 9E9]];
CONST robtarget p588:= [[13.3,33.35,0.0], [-1, 0, 0, 0],[-1, 0, 1, 0], [ 9E+9,9E+9, 9E9, 9E9, 9E9, 9E9]];
CONST robtarget p589:= [[13.3,26.7,0.0], [-1, 0, 0, 0],[-1, 0, 1, 0], [ 9E+9,9E+9, 9E9, 9E9, 9E9, 9E9]];
CONST robtarget p590:= [[19.95,26.7,0.0], [-1, 0, 0, 0],[-1, 0, 1, 0], [ 9E+9,9E+9, 9E9, 9E9, 9E9, 9E9]];
CONST robtarget p591:= [[26.6,26.7,0.0], [-1, 0, 0, 0],[-1, 0, 1, 0], [ 9E+9,9E+9, 9E9, 9E9, 9E9, 9E9]];
CONST robtarget p592:= [[26.6,20.05,0.0], [-1, 0, 0, 0],[-1, 0, 1, 0], [ 9E+9,9E+9, 9E9, 9E9, 9E9, 9E9]];
CONST robtarget p593:= [[26.6,13.4,0.0], [-1, 0, 0, 0],[-1, 0, 1, 0], [ 9E+9,9E+9, 9E9, 9E9, 9E9, 9E9]];
CONST robtarget p594:= [[33.25,13.4,0.0], [-1, 0, 0, 0],[-1, 0, 1, 0], [ 9E+9,9E+9, 9E9, 9E9, 9E9, 9E9]];
CONST robtarget p595:= [[33.25,26.7,0.0], [-1, 0, 0, 0],[-1, 0, 1, 0], [ 9E+9,9E+9, 9E9, 9E9, 9E9, 9E9]];
CONST robtarget p596:= [[26.6,26.7,0.0], [-1, 0, 0, 0],[-1, 0, 1, 0], [ 9E+9,9E+9, 9E9, 9E9, 9E9, 9E9]];
CONST robtarget p597:= [[26.6,33.35,0.0], [-1, 0, 0, 0],[-1, 0, 1, 0], [ 9E+9,9E+9, 9E9, 9E9, 9E9, 9E9]];
CONST robtarget p598:= [[26.6,40.0,0.0], [-1, 0, 0, 0],[-1, 0, 1, 0], [ 9E+9,9E+9, 9E9, 9E9, 9E9, 9E9]];
CONST robtarget p599:= [[33.25,40.0,0.0], [-1, 0, 0, 0],[-1, 0, 1, 0], [ 9E+9,9E+9, 9E9, 9E9, 9E9, 9E9]];
CONST robtarget p600:= [[39.9,40.0,0.0], [-1, 0, 0, 0],[-1, 0, 1, 0], [ 9E+9,9E+9, 9E9, 9E9, 9E9, 9E9]];
CONST robtarget p601:= [[39.9,33.35,0.0], [-1, 0, 0, 0],[-1, 0, 1, 0], [ 9E+9,9E+9, 9E9, 9E9, 9E9, 9E9]];
CONST robtarget p602:= [[39.9,26.7,0.0], [-1, 0, 0, 0],[-1, 0, 1, 0], [ 9E+9,9E+9, 9E9, 9E9, 9E9, 9E9]];
