;Header Start
;header_t Ype: laser
;tool_head: 20W Laser Module
;machine: Ra Y
;gcode_flavor: grbl
;renderMethod: line
;max_power: 650
;file_total_lines: 45423
;estimated_time(s): 1812.089
;is_rotate: false
;diameter: 0
;max_x(mm): 293.457
;max_ Y(mm): 142.5
;max_z(mm): 0
;max_b(mm): 0
;min_x(mm): -291.543
;min_ Y(mm): -142.4
;min_b(mm): 0
;min_z(mm): 0
;work_speed(mm/minute): 15000
;jog_speed(mm/minute): 15000
;power(%): 65
;work_size_x: 600
;work_size_ Y: 400
;origin: center
M2003
M2004
;Header End
; G-code for laser engraving
; Generated b Y Snapmaker Luban
; G-code START <<<
G90 
G21 
M2000 W1P100
M2000 W2P100
M4 
M9 
M2000 L23P1
G0 F15000
G01 F15000
G01 X-289.643 Y-142.4
G01 X-288.543
G01 X-269.643
G01 X-268.543
G01 X-249.643
G01 X-248.543
G01 X-229.643
G01 X-228.543
G01 X-209.643
G01 X-208.543
G01 X-189.643
G01 X-188.643
G01 X-169.643
G01 X-168.543
G01 X-149.643
G01 X-148.643
G01 X-129.643
G01 X-128.543
G01 X-109.642
G01 X-108.642
G01 X-89.642
G01 X-88.543
G01 X-69.642
G01 X-68.642
G01 X-49.643
G01 X-48.543
G01 X-29.643
G01 X-28.643
G01 X-9.643
G01 X-8.543
G01 X10.357
G01 X11.357
G01 X30.356
G01 X31.457
G01 X50.357
G01 X51.357
G01 X70.357
G01 X71.457
G01 X90.357
G01 X91.357
G01 X110.357
G01 X111.357
G01 X130.357
G01 X131.357
G01 X150.357
G01 X151.357
G01 X170.357
G01 X171.357
G01 X190.357
G01 X191.357
G01 X210.357
G01 X211.357
G01 X230.357
G01 X231.357
G01 X250.357
G01 X251.357
G01 X270.356
G01 X271.356
G01 X290.356
G01 X291.356
G01 X291.757 Y-142.3
G01 X290.057
G01 X271.856
G01 X270.057
G01 X251.757
G01 X250.057
G01 X231.857
G01 X230.057
G01 X211.857
G01 X210.057
G01 X191.857
G01 X190.057
G01 X171.857
G01 X170.057
G01 X151.857
G01 X150.057
G01 X131.857
G01 X130.057
G01 X111.857
G01 X110.056
G01 X91.857
G01 X90.056
G01 X71.857
G01 X70.056
G01 X51.857
G01 X50.057
G01 X31.856
G01 X30.057
G01 X11.857
G01 X10.057
G01 X-8.143
G01 X-9.943
G01 X-28.143
G01 X-29.942
G01 X-48.143
G01 X-49.943
G01 X-68.142
G01 X-69.943
G01 X-88.142
G01 X-89.943
G01 X-108.142
G01 X-109.943
G01 X-128.143
G01 X-129.943
G01 X-148.143
G01 X-149.943
G01 X-168.143
G01 X-169.943
G01 X-188.143
G01 X-189.943
G01 X-208.143
G01 X-209.943
G01 X-228.143
G01 X-229.943
G01 X-248.143
G01 X-249.943
G01 X-268.143
G01 X-269.942
G01 X-288.143
G01 X-289.942
G01 X-290.143 Y-142.199
G01 X-287.942
G01 X-270.143
G01 X-268.043
G01 X-250.143
G01 X-248.043
G01 X-230.143
G01 X-227.943
G01 X-210.143
G01 X-208.043
G01 X-190.143
G01 X-188.043
G01 X-170.143
G01 X-168.043
G01 X-150.143
G01 X-148.043
G01 X-130.143
G01 X-128.043
G01 X-110.142
G01 X-108.043
G01 X-90.142
G01 X-88.043
G01 X-70.142
G01 X-68.043
G01 X-50.143
G01 X-48.043
G01 X-30.143
G01 X-28.043
G01 X-10.242
G01 X-8.043
G01 X9.757
G01 X11.957
G01 X29.856
G01 X31.957
G01 X49.857
G01 X51.957
G01 X69.757
G01 X71.957
G01 X89.757
G01 X91.957
G01 X109.757
G01 X111.957
G01 X129.757
G01 X131.957
G01 X149.757
G01 X151.957
G01 X169.757
G01 X171.957
G01 X189.757
G01 X191.957
G01 X209.757
G01 X211.957
G01 X229.757
G01 X231.957
G01 X249.757
G01 X251.957
G01 X269.757
G01 X271.957
G01 X289.757
G01 X291.957
G01 X292.157 Y-142.1
G01 X289.657
G01 X272.157
G01 X269.657
G01 X252.156
G01 X249.656
G01 X232.156
G01 X229.656
G01 X212.156
G01 X209.656
G01 X192.156
G01 X189.656
G01 X172.156
G01 X169.656
G01 X152.156
G01 X149.656
G01 X132.156
G01 X129.656
G01 X112.157
G01 X109.657
G01 X92.157
G01 X89.657
G01 X72.157
G01 X69.657
G01 X52.157
G01 X49.657
G01 X32.157
G01 X29.657
G01 X12.156
G01 X9.656
G01 X-7.843
G01 X-10.343
G01 X-27.843
G01 X-30.343
G01 X-47.842
G01 X-50.342
G01 X-67.843
G01 X-70.343
G01 X-87.843
G01 X-90.343
G01 X-107.843
G01 X-110.343
G01 X-127.742
G01 X-130.343
G01 X-147.742
G01 X-150.343
G01 X-167.742
G01 X-170.343
G01 X-187.742
G01 X-190.343
G01 X-207.742
G01 X-210.343
G01 X-227.742
G01 X-230.343
G01 X-247.742
G01 X-250.343
G01 X-267.743
G01 X-270.343
G01 X-287.743
G01 X-290.343
G01 X-290.442 Y-142
G01 X-287.643
G01 X-270.442
G01 X-267.643
G01 X-250.543
G01 X-247.643
G01 X-230.543
G01 X-227.643
G01 X-210.543
G01 X-207.643
G01 X-190.543
G01 X-187.643
G01 X-170.543
G01 X-167.643
G01 X-150.543
G01 X-147.643
G01 X-130.543
G01 X-127.643
G01 X-110.543
G01 X-107.642
G01 X-90.543
G01 X-87.642
G01 X-70.543
G01 X-67.642
G01 X-50.543
G01 X-47.643
G01 X-30.543
G01 X-27.643
G01 X-10.543
G01 X-7.643
G01 X9.457
G01 X12.357
G01 X29.457
G01 X32.356
G01 X49.457
G01 X52.357
G01 X69.457
G01 X72.357
G01 X89.457
G01 X92.357
G01 X109.457
G01 X112.357
G01 X129.457
G01 X132.357
G01 X149.457
G01 X152.357
G01 X169.457
G01 X172.357
G01 X189.457
G01 X192.357
G01 X209.457
G01 X212.357
G01 X229.457
G01 X232.357
G01 X249.457
G01 X252.357
G01 X269.457
G01 X272.356
G01 X289.457
G01 X292.356
G01 X292.457 Y-141.9
G01 X289.356
G01 X272.457
G01 X269.356
G01 X252.457
G01 X249.357
G01 X232.457
G01 X229.357
G01 X212.457
G01 X209.357
G01 X192.557
G01 X189.357
G01 X172.457
G01 X169.357
G01 X152.457
G01 X149.357
G01 X132.457
G01 X129.357
G01 X112.457
G01 X109.357
G01 X92.457
G01 X89.357
G01 X72.457
G01 X69.357
G01 X52.557
G01 X49.357
G01 X32.557
G01 X29.356
G01 X12.557
G01 X9.357
G01 X-7.543
G01 X-10.643
G01 X-27.543
G01 X-30.643
G01 X-47.443
G01 X-50.643
G01 X-67.543
G01 X-70.642
G01 X-87.443
G01 X-90.642
G01 X-107.443
G01 X-110.642
G01 X-127.443
G01 X-130.643
G01 X-147.443
G01 X-150.643
G01 X-167.443
G01 X-170.643
G01 X-187.443
G01 X-190.643
G01 X-207.443
G01 X-210.643
G01 X-227.543
G01 X-230.643
G01 X-247.443
G01 X-250.643
G01 X-267.442
G01 X-270.643
G01 X-287.543
G01 X-290.643
G01 X-290.743 Y-141.8
G01 X-287.343
G01 X-270.743
G01 X-267.343
G01 X-250.742
G01 X-247.443
G01 X-230.742
G01 X-227.343
G01 X-210.742
G01 X-207.443
G01 X-190.742
G01 X-187.443
G01 X-170.742
G01 X-167.443
G01 X-150.742
G01 X-147.443
G01 X-130.742
G01 X-127.443
G01 X-110.743
G01 X-107.443
G01 X-90.743
G01 X-87.443
G01 X-70.743
G01 X-67.343
G01 X-50.743
G01 X-47.443
G01 X-30.743
G01 X-27.343
G01 X-10.742
G01 X-7.443
G01 X9.257
G01 X12.557
G01 X29.257
G01 X32.557
G01 X49.157
G01 X52.557
G01 X69.157
G01 X72.556
G01 X89.157
G01 X92.556
G01 X109.157
G01 X112.556
G01 X129.156
G01 X132.557
G01 X149.156
G01 X152.656
G01 X169.156
G01 X172.557
G01 X189.156
G01 X192.557
G01 X209.156
G01 X212.557
G01 X229.156
G01 X232.557
G01 X249.156
G01 X252.557
G01 X269.157
G01 X272.557
G01 X289.257
G01 X292.557
G01 X292.657 Y-141.699
G01 X289.057
G01 X272.657
G01 X269.157
G01 X252.656
G01 X249.156
G01 X232.656
G01 X229.156
G01 X212.757
G01 X209.156
G01 X192.656
G01 X189.156
G01 X172.757
G01 X169.156
G01 X152.656
G01 X149.156
G01 X132.757
G01 X129.156
G01 X112.757
G01 X109.157
G01 X92.757
G01 X89.157
G01 X72.757
G01 X69.157
G01 X52.756
G01 X49.157
G01 X32.757
G01 X29.157
G01 X12.757
G01 X9.156
G01 X-7.242
G01 X-10.843
G01 X-27.343
G01 X-30.843
G01 X-47.243
G01 X-50.842
G01 X-67.343
G01 X-70.843
G01 X-87.243
G01 X-90.843
G01 X-107.243
G01 X-110.843
G01 X-127.242
G01 X-130.843
G01 X-147.242
G01 X-150.843
G01 X-167.242
G01 X-170.843
G01 X-187.242
G01 X-190.843
G01 X-207.242
G01 X-210.843
G01 X-227.242
G01 X-230.843
G01 X-247.242
G01 X-250.843
G01 X-267.243
G01 X-270.843
G01 X-287.243
G01 X-290.843
G01 X-290.942 Y-141.6
G01 X-287.243
G01 X-270.942
G01 X-267.243
G01 X-250.943
G01 X-247.143
G01 X-230.943
G01 X-227.242
G01 X-210.943
G01 X-207.143
G01 X-190.943
G01 X-187.242
G01 X-170.943
G01 X-167.143
G01 X-150.943
G01 X-147.242
G01 X-130.943
G01 X-127.242
G01 X-110.943
G01 X-107.243
G01 X-90.943
G01 X-87.243
G01 X-70.943
G01 X-67.142
G01 X-50.943
G01 X-47.243
G01 X-30.942
G01 X-27.143
G01 X-10.943
G01 X-7.242
G01 X9.057
G01 X12.757
G01 X29.057
G01 X32.757
G01 X49.057
G01 X52.756
G01 X69.056
G01 X72.757
G01 X89.056
G01 X92.757
G01 X109.056
G01 X112.757
G01 X129.057
G01 X132.757
G01 X149.057
G01 X152.757
G01 X169.057
G01 X172.757
G01 X189.057
G01 X192.757
G01 X209.057
G01 X212.757
G01 X228.957
G01 X232.757
G01 X249.057
G01 X252.757
G01 X268.957
G01 X272.757
G01 X289.057
G01 X292.757
G01 X292.856 Y-141.5
G01 X288.957
G01 X272.856
G01 X268.957
G01 X252.857
G01 X248.957
G01 X232.857
G01 X228.957
G01 X212.857
G01 X208.957
G01 X192.857
G01 X188.957
G01 X172.857
G01 X168.957
G01 X152.857
G01 X148.957
G01 X132.857
G01 X128.957
G01 X112.857
G01 X108.957
G01 X92.857
G01 X88.957
G01 X72.857
G01 X68.957
G01 X52.857
G01 X48.957
G01 X32.856
G01 X28.957
G01 X12.857
G01 X8.957
G01 X-7.143
G01 X-11.043
G01 X-27.143
G01 X-31.043
G01 X-47.143
G01 X-51.043
G01 X-67.142
G01 X-71.043
G01 X-87.142
G01 X-91.043
G01 X-107.043
G01 X-111.043
G01 X-127.143
G01 X-131.043
G01 X-147.043
G01 X-151.043
G01 X-167.143
G01 X-171.043
G01 X-187.043
G01 X-191.043
G01 X-207.143
G01 X-211.043
G01 X-227.043
G01 X-231.043
G01 X-247.143
G01 X-251.043
G01 X-267.043
G01 X-271.043
G01 X-287.043
G01 X-291.043
G01 X-291.143 Y-141.4
G01 X-287.043
G01 X-271.143
G01 X-267.043
G01 X-251.143
G01 X-247.043
G01 X-231.143
G01 X-227.043
G01 X-211.143
G01 X-207.043
G01 X-191.143
G01 X-187.043
G01 X-171.143
G01 X-167.043
G01 X-151.143
G01 X-147.043
G01 X-131.143
G01 X-127.043
G01 X-111.142
G01 X-107.043
G01 X-91.142
G01 X-87.043
G01 X-71.142
G01 X-67.043
G01 X-51.143
G01 X-47.043
G01 X-31.143
G01 X-27.043
G01 X-11.143
G01 X-7.043
G01 X8.857
G01 X12.957
G01 X28.856
G01 X32.957
G01 X48.857
G01 X52.957
G01 X68.857
G01 X72.957
G01 X88.857
G01 X92.957
G01 X108.857
G01 X112.957
G01 X128.857
G01 X132.957
G01 X148.857
G01 X152.957
G01 X168.857
G01 X172.957
G01 X188.857
G01 X192.957
G01 X208.857
G01 X212.957
G01 X228.857
G01 X232.957
G01 X248.857
G01 X252.957
G01 X268.856
G01 X272.957
G01 X288.856
G01 X292.957
G01  Y-141.3
G01 X288.757
G01 X272.957
G01 X268.757
G01 X252.957
G01 X248.757
G01 X233.057
G01 X228.757
G01 X212.957
G01 X208.757
G01 X193.057
G01 X188.757
G01 X173.057
G01 X168.757
G01 X153.057
G01 X148.757
G01 X133.057
G01 X128.757
G01 X113.056
G01 X108.857
G01 X93.056
G01 X88.757
G01 X73.056
G01 X68.857
G01 X53.057
G01 X48.756
G01 X33.057
G01 X28.856
G01 X13.057
G01 X8.757
G01 X-6.943
G01 X-11.143
G01 X-26.942
G01 X-31.143
G01 X-46.943
G01 X-51.143
G01 X-66.943
G01 X-71.142
G01 X-86.943
G01 X-91.142
G01 X-106.943
G01 X-111.142
G01 X-126.943
G01 X-131.143
G01 X-146.943
G01 X-151.143
G01 X-166.943
G01 X-171.143
G01 X-186.943
G01 X-191.143
G01 X-206.943
G01 X-211.143
G01 X-226.943
G01 X-231.143
G01 X-246.943
G01 X-251.143
G01 X-266.942
G01 X-271.143
G01 X-286.942
G01 X-291.143
G01 X-291.243 Y-141.199
G01 X-286.942
G01 X-271.243
G01 X-266.942
G01 X-251.242
G01 X-246.843
G01 X-231.242
G01 X-226.943
G01 X-211.242
G01 X-206.843
G01 X-191.242
G01 X-186.943
G01 X-171.242
G01 X-166.943
G01 X-151.242
G01 X-146.943
G01 X-131.242
G01 X-126.943
G01 X-111.243
G01 X-106.943
G01 X-91.243
G01 X-86.943
G01 X-71.243
G01 X-66.943
G01 X-51.243
G01 X-46.943
G01 X-31.243
G01 X-26.942
G01 X-11.242
G01 X-6.943
G01 X8.757
G01 X13.057
G01 X28.757
G01 X33.057
G01 X48.756
G01 X53.057
G01 X68.757
G01 X73.056
G01 X88.757
G01 X93.056
G01 X108.757
G01 X113.056
G01 X128.757
G01 X133.057
G01 X148.757
G01 X153.057
G01 X168.757
G01 X173.057
G01 X188.757
G01 X193.057
G01 X208.757
G01 X213.057
G01 X228.757
G01 X233.057
G01 X248.757
G01 X253.057
G01 X268.757
G01 X273.057
G01 X288.757
G01 X293.057
G01 X293.157 Y-141.1
G01 X288.657
G01 X273.157
G01 X268.657
G01 X253.156
G01 X248.656
G01 X233.156
G01 X228.656
G01 X213.156
G01 X208.656
G01 X193.156
G01 X188.656
G01 X173.156
G01 X168.656
G01 X153.156
G01 X148.656
G01 X133.156
G01 X128.657
G01 X113.157
G01 X108.657
G01 X93.157
G01 X88.657
G01 X73.157
G01 X68.657
G01 X53.157
G01 X48.657
G01 X33.157
G01 X28.657
G01 X13.156
G01 X8.657
G01 X-6.843
G01 X-11.343
G01 X-26.843
G01 X-31.342
G01 X-46.842
G01 X-51.342
G01 X-66.843
G01 X-71.343
G01 X-86.843
G01 X-91.243
G01 X-106.843
G01 X-111.243
G01 X-126.843
G01 X-131.343
G01 X-146.843
G01 X-151.242
G01 X-166.843
G01 X-171.242
G01 X-186.843
G01 X-191.242
G01 X-206.843
G01 X-211.242
G01 X-226.843
G01 X-231.242
G01 X-246.843
G01 X-251.242
G01 X-266.843
G01 X-271.243
G01 X-286.843
G01 X-291.243
G01 X-291.343 Y-141
G01 X-286.743
G01 X-271.343
G01 X-266.843
G01 X-251.343
G01 X-246.742
G01 X-231.343
G01 X-226.843
G01 X-211.343
G01 X-206.843
G01 X-191.343
G01 X-186.843
G01 X-171.343
G01 X-166.843
G01 X-151.343
G01 X-146.843
G01 X-131.343
G01 X-126.843
G01 X-111.343
G01 X-106.843
G01 X-91.343
G01 X-86.843
G01 X-71.343
G01 X-66.843
G01 X-51.342
G01 X-46.842
G01 X-31.342
G01 X-26.843
G01 X-11.343
G01 X-6.843
G01 X8.657
G01 X13.156
G01 X28.657
G01 X33.157
G01 X48.657
G01 X53.157
G01 X68.657
G01 X73.157
G01 X88.657
G01 X93.157
G01 X108.657
G01 X113.157
G01 X128.657
G01 X133.156
G01 X148.656
G01 X153.156
G01 X168.656
G01 X173.156
G01 X188.656
G01 X193.156
G01 X208.656
G01 X213.156
G01 X228.656
G01 X233.156
G01 X248.656
G01 X253.156
G01 X268.657
G01 X273.157
G01 X288.657
G01 X293.157
G01  Y-140.9
G01 X288.557
G01 X273.257
G01 X268.557
G01 X253.257
G01 X248.557
G01 X233.257
G01 X228.557
G01 X213.257
G01 X208.557
G01 X193.257
G01 X188.557
G01 X173.257
G01 X168.557
G01 X153.257
G01 X148.557
G01 X133.257
G01 X128.556
G01 X113.257
G01 X108.556
G01 X93.257
G01 X88.556
G01 X73.257
G01 X68.556
G01 X53.256
G01 X48.557
G01 X33.256
G01 X28.557
G01 X13.257
G01 X8.657
G01 X-6.743
G01 X-11.343
G01 X-26.743
G01 X-31.342
G01 X-46.743
G01 X-51.342
G01 X-66.743
G01 X-71.343
G01 X-86.743
G01 X-91.443
G01 X-106.743
G01 X-111.343
G01 X-126.743
G01 X-131.343
G01 X-146.742
G01 X-151.343
G01 X-166.742
G01 X-171.343
G01 X-186.742
G01 X-191.343
G01 X-206.742
G01 X-211.343
G01 X-226.742
G01 X-231.343
G01 X-246.742
G01 X-251.343
G01 X-266.743
G01 X-271.343
G01 X-286.743
G01 X-291.343
G01 X-291.442 Y-140.8
G01 X-286.743
G01 X-271.442
G01 X-266.743
G01 X-251.443
G01 X-246.742
G01 X-231.443
G01 X-226.742
G01 X-211.443
G01 X-206.742
G01 X-191.443
G01 X-186.742
G01 X-171.443
G01 X-166.742
G01 X-151.443
G01 X-146.742
G01 X-131.443
G01 X-126.743
G01 X-111.443
G01 X-106.743
G01 X-91.443
G01 X-86.743
G01 X-71.443
G01 X-66.743
G01 X-51.443
G01 X-46.743
G01 X-31.443
G01 X-26.743
G01 X-11.443
G01 X-6.743
G01 X8.556
G01 X13.257
G01 X28.557
G01 X33.256
G01 X48.557
G01 X53.256
G01 X68.556
G01 X73.257
G01 X88.556
G01 X93.257
G01 X108.556
G01 X113.257
G01 X128.556
G01 X133.257
G01 X148.557
G01 X153.257
G01 X168.557
G01 X173.257
G01 X188.557
G01 X193.257
G01 X208.557
G01 X213.257
G01 X228.557
G01 X233.257
G01 X248.557
G01 X253.257
G01 X268.557
G01 X273.257
G01 X288.557
G01 X293.257
G01  Y-140.699
G01 X288.557
G01 X273.257
G01 X268.557
G01 X253.257
G01 X248.557
G01 X233.257
G01 X228.557
G01 X213.257
G01 X208.557
G01 X193.257
G01 X188.557
G01 X173.257
G01 X168.557
G01 X153.257
G01 X148.557
G01 X133.257
G01 X128.556
G01 X113.257
G01 X108.556
G01 X93.257
G01 X88.556
G01 X73.257
G01 X68.556
G01 X53.256
G01 X48.557
G01 X33.256
G01 X28.557
G01 X13.357
G01 X8.556
G01 X-6.743
G01 X-11.443
G01 X-26.643
G01 X-31.443
G01 X-46.743
G01 X-51.443
G01 X-66.642
G01 X-71.443
G01 X-86.743
G01 X-91.443
G01 X-106.642
G01 X-111.443
G01 X-126.743
G01 X-131.443
G01 X-146.643
G01 X-151.443
G01 X-166.643
G01 X-171.443
G01 X-186.643
G01 X-191.443
G01 X-206.643
G01 X-211.443
G01 X-226.643
G01 X-231.443
G01 X-246.643
G01 X-251.443
G01 X-266.643
G01 X-271.442
G01 X-286.643
G01 X-291.442
G01  Y-140.6
G01 X-286.643
G01 X-271.442
G01 X-266.643
G01 X-251.443
G01 X-246.643
G01 X-231.443
G01 X-226.643
G01 X-211.443
G01 X-206.643
G01 X-191.543
G01 X-186.643
G01 X-171.443
G01 X-166.643
G01 X-151.543
G01 X-146.643
G01 X-131.443
G01 X-126.642
G01 X-111.543
G01 X-106.642
G01 X-91.443
G01 X-86.642
G01 X-71.543
G01 X-66.642
G01 X-51.543
G01 X-46.643
G01 X-31.443
G01 X-26.643
G01 X-11.543
G01 X-6.642
G01 X8.556
G01 X13.357
G01 X28.457
G01 X33.357
G01 X48.557
G01 X53.357
G01 X68.457
G01 X73.357
G01 X88.556
G01 X93.357
G01 X108.457
G01 X113.357
G01 X128.457
G01 X133.357
G01 X148.457
G01 X153.357
G01 X168.457
G01 X173.357
G01 X188.457
G01 X193.257
G01 X208.457
G01 X213.357
G01 X228.457
G01 X233.257
G01 X248.457
G01 X253.357
G01 X268.457
G01 X273.257
G01 X288.457
G01 X293.356
G01  Y-140.5
G01 X288.457
G01 X273.356
G01 X268.457
G01 X253.357
G01 X248.457
G01 X233.357
G01 X228.457
G01 X213.357
G01 X208.457
G01 X193.357
G01 X188.457
G01 X173.357
G01 X168.457
G01 X153.357
G01 X148.457
G01 X133.357
G01 X128.457
G01 X113.357
G01 X108.457
G01 X93.357
G01 X88.457
G01 X73.357
G01 X68.457
G01 X53.357
G01 X48.457
G01 X33.357
G01 X28.457
G01 X13.357
G01 X8.457
G01 X-6.642
G01 X-11.543
G01 X-26.643
G01 X-31.543
G01 X-46.643
G01 X-51.543
G01 X-66.642
G01 X-71.443
G01 X-86.642
G01 X-91.543
G01 X-106.642
G01 X-111.443
G01 X-126.642
G01 X-131.543
G01 X-146.643
G01 X-151.443
G01 X-166.643
G01 X-171.543
G01 X-186.643
G01 X-191.443
G01 X-206.643
G01 X-211.543
G01 X-226.643
G01 X-231.443
G01 X-246.643
G01 X-251.543
G01 X-266.643
G01 X-271.442
G01 X-286.543
G01 X-291.442
G01 X-291.543 Y-140.4
G01 X-286.643
G01 X-271.543
G01 X-266.643
G01 X-251.543
G01 X-246.643
G01 X-231.543
G01 X-226.643
G01 X-211.543
G01 X-206.543
G01 X-191.543
G01 X-186.643
G01 X-171.543
G01 X-166.643
G01 X-151.543
G01 X-146.643
G01 X-131.543
G01 X-126.543
G01 X-111.543
G01 X-106.642
G01 X-91.543
G01 X-86.543
G01 X-71.543
G01 X-66.642
G01 X-51.543
G01 X-46.543
G01 X-31.543
G01 X-26.643
G01 X-11.543
G01 X-6.642
G01 X8.457
G01 X13.357
G01 X28.457
G01 X33.357
G01 X48.457
G01 X53.357
G01 X68.457
G01 X73.357
G01 X88.457
G01 X93.357
G01 X108.457
G01 X113.357
G01 X128.457
G01 X133.357
G01 X148.457
G01 X153.357
G01 X168.457
G01 X173.357
G01 X188.457
G01 X193.357
G01 X208.457
G01 X213.357
G01 X228.457
G01 X233.357
G01 X248.457
G01 X253.357
G01 X268.457
G01 X273.356
G01 X288.457
G01 X293.356
G01  Y-140.3
G01 X288.457
G01 X273.356
G01 X268.457
G01 X253.357
G01 X248.457
G01 X233.357
G01 X228.457
G01 X213.357
G01 X208.457
G01 X193.457
G01 X188.457
G01 X173.357
G01 X168.457
G01 X153.357
G01 X148.457
G01 X133.357
G01 X128.457
G01 X113.357
G01 X108.457
G01 X93.357
G01 X88.357
G01 X73.357
G01 X68.457
G01 X53.457
G01 X48.457
G01 X33.357
G01 X28.457
G01 X13.357
G01 X8.457
G01 X-6.642
G01 X-11.543
G01 X-26.643
G01 X-31.543
G01 X-46.643
G01 X-51.543
G01 X-66.642
G01 X-71.543
G01 X-86.642
G01 X-91.543
G01 X-106.642
G01 X-111.543
G01 X-126.642
G01 X-131.543
G01 X-146.543
G01 X-151.543
G01 X-166.543
G01 X-171.543
G01 X-186.543
G01 X-191.543
G01 X-206.643
G01 X-211.543
G01 X-226.543
G01 X-231.543
G01 X-246.543
G01 X-251.543
G01 X-266.643
G01 X-271.543
G01 X-286.643
G01 X-291.543
G01  Y-140.199
G01 X-286.543
G01 X-271.543
G01 X-266.543
G01 X-251.543
G01 X-246.643
G01 X-231.543
G01 X-226.643
G01 X-211.543
G01 X-206.643
G01 X-191.543
G01 X-186.643
G01 X-171.543
G01 X-166.543
G01 X-151.543
G01 X-146.643
G01 X-131.543
G01 X-126.642
G01 X-111.543
G01 X-106.642
G01 X-91.543
G01 X-86.642
G01 X-71.642
G01 X-66.543
G01 X-51.543
G01 X-46.643
G01 X-31.543
G01 X-26.643
G01 X-11.543
G01 X-6.543
G01 X8.457
G01 X13.357
G01 X28.457
G01 X33.357
G01 X48.457
G01 X53.357
G01 X68.457
G01 X73.357
G01 X88.457
G01 X93.357
G01 X108.457
G01 X113.357
G01 X128.357
G01 X133.357
G01 X148.457
G01 X153.357
G01 X168.357
G01 X173.457
G01 X188.457
G01 X193.357
G01 X208.357
G01 X213.357
G01 X228.457
G01 X233.357
G01 X248.357
G01 X253.357
G01 X268.457
G01 X273.356
G01 X288.356
G01 X293.356
G01 X293.457 Y-140.1
G01 X288.356
G01 X273.457
G01 X268.457
G01 X253.457
G01 X248.357
G01 X233.457
G01 X228.357
G01 X213.357
G01 X208.457
G01 X193.357
G01 X188.457
G01 X173.357
G01 X168.457
G01 X153.457
G01 X148.357
G01 X133.457
G01 X128.457
G01 X113.457
G01 X108.357
G01 X93.457
G01 X88.457
G01 X73.457
G01 X68.457
G01 X53.357
G01 X48.457
G01 X33.457
G01 X28.457
G01 X13.457
G01 X8.357
G01 X-6.543
G01 X-11.543
G01 X-26.543
G01 X-31.643
G01 X-46.543
G01 X-51.543
G01 X-66.543
G01 X-71.543
G01 X-86.543
G01 X-91.543
G01 X-106.543
G01 X-111.642
G01 X-126.543
G01 X-131.543
G01 X-146.543
G01 X-151.543
G01 X-166.643
G01 X-171.543
G01 X-186.543
G01 X-191.543
G01 X-206.543
G01 X-211.543
G01 X-226.543
G01 X-231.543
G01 X-246.543
G01 X-251.543
G01 X-266.543
G01 X-271.543
G01 X-286.543
G01 X-291.543
G01  Y-140
G01 X-286.643
G01 X-271.543
G01 X-266.543
G01 X-251.543
G01 X-246.543
G01 X-231.543
G01 X-226.543
G01 X-211.543
G01 X-206.543
G01 X-191.643
G01 X-186.543
G01 X-171.543
G01 X-166.543
G01 X-151.643
G01 X-146.543
G01 X-131.543
G01 X-126.543
G01 X-111.543
G01 X-106.543
G01 X-91.543
G01 X-86.642
G01 X-71.543
G01 X-66.642
G01 X-51.643
G01 X-46.643
G01 X-31.543
G01 X-26.543
G01 X-11.643
G01 X-6.642
G01 X8.457
G01 X13.457
G01 X28.356
G01 X33.357
G01 X48.357
G01 X53.457
G01 X68.457
G01 X73.357
G01 X88.357
G01 X93.457
G01 X108.457
G01 X113.457
G01 X128.457
G01 X133.357
G01 X148.457
G01 X153.457
G01 X168.357
G01 X173.357
G01 X188.357
G01 X193.457
G01 X208.457
G01 X213.357
G01 X228.457
G01 X233.357
G01 X248.457
G01 X253.357
G01 X268.356
G01 X273.356
G01 X288.457
G01 X293.356
G01  Y-139.9
G01 X288.356
G01 X273.356
G01 X268.356
G01 X253.357
G01 X248.357
G01 X233.357
G01 X228.357
G01 X213.457
G01 X208.357
G01 X193.357
G01 X188.457
G01 X173.457
G01 X168.457
G01 X153.357
G01 X148.457
G01 X133.357
G01 X128.357
G01 X113.357
G01 X108.457
G01 X93.357
G01 X88.457
G01 X73.457
G01 X68.357
G01 X53.457
G01 X48.457
G01 X33.457
G01 X28.457
G01 X13.357
G01 X8.457
G01 X-6.642
G01 X-11.543
G01 X-26.643
G01 X-31.543
G01 X-46.543
G01 X-51.543
G01 X-66.543
G01 X-71.642
G01 X-86.543
G01 X-91.543
G01 X-106.543
G01 X-111.543
G01 X-126.642
G01 X-131.543
G01 X-146.543
G01 X-151.543
G01 X-166.543
G01 X-171.543
G01 X-186.543
G01 X-191.543
G01 X-206.543
G01 X-211.543
G01 X-226.543
G01 X-231.543
G01 X-246.543
G01 X-251.543
G01 X-266.543
G01 X-271.543
G01 X-286.543
G01 X-291.543
G01  Y-139.8
G01 X-286.543
G01 X-271.543
G01 X-266.543
G01 X-251.543
G01 X-246.643
G01 X-231.543
G01 X-226.543
G01 X-211.543
G01 X-206.643
G01 X-191.543
G01 X-186.543
G01 X-171.543
G01 X-166.643
G01 X-151.543
G01 X-146.643
G01 X-131.543
G01 X-126.543
G01 X-111.642
G01 X-106.642
G01 X-91.543
G01 X-86.543
G01 X-71.543
G01 X-66.543
G01 X-51.543
G01 X-46.543
G01 X-31.643
G01 X-26.543
G01 X-11.543
G01 X-6.543
G01 X8.357
G01 X13.457
G01 X28.457
G01 X33.357
G01 X48.357
G01 X53.357
G01 X68.457
G01 X73.357
G01 X88.357
G01 X93.357
G01 X108.357
G01 X113.357
G01 X128.357
G01 X133.457
G01 X148.357
G01 X153.357
G01 X168.357
G01 X173.357
G01 X188.357
G01 X193.357
G01 X208.357
G01 X213.357
G01 X228.357
G01 X233.457
G01 X248.357
G01 X253.357
G01 X268.457
G01 X273.457
G01 X288.356
G01 X293.356
G01  Y-139.699
G01 X288.457
G01 X273.356
G01 X268.356
G01 X253.357
G01 X248.457
G01 X233.357
G01 X228.457
G01 X213.357
G01 X208.457
G01 X193.457
G01 X188.457
G01 X173.357
G01 X168.357
G01 X153.457
G01 X148.457
G01 X133.357
G01 X128.457
G01 X113.457
G01 X108.457
G01 X93.457
G01 X88.457
G01 X73.457
G01 X68.457
G01 X53.457
G01 X48.457
G01 X33.457
G01 X28.457
G01 X13.457
G01 X8.457
G01 X-6.543
G01 X-11.543
G01 X-26.543
G01 X-31.543
G01 X-46.643
G01 X-51.543
G01 X-66.543
G01 X-71.543
G01 X-86.642
G01 X-91.543
G01 X-106.543
G01 X-111.543
G01 X-126.543
G01 X-131.543
G01 X-146.543
G01 X-151.543
G01 X-166.543
G01 X-171.543
G01 X-186.543
G01 X-191.543
G01 X-206.543
G01 X-211.543
G01 X-226.543
G01 X-231.543
G01 X-246.543
G01 X-251.543
G01 X-266.543
G01 X-271.543
G01 X-286.543
G01 X-291.543
G01  Y-139.6
G01 X-286.543
G01 X-271.543
G01 X-266.543
G01 X-251.543
G01 X-246.543
G01 X-231.543
G01 X-226.643
G01 X-211.543
G01 X-206.543
G01 X-191.543
G01 X-186.543
G01 X-171.543
G01 X-166.543
G01 X-151.543
G01 X-146.543
G01 X-131.543
G01 X-126.642
G01 X-111.543
G01 X-106.543
G01 X-91.543
G01 X-86.543
G01 X-71.543
G01 X-66.642
G01 X-51.543
G01 X-46.543
G01 X-31.543
G01 X-26.643
G01 X-11.543
G01 X-6.642
G01 X8.457
G01 X13.357
G01 X28.457
G01 X33.357
G01 X48.457
G01 X53.357
G01 X68.457
G01 X73.357
G01 X88.457
G01 X93.357
G01 X108.457
G01 X113.357
G01 X128.457
G01 X133.357
G01 X148.457
G01 X153.357
G01 X168.457
G01 X173.357
G01 X188.457
G01 X193.357
G01 X208.357
G01 X213.357
G01 X228.457
G01 X233.357
G01 X248.357
G01 X253.357
G01 X268.457
G01 X273.356
G01 X288.356
G01 X293.356
G01  Y-139.5
G01 X288.457
G01 X273.356
G01 X268.457
G01 X253.357
G01 X248.457
G01 X233.357
G01 X228.457
G01 X213.357
G01 X208.457
G01 X193.357
G01 X188.457
G01 X173.357
G01 X168.457
G01 X153.357
G01 X148.457
G01 X133.357
G01 X128.457
G01 X113.357
G01 X108.457
G01 X93.357
G01 X88.457
G01 X73.357
G01 X68.457
G01 X53.357
G01 X48.457
G01 X33.357
G01 X28.457
G01 X13.357
G01 X8.457
G01 X-6.642
G01 X-11.543
G01 X-26.643
G01 X-31.543
G01 X-46.643
G01 X-51.543
G01 X-66.642
G01 X-71.543
G01 X-86.642
G01 X-91.543
G01 X-106.642
G01 X-111.443
G01 X-126.642
G01 X-131.543
G01 X-146.643
G01 X-151.543
G01 X-166.643
G01 X-171.543
G01 X-186.643
G01 X-191.543
G01 X-206.643
G01 X-211.543
G01 X-226.543
G01 X-231.543
G01 X-246.643
G01 X-251.543
G01 X-266.543
G01 X-271.543
G01 X-286.643
G01 X-291.543
G01  Y-139.4
G01 X-286.643
G01 X-271.543
G01 X-266.643
G01 X-251.543
G01 X-246.643
G01 X-231.543
G01 X-226.643
G01 X-211.543
G01 X-206.643
G01 X-191.543
G01 X-186.643
G01 X-171.543
G01 X-166.643
G01 X-151.543
G01 X-146.643
G01 X-131.543
G01 X-126.642
G01 X-111.543
G01 X-106.642
G01 X-91.543
G01 X-86.642
G01 X-71.543
G01 X-66.642
G01 X-51.543
G01 X-46.643
G01 X-31.543
G01 X-26.643
G01 X-11.543
G01 X-6.642
G01 X8.457
G01 X13.357
G01 X28.457
G01 X33.357
G01 X48.457
G01 X53.357
G01 X68.457
G01 X73.357
G01 X88.457
G01 X93.357
G01 X108.457
G01 X113.357
G01 X128.457
G01 X133.357
G01 X148.457
G01 X153.357
G01 X168.457
G01 X173.357
G01 X188.457
G01 X193.357
G01 X208.457
G01 X213.357
G01 X228.457
G01 X233.357
G01 X248.457
G01 X253.357
G01 X268.457
G01 X273.356
G01 X288.457
G01 X293.356
G01  Y-139.3
G01 X288.457
G01 X273.356
G01 X268.457
G01 X253.357
G01 X248.457
G01 X233.357
G01 X228.457
G01 X213.357
G01 X208.457
G01 X193.357
G01 X188.457
G01 X173.357
G01 X168.457
G01 X153.357
G01 X148.457
G01 X133.357
G01 X128.457
G01 X113.357
G01 X108.457
G01 X93.357
G01 X88.457
G01 X73.357
G01 X68.457
G01 X53.357
G01 X48.457
G01 X33.357
G01 X28.557
G01 X13.357
G01 X8.457
G01 X-6.642
G01 X-11.443
G01 X-26.643
G01 X-31.543
G01 X-46.643
G01 X-51.443
G01 X-66.642
G01 X-71.543
G01 X-86.642
G01 X-91.443
G01 X-106.642
G01 X-111.543
G01 X-126.642
G01 X-131.443
G01 X-146.643
G01 X-151.443
G01 X-166.643
G01 X-171.443
G01 X-186.643
G01 X-191.443
G01 X-206.643
G01 X-211.443
G01 X-226.643
G01 X-231.443
G01 X-246.643
G01 X-251.443
G01 X-266.643
G01 X-271.442
G01 X-286.643
G01 X-291.442
G01  Y-139.199
G01 X-286.643
G01 X-271.442
G01 X-266.643
G01 X-251.443
G01 X-246.643
G01 X-231.443
G01 X-226.643
G01 X-211.443
G01 X-206.643
G01 X-191.443
G01 X-186.643
G01 X-171.443
G01 X-166.643
G01 X-151.443
G01 X-146.643
G01 X-131.443
G01 X-126.642
G01 X-111.443
G01 X-106.642
G01 X-91.443
G01 X-86.743
G01 X-71.443
G01 X-66.642
G01 X-51.443
G01 X-46.743
G01 X-31.443
G01 X-26.643
G01 X-11.443
G01 X-6.743
G01 X8.556
G01 X13.357
G01 X28.557
G01 X33.256
G01 X48.557
G01 X53.256
G01 X68.556
G01 X73.257
G01 X88.556
G01 X93.257
G01 X108.556
G01 X113.257
G01 X128.556
G01 X133.257
G01 X148.557
G01 X153.257
G01 X168.557
G01 X173.257
G01 X188.557
G01 X193.257
G01 X208.557
G01 X213.257
G01 X228.557
G01 X233.257
G01 X248.557
G01 X253.257
G01 X268.557
G01 X273.257
G01 X288.557
G01 X293.257
G01  Y-139.1
G01 X288.557
G01 X273.257
G01 X268.557
G01 X253.257
G01 X248.557
G01 X233.257
G01 X228.557
G01 X213.257
G01 X208.557
G01 X193.257
G01 X188.557
G01 X173.257
G01 X168.557
G01 X153.257
G01 X148.557
G01 X133.257
G01 X128.556
G01 X113.257
G01 X108.556
G01 X93.257
G01 X88.556
G01 X73.257
G01 X68.556
G01 X53.256
G01 X48.557
G01 X33.256
G01 X28.557
G01 X13.257
G01 X8.556
G01 X-6.743
G01 X-11.443
G01 X-26.743
G01 X-31.443
G01 X-46.743
G01 X-51.443
G01 X-66.743
G01 X-71.443
G01 X-86.743
G01 X-91.443
G01 X-106.743
G01 X-111.443
G01 X-126.743
G01 X-131.443
G01 X-146.742
G01 X-151.443
G01 X-166.742
G01 X-171.443
G01 X-186.742
G01 X-191.443
G01 X-206.742
G01 X-211.443
G01 X-226.742
G01 X-231.443
G01 X-246.742
G01 X-251.443
G01 X-266.743
G01 X-271.442
G01 X-286.743
G01 X-291.442
G01 X-291.343 Y-139
G01 X-286.743
G01 X-271.343
G01 X-266.743
G01 X-251.343
G01 X-246.742
G01 X-231.343
G01 X-226.742
G01 X-211.343
G01 X-206.742
G01 X-191.343
G01 X-186.742
G01 X-171.343
G01 X-166.742
G01 X-151.343
G01 X-146.742
G01 X-131.343
G01 X-126.743
G01 X-111.343
G01 X-106.743
G01 X-91.443
G01 X-86.743
G01 X-71.343
G01 X-66.743
G01 X-51.342
G01 X-46.743
G01 X-31.342
G01 X-26.743
G01 X-11.443
G01 X-6.743
G01 X8.657
G01 X13.257
G01 X28.557
G01 X33.256
G01 X48.657
G01 X53.256
G01 X68.556
G01 X73.257
G01 X88.556
G01 X93.257
G01 X108.556
G01 X113.257
G01 X128.556
G01 X133.257
G01 X148.557
G01 X153.156
G01 X168.557
G01 X173.257
G01 X188.557
G01 X193.156
G01 X208.557
G01 X213.257
G01 X228.557
G01 X233.156
G01 X248.557
G01 X253.257
G01 X268.557
G01 X273.157
G01 X288.557
G01 X293.157
G01  Y-138.9
G01 X288.657
G01 X273.157
G01 X268.657
G01 X253.156
G01 X248.656
G01 X233.156
G01 X228.656
G01 X213.156
G01 X208.656
G01 X193.156
G01 X188.656
G01 X173.156
G01 X168.656
G01 X153.156
G01 X148.656
G01 X133.156
G01 X128.657
G01 X113.157
G01 X108.657
G01 X93.157
G01 X88.657
G01 X73.157
G01 X68.657
G01 X53.157
G01 X48.657
G01 X33.157
G01 X28.657
G01 X13.156
G01 X8.657
G01 X-6.843
G01 X-11.343
G01 X-26.843
G01 X-31.342
G01 X-46.842
G01 X-51.342
G01 X-66.843
G01 X-71.343
G01 X-86.843
G01 X-91.343
G01 X-106.843
G01 X-111.343
G01 X-126.843
G01 X-131.343
G01 X-146.843
G01 X-151.343
G01 X-166.843
G01 X-171.343
G01 X-186.843
G01 X-191.343
G01 X-206.843
G01 X-211.343
G01 X-226.843
G01 X-231.343
G01 X-246.843
G01 X-251.343
G01 X-266.743
G01 X-271.343
G01 X-286.743
G01 X-291.343
G01 X-291.243 Y-138.8
G01 X-286.843
G01 X-271.243
G01 X-266.843
G01 X-251.242
G01 X-246.843
G01 X-231.242
G01 X-226.843
G01 X-211.343
G01 X-206.843
G01 X-191.242
G01 X-186.843
G01 X-171.343
G01 X-166.843
G01 X-151.242
G01 X-146.843
G01 X-131.343
G01 X-126.843
G01 X-111.243
G01 X-106.843
G01 X-91.243
G01 X-86.843
G01 X-71.243
G01 X-66.843
G01 X-51.342
G01 X-46.842
G01 X-31.243
G01 X-26.843
G01 X-11.343
G01 X-6.843
G01 X8.657
G01 X13.156
G01 X28.657
G01 X33.157
G01 X48.657
G01 X53.157
G01 X68.657
G01 X73.157
G01 X88.657
G01 X93.157
G01 X108.657
G01 X113.157
G01 X128.657
G01 X133.156
G01 X148.656
G01 X153.156
G01 X168.656
G01 X173.156
G01 X188.656
G01 X193.156
G01 X208.656
G01 X213.156
G01 X228.656
G01 X233.156
G01 X248.656
G01 X253.156
G01 X268.657
G01 X273.157
G01 X288.657
G01 X293.157
G01 X293.057 Y-138.699
G01 X288.757
G01 X273.057
G01 X268.757
G01 X253.057
G01 X248.757
G01 X233.057
G01 X228.757
G01 X213.057
G01 X208.757
G01 X193.057
G01 X188.757
G01 X173.057
G01 X168.757
G01 X153.057
G01 X148.757
G01 X133.057
G01 X128.757
G01 X113.056
G01 X108.757
G01 X93.056
G01 X88.757
G01 X73.056
G01 X68.757
G01 X53.057
G01 X48.756
G01 X33.057
G01 X28.757
G01 X13.057
G01 X8.757
G01 X-6.943
G01 X-11.242
G01 X-26.942
G01 X-31.243
G01 X-46.943
G01 X-51.243
G01 X-66.943
G01 X-71.243
G01 X-86.943
G01 X-91.243
G01 X-106.943
G01 X-111.243
G01 X-126.943
G01 X-131.242
G01 X-146.943
G01 X-151.242
G01 X-166.943
G01 X-171.242
G01 X-186.943
G01 X-191.242
G01 X-206.943
G01 X-211.242
G01 X-226.943
G01 X-231.242
G01 X-246.843
G01 X-251.242
G01 X-266.942
G01 X-271.243
G01 X-286.843
G01 X-291.243
G01 X-291.143 Y-138.6
G01 X-286.942
G01 X-271.143
G01 X-266.942
G01 X-251.143
G01 X-246.943
G01 X-231.143
G01 X-226.943
G01 X-211.143
G01 X-206.943
G01 X-191.143
G01 X-186.943
G01 X-171.143
G01 X-166.943
G01 X-151.143
G01 X-146.943
G01 X-131.143
G01 X-126.943
G01 X-111.142
G01 X-106.943
G01 X-91.243
G01 X-86.943
G01 X-71.142
G01 X-66.943
G01 X-51.143
G01 X-46.943
G01 X-31.143
G01 X-26.942
G01 X-11.143
G01 X-6.943
G01 X8.857
G01 X12.957
G01 X28.856
G01 X33.057
G01 X48.857
G01 X52.957
G01 X68.857
G01 X73.056
G01 X88.857
G01 X92.957
G01 X108.857
G01 X113.056
G01 X128.757
G01 X132.957
G01 X148.857
G01 X152.957
G01 X168.757
G01 X172.957
G01 X188.857
G01 X192.957
G01 X208.757
G01 X212.957
G01 X228.857
G01 X232.957
G01 X248.757
G01 X252.957
G01 X268.757
G01 X272.957
G01 X288.757
G01 X292.957
G01  Y-138.5
G01 X288.856
G01 X272.957
G01 X268.856
G01 X252.957
G01 X248.857
G01 X232.957
G01 X228.857
G01 X212.957
G01 X208.857
G01 X192.957
G01 X188.857
G01 X172.957
G01 X168.857
G01 X152.957
G01 X148.857
G01 X132.957
G01 X128.857
G01 X112.957
G01 X108.857
G01 X92.957
G01 X88.857
G01 X72.957
G01 X68.857
G01 X52.957
G01 X48.857
G01 X32.957
G01 X28.856
G01 X12.957
G01 X8.857
G01 X-7.043
G01 X-11.143
G01 X-27.043
G01 X-31.143
G01 X-47.043
G01 X-51.143
G01 X-67.043
G01 X-71.142
G01 X-87.043
G01 X-91.043
G01 X-107.043
G01 X-111.142
G01 X-127.043
G01 X-131.043
G01 X-147.043
G01 X-151.043
G01 X-167.043
G01 X-171.043
G01 X-187.043
G01 X-191.043
G01 X-207.043
G01 X-211.043
G01 X-227.043
G01 X-231.043
G01 X-247.043
G01 X-251.043
G01 X-267.043
G01 X-271.043
G01 X-287.043
G01 X-291.043
G01  Y-138.4
G01 X-287.143
G01 X-271.043
G01 X-267.143
G01 X-251.043
G01 X-247.143
G01 X-231.043
G01 X-227.143
G01 X-211.043
G01 X-207.143
G01 X-191.043
G01 X-187.143
G01 X-171.043
G01 X-167.143
G01 X-151.043
G01 X-147.143
G01 X-131.043
G01 X-127.143
G01 X-111.043
G01 X-107.142
G01 X-91.043
G01 X-87.142
G01 X-71.043
G01 X-67.142
G01 X-51.043
G01 X-47.143
G01 X-31.043
G01 X-27.143
G01 X-11.043
G01 X-7.143
G01 X8.957
G01 X12.857
G01 X28.957
G01 X32.856
G01 X48.957
G01 X52.857
G01 X68.957
G01 X72.857
G01 X88.957
G01 X92.857
G01 X108.957
G01 X112.857
G01 X128.957
G01 X132.857
G01 X148.957
G01 X152.857
G01 X168.957
G01 X172.857
G01 X188.957
G01 X192.857
G01 X208.957
G01 X212.857
G01 X228.957
G01 X232.857
G01 X248.957
G01 X252.857
G01 X268.957
G01 X272.856
G01 X288.957
G01 X292.856
G01 X292.757 Y-138.3
G01 X289.057
G01 X272.757
G01 X269.057
G01 X252.757
G01 X249.057
G01 X232.757
G01 X229.057
G01 X212.757
G01 X209.057
G01 X192.757
G01 X189.057
G01 X172.757
G01 X169.057
G01 X152.757
G01 X149.057
G01 X132.757
G01 X129.057
G01 X112.757
G01 X109.056
G01 X92.757
G01 X89.056
G01 X72.757
G01 X69.056
G01 X52.756
G01 X49.057
G01 X32.757
G01 X29.057
G01 X12.757
G01 X9.057
G01 X-7.242
G01 X-10.943
G01 X-27.143
G01 X-30.942
G01 X-47.243
G01 X-50.943
G01 X-67.142
G01 X-70.943
G01 X-87.243
G01 X-90.943
G01 X-107.142
G01 X-110.943
G01 X-127.242
G01 X-130.943
G01 X-147.143
G01 X-150.943
G01 X-167.143
G01 X-170.943
G01 X-187.143
G01 X-190.943
G01 X-207.143
G01 X-210.943
G01 X-227.143
G01 X-230.943
G01 X-247.143
G01 X-250.943
G01 X-267.143
G01 X-270.942
G01 X-287.243
G01 X-290.942
G01 X-290.843 Y-138.199
G01 X-287.243
G01 X-270.843
G01 X-267.343
G01 X-250.843
G01 X-247.343
G01 X-230.843
G01 X-227.343
G01 X-210.843
G01 X-207.343
G01 X-190.843
G01 X-187.343
G01 X-170.843
G01 X-167.343
G01 X-150.843
G01 X-147.343
G01 X-130.843
G01 X-127.343
G01 X-110.843
G01 X-107.343
G01 X-90.843
G01 X-87.343
G01 X-70.843
G01 X-67.343
G01 X-50.842
G01 X-47.342
G01 X-30.843
G01 X-27.343
G01 X-10.843
G01 X-7.343
G01 X9.156
G01 X12.757
G01 X29.157
G01 X32.657
G01 X49.157
G01 X52.756
G01 X69.157
G01 X72.657
G01 X89.157
G01 X92.657
G01 X109.157
G01 X112.657
G01 X129.156
G01 X132.656
G01 X149.156
G01 X152.656
G01 X169.156
G01 X172.656
G01 X189.156
G01 X192.656
G01 X209.156
G01 X212.656
G01 X229.057
G01 X232.656
G01 X249.156
G01 X252.656
G01 X269.057
G01 X272.657
G01 X289.157
G01 X292.657
G01 X292.557 Y-138.1
G01 X289.257
G01 X272.557
G01 X269.257
G01 X252.557
G01 X249.257
G01 X232.557
G01 X229.257
G01 X212.557
G01 X209.257
G01 X192.557
G01 X189.257
G01 X172.557
G01 X169.257
G01 X152.557
G01 X149.257
G01 X132.557
G01 X129.257
G01 X112.556
G01 X109.257
G01 X92.556
G01 X89.257
G01 X72.556
G01 X69.257
G01 X52.557
G01 X49.256
G01 X32.557
G01 X29.257
G01 X12.557
G01 X9.257
G01 X-7.443
G01 X-10.742
G01 X-27.442
G01 X-30.743
G01 X-47.342
G01 X-50.743
G01 X-67.343
G01 X-70.743
G01 X-87.343
G01 X-90.743
G01 X-107.343
G01 X-110.743
G01 X-127.343
G01 X-130.742
G01 X-147.343
G01 X-150.742
G01 X-167.343
G01 X-170.742
G01 X-187.343
G01 X-190.742
G01 X-207.343
G01 X-210.742
G01 X-227.343
G01 X-230.742
G01 X-247.343
G01 X-250.742
G01 X-267.343
G01 X-270.743
G01 X-287.343
G01 X-290.743
G01 X-290.643 Y-138
G01 X-287.543
G01 X-270.643
G01 X-267.543
G01 X-250.643
G01 X-247.543
G01 X-230.643
G01 X-227.543
G01 X-210.643
G01 X-207.543
G01 X-190.643
G01 X-187.543
G01 X-170.643
G01 X-167.543
G01 X-150.643
G01 X-147.543
G01 X-130.643
G01 X-127.543
G01 X-110.642
G01 X-107.543
G01 X-90.642
G01 X-87.543
G01 X-70.642
G01 X-67.543
G01 X-50.643
G01 X-47.543
G01 X-30.643
G01 X-27.543
G01 X-10.643
G01 X-7.543
G01 X9.357
G01 X12.457
G01 X29.356
G01 X32.457
G01 X49.357
G01 X52.457
G01 X69.357
G01 X72.457
G01 X89.357
G01 X92.457
G01 X109.357
G01 X112.457
G01 X129.357
G01 X132.457
G01 X149.357
G01 X152.457
G01 X169.357
G01 X172.457
G01 X189.357
G01 X192.457
G01 X209.357
G01 X212.457
G01 X229.357
G01 X232.457
G01 X249.357
G01 X252.457
G01 X269.356
G01 X272.457
G01 X289.356
G01 X292.457
G01 X292.356 Y-137.9
G01 X289.457
G01 X272.356
G01 X269.457
G01 X252.357
G01 X249.457
G01 X232.357
G01 X229.457
G01 X212.357
G01 X209.457
G01 X192.357
G01 X189.457
G01 X172.357
G01 X169.457
G01 X152.357
G01 X149.457
G01 X132.357
G01 X129.457
G01 X112.357
G01 X109.457
G01 X92.357
G01 X89.457
G01 X72.357
G01 X69.457
G01 X52.357
G01 X49.457
G01 X32.356
G01 X29.457
G01 X12.357
G01 X9.457
G01 X-7.643
G01 X-10.543
G01 X-27.643
G01 X-30.543
G01 X-47.643
G01 X-50.543
G01 X-67.642
G01 X-70.543
G01 X-87.642
G01 X-90.543
G01 X-107.642
G01 X-110.543
G01 X-127.643
G01 X-130.543
G01 X-147.643
G01 X-150.443
G01 X-167.643
G01 X-170.443
G01 X-187.643
G01 X-190.443
G01 X-207.643
G01 X-210.443
G01 X-227.643
G01 X-230.443
G01 X-247.643
G01 X-250.443
G01 X-267.643
G01 X-270.442
G01 X-287.643
G01 X-290.442
G01 X-290.343 Y-137.8
G01 X-287.743
G01 X-270.343
G01 X-267.843
G01 X-250.343
G01 X-247.843
G01 X-230.343
G01 X-227.843
G01 X-210.343
G01 X-207.843
G01 X-190.343
G01 X-187.843
G01 X-170.343
G01 X-167.843
G01 X-150.343
G01 X-147.843
G01 X-130.343
G01 X-127.843
G01 X-110.343
G01 X-107.843
G01 X-90.343
G01 X-87.843
G01 X-70.343
G01 X-67.843
G01 X-50.342
G01 X-47.842
G01 X-30.343
G01 X-27.843
G01 X-10.343
G01 X-7.843
G01 X9.656
G01 X12.156
G01 X29.657
G01 X32.157
G01 X49.657
G01 X52.157
G01 X69.657
G01 X72.157
G01 X89.657
G01 X92.157
G01 X109.657
G01 X112.157
G01 X129.656
G01 X132.156
G01 X149.656
G01 X152.156
G01 X169.656
G01 X172.156
G01 X189.656
G01 X192.156
G01 X209.656
G01 X212.156
G01 X229.656
G01 X232.156
G01 X249.656
G01 X252.156
G01 X269.657
G01 X272.157
G01 X289.657
G01 X292.157
G01 X291.957 Y-137.699
G01 X289.856
G01 X271.957
G01 X269.856
G01 X251.957
G01 X249.857
G01 X231.957
G01 X229.857
G01 X211.957
G01 X209.857
G01 X191.957
G01 X189.857
G01 X171.957
G01 X169.857
G01 X151.957
G01 X149.857
G01 X131.957
G01 X129.857
G01 X111.957
G01 X109.857
G01 X91.957
G01 X89.857
G01 X71.957
G01 X69.857
G01 X52.057
G01 X49.857
G01 X32.057
G01 X29.856
G01 X11.957
G01 X9.857
G01 X-7.943
G01 X-10.143
G01 X-28.043
G01 X-30.143
G01 X-47.943
G01 X-50.143
G01 X-67.943
G01 X-70.142
G01 X-87.943
G01 X-90.142
G01 X-107.943
G01 X-110.142
G01 X-127.943
G01 X-130.143
G01 X-147.943
G01 X-150.143
G01 X-167.943
G01 X-170.143
G01 X-187.943
G01 X-190.143
G01 X-207.943
G01 X-210.143
G01 X-227.943
G01 X-230.143
G01 X-247.943
G01 X-250.143
G01 X-267.942
G01 X-270.143
G01 X-287.942
G01 X-290.143
G01 X-289.942 Y-137.6
G01 X-288.243
G01 X-269.942
G01 X-268.243
G01 X-249.943
G01 X-248.242
G01 X-229.943
G01 X-228.242
G01 X-209.943
G01 X-208.242
G01 X-189.943
G01 X-188.242
G01 X-169.943
G01 X-168.242
G01 X-149.943
G01 X-148.242
G01 X-129.943
G01 X-128.242
G01 X-109.943
G01 X-108.243
G01 X-89.943
G01 X-88.243
G01 X-69.943
G01 X-68.243
G01 X-49.943
G01 X-48.243
G01 X-29.942
G01 X-28.243
G01 X-9.943
G01 X-8.242
G01 X10.057
G01 X11.757
G01 X30.057
G01 X31.657
G01 X50.057
G01 X51.657
G01 X70.056
G01 X71.657
G01 X90.056
G01 X91.657
G01 X110.056
G01 X111.657
G01 X130.057
G01 X131.656
G01 X150.057
G01 X151.656
G01 X170.057
G01 X171.656
G01 X190.057
G01 X191.656
G01 X210.057
G01 X211.656
G01 X230.057
G01 X231.656
G01 X250.057
G01 X251.656
G01 X270.057
G01 X271.657
G01 X290.057
G01 X291.657
G01 X291.457 Y-137.5
G01 X290.557
G01 X290.457
G01 X290.356
G01 X271.457
G01 X270.557
G01 X270.457
G01 X270.356
G01 X251.457
G01 X250.557
G01 X250.357
G01 X250.257
G01 X231.457
G01 X230.557
G01 X230.357
G01 X230.257
G01 X211.457
G01 X210.557
G01 X210.357
G01 X210.257
G01 X191.457
G01 X190.557
G01 X190.357
G01 X190.257
G01 X171.457
G01 X170.557
G01 X170.357
G01 X170.257
G01 X151.457
G01 X150.557
G01 X150.357
G01 X150.257
G01 X131.457
G01 X130.557
G01 X130.357
G01 X130.257
G01 X111.457
G01 X110.556
G01 X110.357
G01 X110.257
G01 X91.457
G01 X90.556
G01 X71.457
G01 X70.556
G01 X51.457
G01 X50.557
G01 X50.357
G01 X50.256
G01 X31.457
G01 X30.557
G01 X30.356
G01 X30.257
G01 X11.457
G01 X10.557
G01 X-8.543
G01 X-9.443
G01 X-28.543
G01 X-29.442
G01 X-48.543
G01 X-49.443
G01 X-49.643
G01 X-49.743
G01 X-68.543
G01 X-69.443
G01 X-88.543
G01 X-89.443
G01 X-108.543
G01 X-109.443
G01 X-128.543
G01 X-129.443
G01 X-148.543
G01 X-149.443
G01 X-168.543
G01 X-169.443
G01 X-188.543
G01 X-189.443
G01 X-208.543
G01 X-209.443
G01 X-228.543
G01 X-229.443
G01 X-248.543
G01 X-249.443
G01 X-268.543
G01 X-269.442
G01 X-288.543
G01 X-289.442
G01 X-289.643 Y-122.4
G01 X-288.643
G01 X-269.643
G01 X-268.643
G01 X-249.643
G01 X-248.643
G01 X-229.643
G01 X-228.643
G01 X-209.643
G01 X-208.643
G01 X-189.643
G01 X-188.643
G01 X-169.643
G01 X-168.643
G01 X-149.643
G01 X-148.643
G01 X-129.643
G01 X-128.643
G01 X-109.642
G01 X-108.642
G01 X-89.642
G01 X-88.642
G01 X-69.642
G01 X-68.642
G01 X-49.643
G01 X-48.743
G01 X-48.643
G01 X-48.543
G01 X-29.643
G01 X-28.743
G01 X-9.643
G01 X-8.742
G01 X-8.643
G01 X-8.543
G01 X10.357
G01 X11.257
G01 X30.356
G01 X31.257
G01 X31.356
G01 X31.457
G01 X50.357
G01 X51.256
G01 X70.357
G01 X71.257
G01 X71.357
G01 X71.457
G01 X90.357
G01 X91.257
G01 X110.357
G01 X111.257
G01 X130.357
G01 X131.257
G01 X150.357
G01 X151.257
G01 X170.357
G01 X171.257
G01 X190.357
G01 X191.257
G01 X210.357
G01 X211.257
G01 X230.357
G01 X231.257
G01 X250.357
G01 X251.257
G01 X270.356
G01 X271.257
G01 X290.356
G01 X291.257
G01 X291.757 Y-122.3
G01 X290.057
G01 X271.757
G01 X270.057
G01 X251.757
G01 X250.057
G01 X231.757
G01 X230.057
G01 X211.757
G01 X210.057
G01 X191.757
G01 X190.057
G01 X171.757
G01 X170.057
G01 X151.757
G01 X150.057
G01 X131.757
G01 X130.057
G01 X111.757
G01 X110.056
G01 X91.757
G01 X90.056
G01 X71.757
G01 X70.056
G01 X51.756
G01 X50.057
G01 X31.757
G01 X30.057
G01 X11.757
G01 X10.057
G01 X-8.242
G01 X-9.943
G01 X-28.243
G01 X-29.942
G01 X-48.243
G01 X-49.943
G01 X-68.243
G01 X-69.943
G01 X-88.243
G01 X-89.943
G01 X-108.243
G01 X-109.943
G01 X-128.242
G01 X-129.943
G01 X-148.242
G01 X-149.943
G01 X-168.242
G01 X-169.943
G01 X-188.242
G01 X-189.943
G01 X-208.242
G01 X-209.943
G01 X-228.242
G01 X-229.943
G01 X-248.242
G01 X-249.943
G01 X-268.243
G01 X-269.942
G01 X-288.243
G01 X-289.942
G01 X-290.143 Y-122.2
G01 X-287.942
G01 X-270.143
G01 X-267.942
G01 X-250.143
G01 X-247.943
G01 X-230.143
G01 X-227.943
G01 X-210.143
G01 X-207.943
G01 X-190.143
G01 X-187.943
G01 X-170.143
G01 X-167.943
G01 X-150.143
G01 X-147.943
G01 X-130.143
G01 X-128.043
G01 X-110.142
G01 X-107.943
G01 X-90.142
G01 X-88.043
G01 X-70.142
G01 X-67.943
G01 X-50.143
G01 X-48.043
G01 X-30.143
G01 X-28.043
G01 X-10.242
G01 X-8.043
G01 X9.857
G01 X11.957
G01 X29.757
G01 X31.957
G01 X49.756
G01 X51.957
G01 X69.757
G01 X71.957
G01 X89.757
G01 X91.957
G01 X109.757
G01 X111.957
G01 X129.757
G01 X131.957
G01 X149.757
G01 X151.957
G01 X169.757
G01 X171.957
G01 X189.757
G01 X191.957
G01 X209.757
G01 X211.957
G01 X229.757
G01 X231.957
G01 X249.757
G01 X251.957
G01 X269.757
G01 X271.957
G01 X289.757
G01 X291.957
G01 X292.157 Y-122.099
G01 X289.657
G01 X272.157
G01 X269.657
G01 X252.156
G01 X249.656
G01 X232.156
G01 X229.656
G01 X212.156
G01 X209.656
G01 X192.156
G01 X189.656
G01 X172.156
G01 X169.656
G01 X152.156
G01 X149.656
G01 X132.156
G01 X129.656
G01 X112.157
G01 X109.657
G01 X92.157
G01 X89.657
G01 X72.257
G01 X69.657
G01 X52.256
G01 X49.657
G01 X32.257
G01 X29.657
G01 X12.257
G01 X9.656
G01 X-7.742
G01 X-10.343
G01 X-27.743
G01 X-30.343
G01 X-47.743
G01 X-50.342
G01 X-67.743
G01 X-70.343
G01 X-87.743
G01 X-90.343
G01 X-107.743
G01 X-110.343
G01 X-127.742
G01 X-130.343
G01 X-147.742
G01 X-150.343
G01 X-167.742
G01 X-170.343
G01 X-187.742
G01 X-190.343
G01 X-207.742
G01 X-210.343
G01 X-227.742
G01 X-230.343
G01 X-247.742
G01 X-250.343
G01 X-267.743
G01 X-270.343
G01 X-287.743
G01 X-290.343
G01 X-290.442 Y-122
G01 X-287.643
G01 X-270.442
G01 X-267.643
G01 X-250.543
G01 X-247.643
G01 X-230.543
G01 X-227.643
G01 X-210.543
G01 X-207.643
G01 X-190.443
G01 X-187.643
G01 X-170.543
G01 X-167.643
G01 X-150.543
G01 X-147.643
G01 X-130.543
G01 X-127.643
G01 X-110.543
G01 X-107.642
G01 X-90.543
G01 X-87.642
G01 X-70.543
G01 X-67.642
G01 X-50.543
G01 X-47.643
G01 X-30.543
G01 X-27.643
G01 X-10.543
G01 X-7.643
G01 X9.457
G01 X12.357
G01 X29.457
G01 X32.356
G01 X49.457
G01 X52.357
G01 X69.457
G01 X72.357
G01 X89.457
G01 X92.357
G01 X109.457
G01 X112.357
G01 X129.457
G01 X132.357
G01 X149.457
G01 X152.357
G01 X169.457
G01 X172.357
G01 X189.457
G01 X192.357
G01 X209.457
G01 X212.357
G01 X229.457
G01 X232.357
G01 X249.457
G01 X252.357
G01 X269.457
G01 X272.356
G01 X289.457
G01 X292.356
G01 X292.457 Y-121.9
G01 X289.356
G01 X272.457
G01 X269.356
G01 X252.457
G01 X249.357
G01 X232.457
G01 X229.357
G01 X212.457
G01 X209.357
G01 X192.457
G01 X189.357
G01 X172.457
G01 X169.357
G01 X152.457
G01 X149.357
G01 X132.457
G01 X129.357
G01 X112.457
G01 X109.357
G01 X92.457
G01 X89.357
G01 X72.457
G01 X69.357
G01 X52.457
G01 X49.357
G01 X32.457
G01 X29.356
G01 X12.457
G01 X9.357
G01 X-7.543
G01 X-10.643
G01 X-27.543
G01 X-30.643
G01 X-47.443
G01 X-50.643
G01 X-67.543
G01 X-70.642
G01 X-87.443
G01 X-90.642
G01 X-107.543
G01 X-110.642
G01 X-127.443
G01 X-130.643
G01 X-147.443
G01 X-150.643
G01 X-167.443
G01 X-170.643
G01 X-187.543
G01 X-190.643
G01 X-207.543
G01 X-210.643
G01 X-227.443
G01 X-230.643
G01 X-247.543
G01 X-250.643
G01 X-267.442
G01 X-270.643
G01 X-287.543
G01 X-290.643
G01 X-290.743 Y-121.8
G01 X-287.343
G01 X-270.743
G01 X-267.442
G01 X-250.742
G01 X-247.343
G01 X-230.742
G01 X-227.443
G01 X-210.742
G01 X-207.343
G01 X-190.742
G01 X-187.343
G01 X-170.742
G01 X-167.443
G01 X-150.742
G01 X-147.443
G01 X-130.742
G01 X-127.443
G01 X-110.743
G01 X-107.343
G01 X-90.743
G01 X-87.443
G01 X-70.743
G01 X-67.343
G01 X-50.743
G01 X-47.443
G01 X-30.743
G01 X-27.442
G01 X-10.742
G01 X-7.443
G01 X9.257
G01 X12.557
G01 X29.257
G01 X32.557
G01 X49.256
G01 X52.557
G01 X69.257
G01 X72.556
G01 X89.157
G01 X92.556
G01 X109.257
G01 X112.556
G01 X129.156
G01 X132.557
G01 X149.257
G01 X152.557
G01 X169.257
G01 X172.557
G01 X189.257
G01 X192.557
G01 X209.257
G01 X212.557
G01 X229.156
G01 X232.557
G01 X249.156
G01 X252.557
G01 X269.157
G01 X272.557
G01 X289.157
G01 X292.557
G01 X292.657 Y-121.7
G01 X289.057
G01 X272.657
G01 X269.157
G01 X252.656
G01 X249.156
G01 X232.656
G01 X229.156
G01 X212.757
G01 X209.057
G01 X192.757
G01 X189.156
G01 X172.757
G01 X169.057
G01 X152.757
G01 X149.156
G01 X132.757
G01 X129.156
G01 X112.757
G01 X109.056
G01 X92.757
G01 X89.157
G01 X72.757
G01 X69.157
G01 X52.756
G01 X49.157
G01 X32.757
G01 X29.157
G01 X12.757
G01 X9.156
G01 X-7.242
G01 X-10.843
G01 X-27.243
G01 X-30.843
G01 X-47.243
G01 X-50.842
G01 X-67.343
G01 X-70.843
G01 X-87.243
G01 X-90.843
G01 X-107.343
G01 X-110.843
G01 X-127.242
G01 X-130.843
G01 X-147.242
G01 X-150.843
G01 X-167.242
G01 X-170.843
G01 X-187.242
G01 X-190.843
G01 X-207.242
G01 X-210.843
G01 X-227.242
G01 X-230.843
G01 X-247.242
G01 X-250.843
G01 X-267.243
G01 X-270.843
G01 X-287.243
G01 X-290.843
G01 X-290.942 Y-121.599
G01 X-287.143
G01 X-270.942
G01 X-267.243
G01 X-250.943
G01 X-247.242
G01 X-230.943
G01 X-227.242
G01 X-210.943
G01 X-207.143
G01 X-190.943
G01 X-187.242
G01 X-170.943
G01 X-167.143
G01 X-150.943
G01 X-147.143
G01 X-130.943
G01 X-127.143
G01 X-110.943
G01 X-107.142
G01 X-90.943
G01 X-87.142
G01 X-70.943
G01 X-67.142
G01 X-50.943
G01 X-47.143
G01 X-30.942
G01 X-27.243
G01 X-10.943
G01 X-7.242
G01 X9.057
G01 X12.757
G01 X29.057
G01 X32.757
G01 X49.057
G01 X52.756
G01 X69.056
G01 X72.757
G01 X89.056
G01 X92.757
G01 X109.056
G01 X112.757
G01 X129.057
G01 X132.757
G01 X148.957
G01 X152.757
G01 X169.057
G01 X172.757
G01 X188.957
G01 X192.757
G01 X209.057
G01 X212.757
G01 X228.957
G01 X232.757
G01 X248.957
G01 X252.757
G01 X268.957
G01 X272.757
G01 X289.057
G01 X292.757
G01 X292.856 Y-121.5
G01 X288.957
G01 X272.856
G01 X268.957
G01 X252.857
G01 X248.957
G01 X232.857
G01 X228.957
G01 X212.857
G01 X208.957
G01 X192.857
G01 X188.957
G01 X172.857
G01 X168.957
G01 X152.857
G01 X148.957
G01 X132.857
G01 X128.957
G01 X112.857
G01 X108.957
G01 X92.857
G01 X88.957
G01 X72.857
G01 X68.957
G01 X52.857
G01 X48.957
G01 X32.856
G01 X28.957
G01 X12.857
G01 X8.957
G01 X-7.143
G01 X-11.043
G01 X-27.143
G01 X-31.043
G01 X-47.143
G01 X-51.043
G01 X-67.142
G01 X-71.043
G01 X-87.142
G01 X-91.043
G01 X-107.142
G01 X-111.043
G01 X-127.143
G01 X-131.043
G01 X-147.143
G01 X-151.043
G01 X-167.143
G01 X-171.043
G01 X-187.043
G01 X-191.043
G01 X-207.143
G01 X-211.043
G01 X-227.043
G01 X-231.043
G01 X-247.043
G01 X-251.043
G01 X-267.043
G01 X-271.043
G01 X-287.043
G01 X-291.043
G01  Y-121.4
G01 X-287.043
G01 X-271.143
G01 X-267.043
G01 X-251.143
G01 X-247.043
G01 X-231.143
G01 X-227.043
G01 X-211.143
G01 X-207.043
G01 X-191.143
G01 X-187.043
G01 X-171.143
G01 X-167.043
G01 X-151.143
G01 X-147.043
G01 X-131.143
G01 X-127.043
G01 X-111.142
G01 X-107.043
G01 X-91.142
G01 X-87.043
G01 X-71.142
G01 X-67.043
G01 X-51.143
G01 X-47.043
G01 X-31.143
G01 X-27.043
G01 X-11.143
G01 X-7.043
G01 X8.857
G01 X12.957
G01 X28.856
G01 X32.957
G01 X48.857
G01 X52.957
G01 X68.857
G01 X72.957
G01 X88.857
G01 X92.957
G01 X108.857
G01 X112.957
G01 X128.857
G01 X132.957
G01 X148.857
G01 X152.957
G01 X168.857
G01 X172.957
G01 X188.857
G01 X192.957
G01 X208.857
G01 X212.957
G01 X228.857
G01 X232.957
G01 X248.857
G01 X252.957
G01 X268.856
G01 X272.957
G01 X288.856
G01 X292.957
G01  Y-121.3
G01 X288.757
G01 X273.057
G01 X268.757
G01 X252.957
G01 X248.757
G01 X233.057
G01 X228.757
G01 X212.957
G01 X208.757
G01 X193.057
G01 X188.857
G01 X172.957
G01 X168.757
G01 X153.057
G01 X148.857
G01 X133.057
G01 X128.757
G01 X113.056
G01 X108.857
G01 X93.056
G01 X88.757
G01 X73.056
G01 X68.857
G01 X53.057
G01 X48.756
G01 X33.057
G01 X28.856
G01 X13.057
G01 X8.757
G01 X-6.943
G01 X-11.143
G01 X-26.942
G01 X-31.143
G01 X-46.943
G01 X-51.143
G01 X-66.943
G01 X-71.142
G01 X-86.943
G01 X-91.142
G01 X-106.943
G01 X-111.142
G01 X-126.943
G01 X-131.143
G01 X-146.943
G01 X-151.143
G01 X-166.943
G01 X-171.143
G01 X-186.943
G01 X-191.143
G01 X-206.943
G01 X-211.143
G01 X-226.943
G01 X-231.143
G01 X-246.943
G01 X-251.143
G01 X-266.942
G01 X-271.143
G01 X-286.942
G01 X-291.143
G01 X-291.243 Y-121.2
G01 X-286.942
G01 X-271.243
G01 X-266.843
G01 X-251.242
G01 X-246.943
G01 X-231.242
G01 X-226.943
G01 X-211.242
G01 X-206.843
G01 X-191.242
G01 X-186.943
G01 X-171.242
G01 X-166.943
G01 X-151.242
G01 X-146.943
G01 X-131.242
G01 X-126.943
G01 X-111.243
G01 X-106.943
G01 X-91.243
G01 X-86.943
G01 X-71.243
G01 X-66.943
G01 X-51.243
G01 X-46.943
G01 X-31.243
G01 X-26.942
G01 X-11.242
G01 X-6.943
G01 X8.757
G01 X13.057
G01 X28.757
G01 X33.057
G01 X48.756
G01 X53.057
G01 X68.757
G01 X73.056
G01 X88.757
G01 X93.056
G01 X108.757
G01 X113.056
G01 X128.757
G01 X133.057
G01 X148.757
G01 X153.057
G01 X168.757
G01 X173.057
G01 X188.757
G01 X193.057
G01 X208.757
G01 X213.057
G01 X228.757
G01 X233.057
G01 X248.757
G01 X253.057
G01 X268.757
G01 X273.057
G01 X288.757
G01 X293.057
G01 X293.157 Y-121.099
G01 X288.657
G01 X273.157
G01 X268.657
G01 X253.156
G01 X248.656
G01 X233.156
G01 X228.656
G01 X213.156
G01 X208.656
G01 X193.156
G01 X188.656
G01 X173.156
G01 X168.656
G01 X153.156
G01 X148.656
G01 X133.156
G01 X128.657
G01 X113.157
G01 X108.657
G01 X93.157
G01 X88.657
G01 X73.157
G01 X68.657
G01 X53.157
G01 X48.657
G01 X33.157
G01 X28.657
G01 X13.156
G01 X8.657
G01 X-6.843
G01 X-11.343
G01 X-26.843
G01 X-31.342
G01 X-46.842
G01 X-51.243
G01 X-66.843
G01 X-71.343
G01 X-86.843
G01 X-91.243
G01 X-106.843
G01 X-111.343
G01 X-126.843
G01 X-131.242
G01 X-146.843
G01 X-151.242
G01 X-166.843
G01 X-171.242
G01 X-186.843
G01 X-191.242
G01 X-206.843
G01 X-211.242
G01 X-226.843
G01 X-231.242
G01 X-246.843
G01 X-251.242
G01 X-266.843
G01 X-271.243
G01 X-286.843
G01 X-291.243
G01 X-291.343 Y-121
G01 X-286.743
G01 X-271.343
G01 X-266.843
G01 X-251.343
G01 X-246.742
G01 X-231.343
G01 X-226.843
G01 X-211.343
G01 X-206.843
G01 X-191.343
G01 X-186.843
G01 X-171.343
G01 X-166.843
G01 X-151.343
G01 X-146.843
G01 X-131.343
G01 X-126.843
G01 X-111.343
G01 X-106.843
G01 X-91.343
G01 X-86.843
G01 X-71.343
G01 X-66.843
G01 X-51.342
G01 X-46.842
G01 X-31.342
G01 X-26.843
G01 X-11.343
G01 X-6.843
G01 X8.657
G01 X13.156
G01 X28.657
G01 X33.157
G01 X48.657
G01 X53.157
G01 X68.657
G01 X73.157
G01 X88.657
G01 X93.157
G01 X108.657
G01 X113.157
G01 X128.657
G01 X133.156
G01 X148.656
G01 X153.156
G01 X168.656
G01 X173.156
G01 X188.656
G01 X193.156
G01 X208.656
G01 X213.156
G01 X228.656
G01 X233.156
G01 X248.656
G01 X253.156
G01 X268.657
G01 X273.157
G01 X288.657
G01 X293.157
G01  Y-120.9
G01 X288.557
G01 X273.257
G01 X268.557
G01 X253.257
G01 X248.557
G01 X233.257
G01 X228.557
G01 X213.257
G01 X208.557
G01 X193.257
G01 X188.557
G01 X173.257
G01 X168.557
G01 X153.257
G01 X148.557
G01 X133.257
G01 X128.556
G01 X113.257
G01 X108.556
G01 X93.257
G01 X88.556
G01 X73.257
G01 X68.556
G01 X53.256
G01 X48.657
G01 X33.256
G01 X28.557
G01 X13.257
G01 X8.657
G01 X-6.743
G01 X-11.343
G01 X-26.743
G01 X-31.342
G01 X-46.743
G01 X-51.443
G01 X-66.743
G01 X-71.343
G01 X-86.743
G01 X-91.443
G01 X-106.743
G01 X-111.343
G01 X-126.743
G01 X-131.343
G01 X-146.742
G01 X-151.343
G01 X-166.742
G01 X-171.343
G01 X-186.742
G01 X-191.343
G01 X-206.742
G01 X-211.343
G01 X-226.742
G01 X-231.343
G01 X-246.742
G01 X-251.343
G01 X-266.743
G01 X-271.343
G01 X-286.743
G01 X-291.343
G01 X-291.442 Y-120.8
G01 X-286.743
G01 X-271.442
G01 X-266.743
G01 X-251.443
G01 X-246.742
G01 X-231.443
G01 X-226.742
G01 X-211.443
G01 X-206.742
G01 X-191.443
G01 X-186.742
G01 X-171.443
G01 X-166.742
G01 X-151.443
G01 X-146.742
G01 X-131.443
G01 X-126.743
G01 X-111.443
G01 X-106.743
G01 X-91.443
G01 X-86.743
G01 X-71.443
G01 X-66.743
G01 X-51.443
G01 X-46.743
G01 X-31.443
G01 X-26.743
G01 X-11.443
G01 X-6.743
G01 X8.556
G01 X13.257
G01 X28.557
G01 X33.256
G01 X48.557
G01 X53.256
G01 X68.556
G01 X73.257
G01 X88.556
G01 X93.257
G01 X108.556
G01 X113.257
G01 X128.556
G01 X133.257
G01 X148.557
G01 X153.257
G01 X168.557
G01 X173.257
G01 X188.557
G01 X193.257
G01 X208.557
G01 X213.257
G01 X228.557
G01 X233.257
G01 X248.557
G01 X253.257
G01 X268.557
G01 X273.257
G01 X288.557
G01 X293.257
G01  Y-120.7
G01 X288.557
G01 X273.257
G01 X268.557
G01 X253.257
G01 X248.557
G01 X233.257
G01 X228.557
G01 X213.257
G01 X208.557
G01 X193.257
G01 X188.557
G01 X173.257
G01 X168.557
G01 X153.257
G01 X148.557
G01 X133.257
G01 X128.556
G01 X113.257
G01 X108.556
G01 X93.257
G01 X88.556
G01 X73.257
G01 X68.556
G01 X53.256
G01 X48.557
G01 X33.256
G01 X28.557
G01 X13.357
G01 X8.556
G01 X-6.743
G01 X-11.443
G01 X-26.643
G01 X-31.443
G01 X-46.743
G01 X-51.443
G01 X-66.642
G01 X-71.443
G01 X-86.743
G01 X-91.443
G01 X-106.642
G01 X-111.443
G01 X-126.642
G01 X-131.443
G01 X-146.643
G01 X-151.443
G01 X-166.643
G01 X-171.443
G01 X-186.643
G01 X-191.443
G01 X-206.643
G01 X-211.443
G01 X-226.643
G01 X-231.443
G01 X-246.643
G01 X-251.443
G01 X-266.643
G01 X-271.442
G01 X-286.643
G01 X-291.442
G01  Y-120.599
G01 X-286.643
G01 X-271.442
G01 X-266.643
G01 X-251.443
G01 X-246.643
G01 X-231.443
G01 X-226.643
G01 X-211.443
G01 X-206.643
G01 X-191.543
G01 X-186.643
G01 X-171.443
G01 X-166.643
G01 X-151.443
G01 X-146.643
G01 X-131.443
G01 X-126.642
G01 X-111.443
G01 X-106.642
G01 X-91.443
G01 X-86.642
G01 X-71.543
G01 X-66.642
G01 X-51.443
G01 X-46.643
G01 X-31.443
G01 X-26.643
G01 X-11.543
G01 X-6.642
G01 X8.556
G01 X13.357
G01 X28.457
G01 X33.357
G01 X48.557
G01 X53.357
G01 X68.457
G01 X73.357
G01 X88.556
G01 X93.357
G01 X108.457
G01 X113.357
G01 X128.457
G01 X133.357
G01 X148.457
G01 X153.257
G01 X168.457
G01 X173.357
G01 X188.457
G01 X193.257
G01 X208.457
G01 X213.357
G01 X228.457
G01 X233.257
G01 X248.457
G01 X253.357
G01 X268.457
G01 X273.257
G01 X288.457
G01 X293.356
G01  Y-120.5
G01 X288.457
G01 X273.356
G01 X268.457
G01 X253.357
G01 X248.457
G01 X233.357
G01 X228.457
G01 X213.357
G01 X208.457
G01 X193.357
G01 X188.457
G01 X173.357
G01 X168.457
G01 X153.357
G01 X148.457
G01 X133.357
G01 X128.457
G01 X113.357
G01 X108.457
G01 X93.357
G01 X88.457
G01 X73.357
G01 X68.457
G01 X53.357
G01 X48.457
G01 X33.357
G01 X28.457
G01 X13.357
G01 X8.457
G01 X-6.642
G01 X-11.543
G01 X-26.643
G01 X-31.543
G01 X-46.643
G01 X-51.543
G01 X-66.642
G01 X-71.443
G01 X-86.642
G01 X-91.543
G01 X-106.642
G01 X-111.543
G01 X-126.642
G01 X-131.543
G01 X-146.643
G01 X-151.543
G01 X-166.643
G01 X-171.543
G01 X-186.643
G01 X-191.443
G01 X-206.643
G01 X-211.543
G01 X-226.643
G01 X-231.443
G01 X-246.643
G01 X-251.543
G01 X-266.643
G01 X-271.442
G01 X-286.643
G01 X-291.442
G01 X-291.543 Y-120.4
G01 X-286.643
G01 X-271.543
G01 X-266.643
G01 X-251.543
G01 X-246.643
G01 X-231.543
G01 X-226.643
G01 X-211.543
G01 X-206.643
G01 X-191.543
G01 X-186.643
G01 X-171.543
G01 X-166.643
G01 X-151.543
G01 X-146.643
G01 X-131.543
G01 X-126.642
G01 X-111.543
G01 X-106.642
G01 X-91.543
G01 X-86.543
G01 X-71.543
G01 X-66.642
G01 X-51.543
G01 X-46.643
G01 X-31.543
G01 X-26.643
G01 X-11.543
G01 X-6.642
G01 X8.457
G01 X13.357
G01 X28.457
G01 X33.457
G01 X48.457
G01 X53.357
G01 X68.457
G01 X73.357
G01 X88.457
G01 X93.357
G01 X108.457
G01 X113.357
G01 X128.457
G01 X133.357
G01 X148.457
G01 X153.357
G01 X168.457
G01 X173.357
G01 X188.457
G01 X193.357
G01 X208.457
G01 X213.357
G01 X228.457
G01 X233.357
G01 X248.357
G01 X253.357
G01 X268.457
G01 X273.356
G01 X288.457
G01 X293.356
G01  Y-120.3
G01 X288.457
G01 X273.356
G01 X268.457
G01 X253.357
G01 X248.457
G01 X233.357
G01 X228.457
G01 X213.357
G01 X208.457
G01 X193.357
G01 X188.457
G01 X173.357
G01 X168.457
G01 X153.457
G01 X148.457
G01 X133.357
G01 X128.457
G01 X113.357
G01 X108.457
G01 X93.357
G01 X88.357
G01 X73.457
G01 X68.457
G01 X53.457
G01 X48.457
G01 X33.357
G01 X28.457
G01 X13.457
G01 X8.457
G01 X-6.642
G01 X-11.543
G01 X-26.643
G01 X-31.543
G01 X-46.543
G01 X-51.543
G01 X-66.642
G01 X-71.543
G01 X-86.642
G01 X-91.543
G01 X-106.642
G01 X-111.543
G01 X-126.642
G01 X-131.543
G01 X-146.543
G01 X-151.543
G01 X-166.543
G01 X-171.543
G01 X-186.543
G01 X-191.543
G01 X-206.543
G01 X-211.543
G01 X-226.643
G01 X-231.543
G01 X-246.543
G01 X-251.543
G01 X-266.643
G01 X-271.543
G01 X-286.543
G01 X-291.543
G01  Y-120.2
G01 X-286.643
G01 X-271.543
G01 X-266.543
G01 X-251.543
G01 X-246.643
G01 X-231.543
G01 X-226.543
G01 X-211.543
G01 X-206.543
G01 X-191.543
G01 X-186.643
G01 X-171.543
G01 X-166.543
G01 X-151.543
G01 X-146.643
G01 X-131.543
G01 X-126.543
G01 X-111.543
G01 X-106.543
G01 X-91.543
G01 X-86.642
G01 X-71.642
G01 X-66.543
G01 X-51.543
G01 X-46.643
G01 X-31.543
G01 X-26.643
G01 X-11.543
G01 X-6.543
G01 X8.457
G01 X13.357
G01 X28.457
G01 X33.357
G01 X48.457
G01 X53.357
G01 X68.457
G01 X73.357
G01 X88.457
G01 X93.457
G01 X108.457
G01 X113.457
G01 X128.357
G01 X133.357
G01 X148.457
G01 X153.357
G01 X168.357
G01 X173.457
G01 X188.457
G01 X193.357
G01 X208.357
G01 X213.357
G01 X228.357
G01 X233.357
G01 X248.457
G01 X253.357
G01 X268.457
G01 X273.356
G01 X288.356
G01 X293.356
G01 X293.457 Y-120.099
G01 X288.356
G01 X273.457
G01 X268.356
G01 X253.457
G01 X248.357
G01 X233.457
G01 X228.457
G01 X213.357
G01 X208.357
G01 X193.457
G01 X188.457
G01 X173.357
G01 X168.457
G01 X153.357
G01 X148.457
G01 X133.457
G01 X128.457
G01 X113.357
G01 X108.357
G01 X93.357
G01 X88.457
G01 X73.357
G01 X68.457
G01 X53.357
G01 X48.457
G01 X33.457
G01 X28.457
G01 X13.357
G01 X8.357
G01 X-6.543
G01 X-11.543
G01 X-26.543
G01 X-31.643
G01 X-46.643
G01 X-51.543
G01 X-66.543
G01 X-71.543
G01 X-86.543
G01 X-91.543
G01 X-106.543
G01 X-111.543
G01 X-126.642
G01 X-131.543
G01 X-146.543
G01 X-151.543
G01 X-166.643
G01 X-171.543
G01 X-186.543
G01 X-191.543
G01 X-206.643
G01 X-211.543
G01 X-226.543
G01 X-231.543
G01 X-246.543
G01 X-251.543
G01 X-266.543
G01 X-271.543
G01 X-286.543
G01 X-291.543
G01  Y-120
G01 X-286.543
G01 X-271.543
G01 X-266.543
G01 X-251.543
G01 X-246.543
G01 X-231.543
G01 X-226.543
G01 X-211.543
G01 X-206.543
G01 X-191.643
G01 X-186.543
G01 X-171.543
G01 X-166.543
G01 X-151.643
G01 X-146.543
G01 X-131.543
G01 X-126.543
G01 X-111.543
G01 X-106.642
G01 X-91.543
G01 X-86.642
G01 X-71.543
G01 X-66.642
G01 X-51.643
G01 X-46.543
G01 X-31.543
G01 X-26.543
G01 X-11.543
G01 X-6.642
G01 X8.457
G01 X13.457
G01 X28.457
G01 X33.357
G01 X48.357
G01 X53.457
G01 X68.357
G01 X73.457
G01 X88.357
G01 X93.357
G01 X108.457
G01 X113.357
G01 X128.457
G01 X133.357
G01 X148.357
G01 X153.457
G01 X168.357
G01 X173.357
G01 X188.357
G01 X193.457
G01 X208.457
G01 X213.357
G01 X228.457
G01 X233.357
G01 X248.457
G01 X253.357
G01 X268.457
G01 X273.356
G01 X288.457
G01 X293.356
G01  Y-119.9
G01 X288.356
G01 X273.356
G01 X268.356
G01 X253.357
G01 X248.357
G01 X233.357
G01 X228.357
G01 X213.457
G01 X208.357
G01 X193.357
G01 X188.457
G01 X173.457
G01 X168.457
G01 X153.357
G01 X148.457
G01 X133.357
G01 X128.357
G01 X113.457
G01 X108.457
G01 X93.457
G01 X88.457
G01 X73.457
G01 X68.457
G01 X53.457
G01 X48.457
G01 X33.457
G01 X28.356
G01 X13.457
G01 X8.457
G01 X-6.642
G01 X-11.643
G01 X-26.643
G01 X-31.543
G01 X-46.543
G01 X-51.543
G01 X-66.543
G01 X-71.642
G01 X-86.543
G01 X-91.543
G01 X-106.543
G01 X-111.642
G01 X-126.543
G01 X-131.543
G01 X-146.543
G01 X-151.543
G01 X-166.543
G01 X-171.543
G01 X-186.543
G01 X-191.543
G01 X-206.543
G01 X-211.543
G01 X-226.543
G01 X-231.543
G01 X-246.543
G01 X-251.543
G01 X-266.543
G01 X-271.543
G01 X-286.543
G01 X-291.543
G01  Y-119.8
G01 X-286.543
G01 X-271.543
G01 X-266.543
G01 X-251.543
G01 X-246.643
G01 X-231.543
G01 X-226.543
G01 X-211.543
G01 X-206.643
G01 X-191.543
G01 X-186.543
G01 X-171.543
G01 X-166.643
G01 X-151.543
G01 X-146.643
G01 X-131.543
G01 X-126.642
G01 X-111.543
G01 X-106.543
G01 X-91.543
G01 X-86.543
G01 X-71.543
G01 X-66.543
G01 X-51.543
G01 X-46.643
G01 X-31.643
G01 X-26.543
G01 X-11.543
G01 X-6.543
G01 X8.357
G01 X13.357
G01 X28.457
G01 X33.357
G01 X48.357
G01 X53.357
G01 X68.457
G01 X73.357
G01 X88.357
G01 X93.457
G01 X108.357
G01 X113.357
G01 X128.357
G01 X133.457
G01 X148.357
G01 X153.357
G01 X168.357
G01 X173.357
G01 X188.357
G01 X193.357
G01 X208.357
G01 X213.357
G01 X228.357
G01 X233.457
G01 X248.357
G01 X253.357
G01 X268.356
G01 X273.457
G01 X288.356
G01 X293.356
G01  Y-119.7
G01 X288.457
G01 X273.356
G01 X268.457
G01 X253.357
G01 X248.457
G01 X233.357
G01 X228.457
G01 X213.357
G01 X208.457
G01 X193.457
G01 X188.457
G01 X173.357
G01 X168.357
G01 X153.457
G01 X148.457
G01 X133.357
G01 X128.457
G01 X113.457
G01 X108.457
G01 X93.357
G01 X88.457
G01 X73.457
G01 X68.457
G01 X53.457
G01 X48.457
G01 X33.457
G01 X28.457
G01 X13.457
G01 X8.457
G01 X-6.543
G01 X-11.543
G01 X-26.543
G01 X-31.543
G01 X-46.643
G01 X-51.543
G01 X-66.543
G01 X-71.543
G01 X-86.642
G01 X-91.543
G01 X-106.543
G01 X-111.543
G01 X-126.543
G01 X-131.543
G01 X-146.543
G01 X-151.543
G01 X-166.543
G01 X-171.543
G01 X-186.543
G01 X-191.543
G01 X-206.543
G01 X-211.543
G01 X-226.543
G01 X-231.543
G01 X-246.543
G01 X-251.543
G01 X-266.543
G01 X-271.543
G01 X-286.543
G01 X-291.543
G01  Y-119.599
G01 X-286.643
G01 X-271.543
G01 X-266.543
G01 X-251.543
G01 X-246.543
G01 X-231.543
G01 X-226.543
G01 X-211.543
G01 X-206.543
G01 X-191.543
G01 X-186.543
G01 X-171.543
G01 X-166.543
G01 X-151.543
G01 X-146.543
G01 X-131.543
G01 X-126.543
G01 X-111.543
G01 X-106.642
G01 X-91.543
G01 X-86.543
G01 X-71.543
G01 X-66.642
G01 X-51.543
G01 X-46.543
G01 X-31.543
G01 X-26.643
G01 X-11.543
G01 X-6.642
G01 X8.457
G01 X13.357
G01 X28.457
G01 X33.357
G01 X48.457
G01 X53.357
G01 X68.457
G01 X73.357
G01 X88.457
G01 X93.357
G01 X108.457
G01 X113.357
G01 X128.457
G01 X133.357
G01 X148.457
G01 X153.357
G01 X168.457
G01 X173.357
G01 X188.457
G01 X193.357
G01 X208.357
G01 X213.357
G01 X228.457
G01 X233.357
G01 X248.357
G01 X253.357
G01 X268.457
G01 X273.356
G01 X288.356
G01 X293.356
G01  Y-119.5
G01 X288.457
G01 X273.356
G01 X268.457
G01 X253.357
G01 X248.457
G01 X233.357
G01 X228.457
G01 X213.357
G01 X208.457
G01 X193.357
G01 X188.457
G01 X173.357
G01 X168.457
G01 X153.357
G01 X148.457
G01 X133.357
G01 X128.457
G01 X113.357
G01 X108.457
G01 X93.357
G01 X88.457
G01 X73.357
G01 X68.457
G01 X53.357
G01 X48.457
G01 X33.357
G01 X28.457
G01 X13.357
G01 X8.457
G01 X-6.642
G01 X-11.543
G01 X-26.643
G01 X-31.543
G01 X-46.643
G01 X-51.543
G01 X-66.642
G01 X-71.543
G01 X-86.642
G01 X-91.543
G01 X-106.642
G01 X-111.443
G01 X-126.642
G01 X-131.543
G01 X-146.643
G01 X-151.543
G01 X-166.643
G01 X-171.543
G01 X-186.643
G01 X-191.543
G01 X-206.643
G01 X-211.543
G01 X-226.643
G01 X-231.543
G01 X-246.643
G01 X-251.543
G01 X-266.543
G01 X-271.543
G01 X-286.543
G01 X-291.543
G01  Y-119.4
G01 X-286.643
G01 X-271.543
G01 X-266.643
G01 X-251.543
G01 X-246.643
G01 X-231.543
G01 X-226.643
G01 X-211.543
G01 X-206.643
G01 X-191.543
G01 X-186.643
G01 X-171.543
G01 X-166.643
G01 X-151.543
G01 X-146.643
G01 X-131.543
G01 X-126.642
G01 X-111.543
G01 X-106.642
G01 X-91.543
G01 X-86.642
G01 X-71.543
G01 X-66.642
G01 X-51.543
G01 X-46.643
G01 X-31.543
G01 X-26.643
G01 X-11.543
G01 X-6.642
G01 X8.457
G01 X13.357
G01 X28.457
G01 X33.357
G01 X48.457
G01 X53.357
G01 X68.457
G01 X73.357
G01 X88.457
G01 X93.357
G01 X108.457
G01 X113.357
G01 X128.457
G01 X133.357
G01 X148.457
G01 X153.357
G01 X168.457
G01 X173.357
G01 X188.457
G01 X193.357
G01 X208.457
G01 X213.357
G01 X228.457
G01 X233.357
G01 X248.457
G01 X253.357
G01 X268.457
G01 X273.356
G01 X288.457
G01 X293.356
G01  Y-119.3
G01 X288.457
G01 X273.356
G01 X268.457
G01 X253.357
G01 X248.457
G01 X233.357
G01 X228.457
G01 X213.357
G01 X208.457
G01 X193.357
G01 X188.457
G01 X173.357
G01 X168.457
G01 X153.357
G01 X148.457
G01 X133.357
G01 X128.457
G01 X113.357
G01 X108.457
G01 X93.357
G01 X88.457
G01 X73.357
G01 X68.457
G01 X53.357
G01 X48.457
G01 X33.357
G01 X28.557
G01 X13.357
G01 X8.457
G01 X-6.642
G01 X-11.443
G01 X-26.643
G01 X-31.543
G01 X-46.643
G01 X-51.443
G01 X-66.642
G01 X-71.543
G01 X-86.642
G01 X-91.443
G01 X-106.642
G01 X-111.543
G01 X-126.642
G01 X-131.443
G01 X-146.643
G01 X-151.443
G01 X-166.643
G01 X-171.443
G01 X-186.643
G01 X-191.443
G01 X-206.643
G01 X-211.443
G01 X-226.643
G01 X-231.443
G01 X-246.643
G01 X-251.443
G01 X-266.643
G01 X-271.442
G01 X-286.643
G01 X-291.442
G01  Y-119.2
G01 X-286.643
G01 X-271.442
G01 X-266.643
G01 X-251.443
G01 X-246.643
G01 X-231.443
G01 X-226.643
G01 X-211.443
G01 X-206.643
G01 X-191.443
G01 X-186.643
G01 X-171.443
G01 X-166.643
G01 X-151.443
G01 X-146.643
G01 X-131.443
G01 X-126.642
G01 X-111.443
G01 X-106.642
G01 X-91.443
G01 X-86.642
G01 X-71.443
G01 X-66.642
G01 X-51.443
G01 X-46.743
G01 X-31.443
G01 X-26.643
G01 X-11.443
G01 X-6.743
G01 X8.556
G01 X13.357
G01 X28.557
G01 X33.256
G01 X48.557
G01 X53.256
G01 X68.556
G01 X73.257
G01 X88.556
G01 X93.257
G01 X108.556
G01 X113.257
G01 X128.556
G01 X133.257
G01 X148.557
G01 X153.257
G01 X168.557
G01 X173.257
G01 X188.557
G01 X193.257
G01 X208.557
G01 X213.257
G01 X228.557
G01 X233.257
G01 X248.557
G01 X253.257
G01 X268.457
G01 X273.257
G01 X288.557
G01 X293.257
G01  Y-119.099
G01 X288.557
G01 X273.257
G01 X268.557
G01 X253.257
G01 X248.557
G01 X233.257
G01 X228.557
G01 X213.257
G01 X208.557
G01 X193.257
G01 X188.557
G01 X173.257
G01 X168.557
G01 X153.257
G01 X148.557
G01 X133.257
G01 X128.556
G01 X113.257
G01 X108.556
G01 X93.257
G01 X88.556
G01 X73.257
G01 X68.556
G01 X53.256
G01 X48.557
G01 X33.256
G01 X28.557
G01 X13.257
G01 X8.556
G01 X-6.743
G01 X-11.443
G01 X-26.743
G01 X-31.443
G01 X-46.743
G01 X-51.443
G01 X-66.743
G01 X-71.443
G01 X-86.743
G01 X-91.443
G01 X-106.743
G01 X-111.443
G01 X-126.743
G01 X-131.443
G01 X-146.742
G01 X-151.443
G01 X-166.742
G01 X-171.443
G01 X-186.742
G01 X-191.443
G01 X-206.742
G01 X-211.443
G01 X-226.742
G01 X-231.443
G01 X-246.742
G01 X-251.443
G01 X-266.743
G01 X-271.442
G01 X-286.743
G01 X-291.442
G01 X-291.343 Y-119
G01 X-286.743
G01 X-271.343
G01 X-266.743
G01 X-251.343
G01 X-246.742
G01 X-231.343
G01 X-226.742
G01 X-211.343
G01 X-206.742
G01 X-191.343
G01 X-186.742
G01 X-171.343
G01 X-166.742
G01 X-151.343
G01 X-146.742
G01 X-131.443
G01 X-126.743
G01 X-111.343
G01 X-106.743
G01 X-91.443
G01 X-86.743
G01 X-71.343
G01 X-66.743
G01 X-51.443
G01 X-46.743
G01 X-31.342
G01 X-26.743
G01 X-11.443
G01 X-6.743
G01 X8.657
G01 X13.257
G01 X28.557
G01 X33.256
G01 X48.557
G01 X53.256
G01 X68.556
G01 X73.257
G01 X88.657
G01 X93.257
G01 X108.556
G01 X113.257
G01 X128.556
G01 X133.257
G01 X148.557
G01 X153.257
G01 X168.557
G01 X173.257
G01 X188.557
G01 X193.257
G01 X208.557
G01 X213.257
G01 X228.557
G01 X233.257
G01 X248.557
G01 X253.257
G01 X268.557
G01 X273.157
G01 X288.557
G01 X293.257
G01 X293.157 Y-118.9
G01 X288.657
G01 X273.157
G01 X268.657
G01 X253.156
G01 X248.656
G01 X233.156
G01 X228.656
G01 X213.156
G01 X208.656
G01 X193.156
G01 X188.656
G01 X173.156
G01 X168.656
G01 X153.156
G01 X148.656
G01 X133.156
G01 X128.657
G01 X113.157
G01 X108.657
G01 X93.157
G01 X88.657
G01 X73.157
G01 X68.657
G01 X53.157
G01 X48.657
G01 X33.157
G01 X28.657
G01 X13.156
G01 X8.657
G01 X-6.843
G01 X-11.343
G01 X-26.843
G01 X-31.342
G01 X-46.842
G01 X-51.342
G01 X-66.843
G01 X-71.343
G01 X-86.843
G01 X-91.343
G01 X-106.843
G01 X-111.343
G01 X-126.843
G01 X-131.343
G01 X-146.843
G01 X-151.343
G01 X-166.843
G01 X-171.343
G01 X-186.843
G01 X-191.343
G01 X-206.843
G01 X-211.343
G01 X-226.742
G01 X-231.343
G01 X-246.843
G01 X-251.343
G01 X-266.743
G01 X-271.343
G01 X-286.743
G01 X-291.343
G01 X-291.243 Y-118.8
G01 X-286.843
G01 X-271.243
G01 X-266.843
G01 X-251.242
G01 X-246.843
G01 X-231.242
G01 X-226.843
G01 X-211.242
G01 X-206.843
G01 X-191.242
G01 X-186.843
G01 X-171.242
G01 X-166.843
G01 X-151.242
G01 X-146.843
G01 X-131.242
G01 X-126.843
G01 X-111.243
G01 X-106.843
G01 X-91.243
G01 X-86.843
G01 X-71.243
G01 X-66.843
G01 X-51.342
G01 X-46.842
G01 X-31.243
G01 X-26.843
G01 X-11.343
G01 X-6.843
G01 X8.657
G01 X13.156
G01 X28.657
G01 X33.157
G01 X48.657
G01 X53.157
G01 X68.657
G01 X73.157
G01 X88.657
G01 X93.157
G01 X108.657
G01 X113.157
G01 X128.657
G01 X133.156
G01 X148.656
G01 X153.156
G01 X168.656
G01 X173.156
G01 X188.656
G01 X193.156
G01 X208.656
G01 X213.156
G01 X228.656
G01 X233.156
G01 X248.656
G01 X253.156
G01 X268.657
G01 X273.157
G01 X288.657
G01 X293.157
G01 X293.057 Y-118.7
G01 X288.757
G01 X273.057
G01 X268.757
G01 X253.057
G01 X248.757
G01 X233.057
G01 X228.757
G01 X213.057
G01 X208.757
G01 X193.057
G01 X188.757
G01 X173.057
G01 X168.757
G01 X153.057
G01 X148.757
G01 X133.057
G01 X128.757
G01 X113.056
G01 X108.757
G01 X93.056
G01 X88.757
G01 X73.056
G01 X68.757
G01 X53.057
G01 X48.756
G01 X33.057
G01 X28.757
G01 X13.057
G01 X8.757
G01 X-6.943
G01 X-11.242
G01 X-26.942
G01 X-31.243
G01 X-46.943
G01 X-51.243
G01 X-66.943
G01 X-71.243
G01 X-86.943
G01 X-91.243
G01 X-106.943
G01 X-111.243
G01 X-126.943
G01 X-131.242
G01 X-146.943
G01 X-151.242
G01 X-166.943
G01 X-171.242
G01 X-186.943
G01 X-191.242
G01 X-206.943
G01 X-211.242
G01 X-226.943
G01 X-231.242
G01 X-246.843
G01 X-251.242
G01 X-266.942
G01 X-271.243
G01 X-286.843
G01 X-291.243
G01 X-291.143 Y-118.599
G01 X-286.942
G01 X-271.143
G01 X-266.942
G01 X-251.143
G01 X-246.943
G01 X-231.143
G01 X-226.943
G01 X-211.143
G01 X-206.943
G01 X-191.143
G01 X-186.943
G01 X-171.143
G01 X-166.943
G01 X-151.143
G01 X-146.943
G01 X-131.242
G01 X-126.943
G01 X-111.142
G01 X-106.943
G01 X-91.243
G01 X-86.943
G01 X-71.142
G01 X-66.943
G01 X-51.143
G01 X-46.943
G01 X-31.143
G01 X-26.942
G01 X-11.143
G01 X-6.943
G01 X8.857
G01 X13.057
G01 X28.856
G01 X33.057
G01 X48.857
G01 X52.957
G01 X68.857
G01 X73.056
G01 X88.757
G01 X92.957
G01 X108.857
G01 X113.056
G01 X128.757
G01 X132.957
G01 X148.857
G01 X152.957
G01 X168.757
G01 X172.957
G01 X188.857
G01 X192.957
G01 X208.757
G01 X212.957
G01 X228.757
G01 X232.957
G01 X248.757
G01 X252.957
G01 X268.757
G01 X272.957
G01 X288.757
G01 X292.957
G01  Y-118.5
G01 X288.856
G01 X272.957
G01 X268.856
G01 X252.957
G01 X248.857
G01 X232.957
G01 X228.857
G01 X212.957
G01 X208.857
G01 X192.957
G01 X188.857
G01 X172.957
G01 X168.857
G01 X152.957
G01 X148.857
G01 X132.957
G01 X128.857
G01 X112.957
G01 X108.857
G01 X92.957
G01 X88.857
G01 X72.957
G01 X68.857
G01 X52.957
G01 X48.857
G01 X32.957
G01 X28.856
G01 X12.957
G01 X8.857
G01 X-7.043
G01 X-11.143
G01 X-27.043
G01 X-31.143
G01 X-47.043
G01 X-51.143
G01 X-67.043
G01 X-71.142
G01 X-87.043
G01 X-91.043
G01 X-107.043
G01 X-111.142
G01 X-127.043
G01 X-131.043
G01 X-147.043
G01 X-151.143
G01 X-167.043
G01 X-171.043
G01 X-187.043
G01 X-191.143
G01 X-207.043
G01 X-211.043
G01 X-227.043
G01 X-231.143
G01 X-247.043
G01 X-251.043
G01 X-267.043
G01 X-271.043
G01 X-287.043
G01 X-291.043
G01  Y-118.4
G01 X-287.143
G01 X-271.043
G01 X-267.143
G01 X-251.043
G01 X-247.143
G01 X-231.043
G01 X-227.143
G01 X-211.043
G01 X-207.143
G01 X-191.043
G01 X-187.143
G01 X-171.043
G01 X-167.143
G01 X-151.043
G01 X-147.143
G01 X-131.043
G01 X-127.143
G01 X-111.043
G01 X-107.142
G01 X-91.043
G01 X-87.142
G01 X-71.043
G01 X-67.142
G01 X-51.043
G01 X-47.143
G01 X-31.043
G01 X-27.143
G01 X-11.043
G01 X-7.143
G01 X8.957
G01 X12.857
G01 X28.957
G01 X32.856
G01 X48.957
G01 X52.857
G01 X68.957
G01 X72.857
G01 X88.957
G01 X92.857
G01 X108.957
G01 X112.857
G01 X128.957
G01 X132.857
G01 X148.957
G01 X152.857
G01 X168.957
G01 X172.857
G01 X188.957
G01 X192.857
G01 X208.957
G01 X212.857
G01 X228.957
G01 X232.857
G01 X248.957
G01 X252.857
G01 X268.957
G01 X272.856
G01 X288.957
G01 X292.856
G01 X292.757 Y-118.3
G01 X289.057
G01 X272.757
G01 X269.057
G01 X252.757
G01 X249.057
G01 X232.757
G01 X229.057
G01 X212.757
G01 X209.057
G01 X192.757
G01 X189.057
G01 X172.757
G01 X169.057
G01 X152.757
G01 X149.057
G01 X132.757
G01 X129.057
G01 X112.757
G01 X109.056
G01 X92.757
G01 X89.056
G01 X72.757
G01 X69.056
G01 X52.756
G01 X49.057
G01 X32.757
G01 X29.057
G01 X12.757
G01 X9.057
G01 X-7.143
G01 X-10.943
G01 X-27.243
G01 X-30.942
G01 X-47.143
G01 X-50.943
G01 X-67.142
G01 X-70.943
G01 X-87.142
G01 X-90.943
G01 X-107.142
G01 X-110.943
G01 X-127.143
G01 X-130.943
G01 X-147.143
G01 X-150.943
G01 X-167.143
G01 X-170.943
G01 X-187.143
G01 X-190.943
G01 X-207.242
G01 X-210.943
G01 X-227.143
G01 X-230.943
G01 X-247.242
G01 X-250.943
G01 X-267.143
G01 X-270.942
G01 X-287.243
G01 X-290.942
G01 X-290.843 Y-118.2
G01 X-287.243
G01 X-270.843
G01 X-267.343
G01 X-250.843
G01 X-247.242
G01 X-230.843
G01 X-227.343
G01 X-210.843
G01 X-207.242
G01 X-190.843
G01 X-187.343
G01 X-170.843
G01 X-167.343
G01 X-150.843
G01 X-147.343
G01 X-130.843
G01 X-127.343
G01 X-110.843
G01 X-107.343
G01 X-90.843
G01 X-87.343
G01 X-70.843
G01 X-67.343
G01 X-50.842
G01 X-47.342
G01 X-30.843
G01 X-27.243
G01 X-10.843
G01 X-7.343
G01 X9.156
G01 X12.757
G01 X29.157
G01 X32.657
G01 X49.157
G01 X52.756
G01 X69.157
G01 X72.657
G01 X89.157
G01 X92.657
G01 X109.157
G01 X112.657
G01 X129.156
G01 X132.656
G01 X149.057
G01 X152.656
G01 X169.057
G01 X172.656
G01 X189.057
G01 X192.656
G01 X209.057
G01 X212.656
G01 X229.057
G01 X232.656
G01 X249.057
G01 X252.656
G01 X269.057
G01 X272.657
G01 X289.157
G01 X292.657
G01 X292.557 Y-118.099
G01 X289.157
G01 X272.557
G01 X269.257
G01 X252.557
G01 X249.257
G01 X232.557
G01 X229.257
G01 X212.557
G01 X209.257
G01 X192.557
G01 X189.257
G01 X172.557
G01 X169.257
G01 X152.557
G01 X149.257
G01 X132.557
G01 X129.257
G01 X112.556
G01 X109.257
G01 X92.556
G01 X89.257
G01 X72.657
G01 X69.257
G01 X52.557
G01 X49.256
G01 X32.657
G01 X29.257
G01 X12.557
G01 X9.257
G01 X-7.343
G01 X-10.742
G01 X-27.442
G01 X-30.743
G01 X-47.342
G01 X-50.743
G01 X-67.343
G01 X-70.743
G01 X-87.343
G01 X-90.743
G01 X-107.343
G01 X-110.743
G01 X-127.343
G01 X-130.742
G01 X-147.343
G01 X-150.742
G01 X-167.343
G01 X-170.742
G01 X-187.343
G01 X-190.742
G01 X-207.343
G01 X-210.742
G01 X-227.343
G01 X-230.742
G01 X-247.343
G01 X-250.742
G01 X-267.343
G01 X-270.743
G01 X-287.343
G01 X-290.743
G01 X-290.643 Y-118
G01 X-287.543
G01 X-270.643
G01 X-267.543
G01 X-250.643
G01 X-247.543
G01 X-230.643
G01 X-227.543
G01 X-210.643
G01 X-207.543
G01 X-190.643
G01 X-187.543
G01 X-170.643
G01 X-167.543
G01 X-150.643
G01 X-147.543
G01 X-130.643
G01 X-127.543
G01 X-110.642
G01 X-107.543
G01 X-90.642
G01 X-87.543
G01 X-70.642
G01 X-67.543
G01 X-50.643
G01 X-47.543
G01 X-30.643
G01 X-27.543
G01 X-10.643
G01 X-7.543
G01 X9.357
G01 X12.457
G01 X29.356
G01 X32.457
G01 X49.357
G01 X52.457
G01 X69.357
G01 X72.457
G01 X89.357
G01 X92.457
G01 X109.357
G01 X112.457
G01 X129.357
G01 X132.457
G01 X149.357
G01 X152.457
G01 X169.357
G01 X172.457
G01 X189.357
G01 X192.457
G01 X209.357
G01 X212.457
G01 X229.357
G01 X232.457
G01 X249.357
G01 X252.457
G01 X269.356
G01 X272.457
G01 X289.356
G01 X292.457
G01 X292.356 Y-117.9
G01 X289.557
G01 X272.356
G01 X269.557
G01 X252.357
G01 X249.457
G01 X232.357
G01 X229.457
G01 X212.357
G01 X209.457
G01 X192.357
G01 X189.457
G01 X172.357
G01 X169.457
G01 X152.357
G01 X149.457
G01 X132.357
G01 X129.457
G01 X112.357
G01 X109.457
G01 X92.357
G01 X89.457
G01 X72.357
G01 X69.457
G01 X52.357
G01 X49.457
G01 X32.356
G01 X29.457
G01 X12.357
G01 X9.457
G01 X-7.643
G01 X-10.543
G01 X-27.643
G01 X-30.543
G01 X-47.643
G01 X-50.543
G01 X-67.642
G01 X-70.543
G01 X-87.642
G01 X-90.443
G01 X-107.642
G01 X-110.543
G01 X-127.643
G01 X-130.543
G01 X-147.643
G01 X-150.443
G01 X-167.643
G01 X-170.443
G01 X-187.643
G01 X-190.443
G01 X-207.643
G01 X-210.443
G01 X-227.643
G01 X-230.443
G01 X-247.643
G01 X-250.443
G01 X-267.643
G01 X-270.442
G01 X-287.643
G01 X-290.442
G01 X-290.343 Y-117.8
G01 X-287.843
G01 X-270.343
G01 X-267.843
G01 X-250.343
G01 X-247.843
G01 X-230.343
G01 X-227.843
G01 X-210.343
G01 X-207.843
G01 X-190.343
G01 X-187.843
G01 X-170.343
G01 X-167.843
G01 X-150.343
G01 X-147.843
G01 X-130.343
G01 X-127.843
G01 X-110.343
G01 X-107.843
G01 X-90.343
G01 X-87.843
G01 X-70.343
G01 X-67.843
G01 X-50.342
G01 X-47.842
G01 X-30.343
G01 X-27.843
G01 X-10.343
G01 X-7.843
G01 X9.656
G01 X12.156
G01 X29.657
G01 X32.157
G01 X49.657
G01 X52.157
G01 X69.657
G01 X72.157
G01 X89.657
G01 X92.157
G01 X109.657
G01 X112.157
G01 X129.656
G01 X132.156
G01 X149.656
G01 X152.156
G01 X169.656
G01 X172.057
G01 X189.656
G01 X192.156
G01 X209.656
G01 X212.156
G01 X229.656
G01 X232.156
G01 X249.656
G01 X252.156
G01 X269.557
G01 X272.157
G01 X289.557
G01 X292.157
G01 X291.957 Y-117.7
G01 X289.856
G01 X271.957
G01 X269.856
G01 X252.057
G01 X249.857
G01 X231.957
G01 X229.857
G01 X212.057
G01 X209.857
G01 X192.057
G01 X189.857
G01 X172.057
G01 X169.857
G01 X152.057
G01 X149.857
G01 X132.057
G01 X129.857
G01 X112.056
G01 X109.857
G01 X92.056
G01 X89.857
G01 X72.056
G01 X69.857
G01 X52.057
G01 X49.857
G01 X32.057
G01 X29.856
G01 X12.057
G01 X9.857
G01 X-7.943
G01 X-10.143
G01 X-27.942
G01 X-30.143
G01 X-47.943
G01 X-50.143
G01 X-67.943
G01 X-70.142
G01 X-87.943
G01 X-90.142
G01 X-107.943
G01 X-110.142
G01 X-127.943
G01 X-130.143
G01 X-147.943
G01 X-150.143
G01 X-167.943
G01 X-170.143
G01 X-187.943
G01 X-190.143
G01 X-207.943
G01 X-210.143
G01 X-227.943
G01 X-230.143
G01 X-247.943
G01 X-250.143
G01 X-267.942
G01 X-270.143
G01 X-287.942
G01 X-290.143
G01 X-289.942 Y-117.599
G01 X-288.243
G01 X-269.942
G01 X-268.243
G01 X-249.943
G01 X-248.242
G01 X-229.943
G01 X-228.242
G01 X-209.943
G01 X-208.242
G01 X-189.943
G01 X-188.242
G01 X-169.943
G01 X-168.242
G01 X-149.943
G01 X-148.242
G01 X-129.943
G01 X-128.242
G01 X-109.943
G01 X-108.243
G01 X-89.943
G01 X-88.243
G01 X-69.943
G01 X-68.243
G01 X-49.943
G01 X-48.243
G01 X-29.942
G01 X-28.243
G01 X-9.943
G01 X-8.242
G01 X10.057
G01 X11.757
G01 X30.057
G01 X31.757
G01 X50.057
G01 X51.756
G01 X70.056
G01 X71.757
G01 X90.056
G01 X91.757
G01 X110.056
G01 X111.757
G01 X130.057
G01 X131.757
G01 X150.057
G01 X151.757
G01 X170.057
G01 X171.757
G01 X190.057
G01 X191.757
G01 X210.057
G01 X211.757
G01 X230.057
G01 X231.757
G01 X250.057
G01 X251.757
G01 X270.057
G01 X271.757
G01 X290.057
G01 X291.757
G01 X291.356 Y-117.5
G01 X290.457
G01 X271.356
G01 X270.457
G01 X251.357
G01 X250.457
G01 X231.357
G01 X230.457
G01 X211.357
G01 X210.457
G01 X191.357
G01 X190.457
G01 X171.357
G01 X170.557
G01 X151.357
G01 X150.457
G01 X131.357
G01 X130.557
G01 X111.357
G01 X110.457
G01 X91.357
G01 X90.556
G01 X71.457
G01 X70.457
G01 X51.357
G01 X50.557
G01 X31.457
G01 X30.557
G01 X11.457
G01 X10.557
G01 X-8.543
G01 X-9.543
G01 X-28.543
G01 X-29.442
G01 X-48.543
G01 X-49.443
G01 X-68.543
G01 X-69.443
G01 X-88.543
G01 X-89.443
G01 X-108.543
G01 X-109.443
G01 X-128.543
G01 X-129.443
G01 X-148.543
G01 X-149.443
G01 X-168.543
G01 X-169.443
G01 X-188.543
G01 X-189.443
G01 X-208.543
G01 X-209.443
G01 X-228.543
G01 X-229.443
G01 X-248.543
G01 X-249.443
G01 X-268.543
G01 X-269.442
G01 X-288.543
G01 X-289.442
G01 X-289.643 Y-102.4
G01 X-288.543
G01 X-269.643
G01 X-268.543
G01 X-249.643
G01 X-248.543
G01 X-229.643
G01 X-228.643
G01 X-209.643
G01 X-208.543
G01 X-189.643
G01 X-188.643
G01 X-169.643
G01 X-168.543
G01 X-149.643
G01 X-148.643
G01 X-129.643
G01 X-128.643
G01 X-109.642
G01 X-108.642
G01 X-89.642
G01 X-88.543
G01 X-69.642
G01 X-68.642
G01 X-49.643
G01 X-48.543
G01 X-29.643
G01 X-28.643
G01 X-9.643
G01 X-8.643
G01 X10.357
G01 X11.357
G01 X30.356
G01 X31.356
G01 X50.357
G01 X51.357
G01 X70.357
G01 X71.357
G01 X90.357
G01 X91.357
G01 X110.357
G01 X111.357
G01 X130.357
G01 X131.357
G01 X150.357
G01 X151.357
G01 X170.357
G01 X171.357
G01 X190.357
G01 X191.357
G01 X210.357
G01 X211.357
G01 X230.357
G01 X231.357
G01 X250.357
G01 X251.357
G01 X270.356
G01 X271.356
G01 X290.356
G01 X291.356
G01 X291.757 Y-102.3
G01 X290.057
G01 X271.757
G01 X270.057
G01 X251.757
G01 X250.057
G01 X231.757
G01 X230.057
G01 X211.757
G01 X210.057
G01 X191.757
G01 X190.057
G01 X171.757
G01 X170.057
G01 X151.757
G01 X150.057
G01 X131.757
G01 X130.057
G01 X111.757
G01 X110.056
G01 X91.757
G01 X90.056
G01 X71.857
G01 X70.056
G01 X51.756
G01 X50.057
G01 X31.856
G01 X30.057
G01 X11.857
G01 X10.057
G01 X-8.143
G01 X-9.943
G01 X-28.143
G01 X-29.942
G01 X-48.143
G01 X-49.943
G01 X-68.142
G01 X-69.943
G01 X-88.142
G01 X-89.943
G01 X-108.142
G01 X-109.943
G01 X-128.143
G01 X-129.843
G01 X-148.143
G01 X-149.843
G01 X-168.143
G01 X-169.843
G01 X-188.143
G01 X-189.843
G01 X-208.143
G01 X-209.843
G01 X-228.143
G01 X-229.843
G01 X-248.143
G01 X-249.843
G01 X-268.143
G01 X-269.843
G01 X-288.143
G01 X-289.843
G01 X-290.143 Y-102.2
G01 X-288.043
G01 X-270.143
G01 X-268.043
G01 X-250.143
G01 X-248.043
G01 X-230.143
G01 X-228.043
G01 X-210.143
G01 X-208.043
G01 X-190.143
G01 X-188.043
G01 X-170.143
G01 X-168.043
G01 X-150.143
G01 X-148.043
G01 X-130.143
G01 X-128.043
G01 X-110.142
G01 X-108.043
G01 X-90.142
G01 X-88.043
G01 X-70.142
G01 X-68.043
G01 X-50.143
G01 X-48.043
G01 X-30.143
G01 X-28.043
G01 X-10.143
G01 X-8.043
G01 X9.857
G01 X11.957
G01 X29.856
G01 X31.957
G01 X49.857
G01 X51.957
G01 X69.857
G01 X71.957
G01 X89.857
G01 X91.957
G01 X109.857
G01 X111.957
G01 X129.757
G01 X131.957
G01 X149.857
G01 X151.957
G01 X169.857
G01 X171.957
G01 X189.757
G01 X191.957
G01 X209.757
G01 X211.957
G01 X229.757
G01 X231.957
G01 X249.757
G01 X251.957
G01 X269.757
G01 X271.957
G01 X289.757
G01 X291.957
G01 X292.157 Y-102.099
G01 X289.657
G01 X272.157
G01 X269.657
G01 X252.156
G01 X249.656
G01 X232.156
G01 X229.656
G01 X212.156
G01 X209.656
G01 X192.156
G01 X189.656
G01 X172.156
G01 X169.656
G01 X152.156
G01 X149.656
G01 X132.156
G01 X129.656
G01 X112.157
G01 X109.657
G01 X92.157
G01 X89.657
G01 X72.157
G01 X69.657
G01 X52.157
G01 X49.657
G01 X32.157
G01 X29.657
G01 X12.156
G01 X9.656
G01 X-7.843
G01 X-10.343
G01 X-27.843
G01 X-30.343
G01 X-47.842
G01 X-50.342
G01 X-67.843
G01 X-70.343
G01 X-87.843
G01 X-90.343
G01 X-107.843
G01 X-110.343
G01 X-127.742
G01 X-130.343
G01 X-147.742
G01 X-150.343
G01 X-167.742
G01 X-170.343
G01 X-187.742
G01 X-190.343
G01 X-207.742
G01 X-210.343
G01 X-227.742
G01 X-230.343
G01 X-247.742
G01 X-250.343
G01 X-267.743
G01 X-270.343
G01 X-287.743
G01 X-290.343
G01 X-290.543 Y-102
G01 X-287.643
G01 X-270.543
G01 X-267.643
G01 X-250.543
G01 X-247.643
G01 X-230.543
G01 X-227.643
G01 X-210.543
G01 X-207.643
G01 X-190.543
G01 X-187.643
G01 X-170.543
G01 X-167.643
G01 X-150.543
G01 X-147.643
G01 X-130.543
G01 X-127.643
G01 X-110.543
G01 X-107.642
G01 X-90.543
G01 X-87.642
G01 X-70.543
G01 X-67.642
G01 X-50.543
G01 X-47.643
G01 X-30.543
G01 X-27.643
G01 X-10.543
G01 X-7.643
G01 X9.457
G01 X12.357
G01 X29.457
G01 X32.356
G01 X49.457
G01 X52.357
G01 X69.457
G01 X72.357
G01 X89.457
G01 X92.357
G01 X109.457
G01 X112.357
G01 X129.457
G01 X132.357
G01 X149.457
G01 X152.357
G01 X169.457
G01 X172.357
G01 X189.457
G01 X192.357
G01 X209.457
G01 X212.357
G01 X229.457
G01 X232.357
G01 X249.457
G01 X252.357
G01 X269.457
G01 X272.356
G01 X289.457
G01 X292.356
G01 X292.457 Y-101.9
G01 X289.356
G01 X272.457
G01 X269.356
G01 X252.457
G01 X249.357
G01 X232.457
G01 X229.357
G01 X212.457
G01 X209.357
G01 X192.557
G01 X189.357
G01 X172.457
G01 X169.357
G01 X152.557
G01 X149.357
G01 X132.457
G01 X129.357
G01 X112.556
G01 X109.357
G01 X92.457
G01 X89.357
G01 X72.457
G01 X69.357
G01 X52.557
G01 X49.357
G01 X32.557
G01 X29.356
G01 X12.557
G01 X9.357
G01 X-7.443
G01 X-10.643
G01 X-27.543
G01 X-30.643
G01 X-47.443
G01 X-50.643
G01 X-67.543
G01 X-70.642
G01 X-87.443
G01 X-90.642
G01 X-107.443
G01 X-110.642
G01 X-127.443
G01 X-130.643
G01 X-147.443
G01 X-150.643
G01 X-167.443
G01 X-170.643
G01 X-187.443
G01 X-190.643
G01 X-207.443
G01 X-210.643
G01 X-227.443
G01 X-230.643
G01 X-247.443
G01 X-250.643
G01 X-267.442
G01 X-270.643
G01 X-287.442
G01 X-290.643
G01 X-290.743 Y-101.8
G01 X-287.442
G01 X-270.743
G01 X-267.442
G01 X-250.742
G01 X-247.443
G01 X-230.742
G01 X-227.443
G01 X-210.742
G01 X-207.443
G01 X-190.742
G01 X-187.443
G01 X-170.742
G01 X-167.443
G01 X-150.742
G01 X-147.443
G01 X-130.742
G01 X-127.443
G01 X-110.743
G01 X-107.443
G01 X-90.743
G01 X-87.443
G01 X-70.743
G01 X-67.343
G01 X-50.743
G01 X-47.443
G01 X-30.743
G01 X-27.343
G01 X-10.742
G01 X-7.443
G01 X9.257
G01 X12.557
G01 X29.257
G01 X32.557
G01 X49.157
G01 X52.557
G01 X69.157
G01 X72.556
G01 X89.157
G01 X92.556
G01 X109.157
G01 X112.556
G01 X129.156
G01 X132.557
G01 X149.257
G01 X152.557
G01 X169.156
G01 X172.557
G01 X189.156
G01 X192.557
G01 X209.156
G01 X212.557
G01 X229.156
G01 X232.557
G01 X249.257
G01 X252.557
G01 X269.157
G01 X272.557
G01 X289.257
G01 X292.557
G01 X292.657 Y-101.7
G01 X289.057
G01 X272.657
G01 X269.157
G01 X252.656
G01 X249.057
G01 X232.656
G01 X229.156
G01 X212.757
G01 X209.156
G01 X192.656
G01 X189.156
G01 X172.757
G01 X169.156
G01 X152.656
G01 X149.156
G01 X132.757
G01 X129.156
G01 X112.657
G01 X109.157
G01 X92.757
G01 X89.157
G01 X72.757
G01 X69.157
G01 X52.756
G01 X49.157
G01 X32.757
G01 X29.157
G01 X12.757
G01 X9.156
G01 X-7.242
G01 X-10.843
G01 X-27.343
G01 X-30.843
G01 X-47.243
G01 X-50.842
G01 X-67.343
G01 X-70.843
G01 X-87.243
G01 X-90.843
G01 X-107.243
G01 X-110.843
G01 X-127.242
G01 X-130.843
G01 X-147.242
G01 X-150.843
G01 X-167.242
G01 X-170.843
G01 X-187.242
G01 X-190.843
G01 X-207.242
G01 X-210.843
G01 X-227.242
G01 X-230.843
G01 X-247.242
G01 X-250.843
G01 X-267.243
G01 X-270.843
G01 X-287.243
G01 X-290.843
G01 X-290.942 Y-101.599
G01 X-287.243
G01 X-270.942
G01 X-267.243
G01 X-250.943
G01 X-247.242
G01 X-230.943
G01 X-227.242
G01 X-210.943
G01 X-207.143
G01 X-190.943
G01 X-187.242
G01 X-170.943
G01 X-167.143
G01 X-150.943
G01 X-147.242
G01 X-130.943
G01 X-127.242
G01 X-110.943
G01 X-107.243
G01 X-90.943
G01 X-87.243
G01 X-70.943
G01 X-67.142
G01 X-50.943
G01 X-47.243
G01 X-30.942
G01 X-27.143
G01 X-10.943
G01 X-7.242
G01 X9.057
G01 X12.757
G01 X29.057
G01 X32.757
G01 X49.057
G01 X52.756
G01 X69.056
G01 X72.757
G01 X89.056
G01 X92.757
G01 X109.056
G01 X112.757
G01 X129.057
G01 X132.757
G01 X148.957
G01 X152.757
G01 X169.057
G01 X172.757
G01 X189.057
G01 X192.757
G01 X209.057
G01 X212.757
G01 X228.957
G01 X232.757
G01 X249.057
G01 X252.757
G01 X268.957
G01 X272.757
G01 X289.057
G01 X292.757
G01 X292.856 Y-101.5
G01 X288.957
G01 X272.856
G01 X268.957
G01 X252.857
G01 X248.957
G01 X232.857
G01 X228.957
G01 X212.857
G01 X208.957
G01 X192.857
G01 X188.957
G01 X172.857
G01 X168.957
G01 X152.857
G01 X148.957
G01 X132.857
G01 X128.957
G01 X112.857
G01 X108.957
G01 X92.857
G01 X88.957
G01 X72.857
G01 X68.957
G01 X52.857
G01 X48.957
G01 X32.856
G01 X28.957
G01 X12.857
G01 X8.957
G01 X-7.143
G01 X-11.043
G01 X-27.143
G01 X-31.043
G01 X-47.143
G01 X-51.043
G01 X-67.142
G01 X-71.043
G01 X-87.142
G01 X-91.043
G01 X-107.043
G01 X-111.043
G01 X-127.143
G01 X-131.043
G01 X-147.043
G01 X-151.043
G01 X-167.143
G01 X-171.043
G01 X-187.043
G01 X-191.043
G01 X-207.143
G01 X-211.043
G01 X-227.043
G01 X-231.043
G01 X-247.043
G01 X-251.043
G01 X-267.043
G01 X-271.043
G01 X-287.043
G01 X-291.043
G01 X-291.143 Y-101.4
G01 X-287.043
G01 X-271.143
G01 X-267.043
G01 X-251.143
G01 X-247.043
G01 X-231.143
G01 X-227.043
G01 X-211.143
G01 X-207.043
G01 X-191.143
G01 X-187.043
G01 X-171.143
G01 X-167.043
G01 X-151.143
G01 X-147.043
G01 X-131.143
G01 X-127.043
G01 X-111.142
G01 X-107.043
G01 X-91.142
G01 X-87.043
G01 X-71.142
G01 X-67.043
G01 X-51.143
G01 X-47.043
G01 X-31.143
G01 X-27.043
G01 X-11.143
G01 X-7.043
G01 X8.857
G01 X12.957
G01 X28.856
G01 X32.957
G01 X48.857
G01 X52.957
G01 X68.857
G01 X72.957
G01 X88.857
G01 X92.957
G01 X108.857
G01 X112.957
G01 X128.857
G01 X132.957
G01 X148.857
G01 X152.957
G01 X168.857
G01 X172.957
G01 X188.857
G01 X192.957
G01 X208.857
G01 X212.957
G01 X228.857
G01 X232.957
G01 X248.857
G01 X252.957
G01 X268.856
G01 X272.957
G01 X288.856
G01 X292.957
G01  Y-101.3
G01 X288.757
G01 X272.957
G01 X268.757
G01 X252.957
G01 X248.757
G01 X233.057
G01 X228.757
G01 X212.957
G01 X208.757
G01 X193.057
G01 X188.757
G01 X172.957
G01 X168.757
G01 X153.057
G01 X148.857
G01 X133.057
G01 X128.757
G01 X113.056
G01 X108.857
G01 X93.056
G01 X88.757
G01 X73.056
G01 X68.857
G01 X53.057
G01 X48.857
G01 X33.057
G01 X28.856
G01 X13.057
G01 X8.857
G01 X-6.943
G01 X-11.143
G01 X-26.942
G01 X-31.143
G01 X-46.943
G01 X-51.143
G01 X-66.943
G01 X-71.142
G01 X-86.943
G01 X-91.142
G01 X-106.943
G01 X-111.142
G01 X-126.943
G01 X-131.143
G01 X-146.943
G01 X-151.143
G01 X-166.943
G01 X-171.143
G01 X-186.943
G01 X-191.143
G01 X-206.943
G01 X-211.143
G01 X-226.943
G01 X-231.143
G01 X-246.943
G01 X-251.143
G01 X-266.942
G01 X-271.143
G01 X-286.942
G01 X-291.143
G01 X-291.243 Y-101.2
G01 X-286.942
G01 X-271.243
G01 X-266.942
G01 X-251.242
G01 X-246.943
G01 X-231.242
G01 X-226.943
G01 X-211.242
G01 X-206.943
G01 X-191.242
G01 X-186.943
G01 X-171.242
G01 X-166.943
G01 X-151.242
G01 X-146.943
G01 X-131.242
G01 X-126.943
G01 X-111.243
G01 X-106.943
G01 X-91.243
G01 X-86.943
G01 X-71.243
G01 X-66.943
G01 X-51.243
G01 X-46.943
G01 X-31.243
G01 X-26.942
G01 X-11.242
G01 X-6.943
G01 X8.757
G01 X13.057
G01 X28.757
G01 X33.057
G01 X48.756
G01 X53.057
G01 X68.757
G01 X73.056
G01 X88.757
G01 X93.056
G01 X108.757
G01 X113.056
G01 X128.757
G01 X133.057
G01 X148.757
G01 X153.057
G01 X168.757
G01 X173.057
G01 X188.757
G01 X193.057
G01 X208.757
G01 X213.057
G01 X228.757
G01 X233.057
G01 X248.757
G01 X253.057
G01 X268.757
G01 X273.057
G01 X288.757
G01 X293.057
G01 X293.157 Y-101.099
G01 X288.657
G01 X273.157
G01 X268.657
G01 X253.156
G01 X248.656
G01 X233.156
G01 X228.656
G01 X213.156
G01 X208.656
G01 X193.156
G01 X188.656
G01 X173.156
G01 X168.656
G01 X153.156
G01 X148.656
G01 X133.156
G01 X128.657
G01 X113.157
G01 X108.657
G01 X93.157
G01 X88.657
G01 X73.157
G01 X68.657
G01 X53.157
G01 X48.657
G01 X33.157
G01 X28.657
G01 X13.156
G01 X8.657
G01 X-6.843
G01 X-11.343
G01 X-26.843
G01 X-31.342
G01 X-46.842
G01 X-51.342
G01 X-66.843
G01 X-71.343
G01 X-86.843
G01 X-91.343
G01 X-106.843
G01 X-111.243
G01 X-126.843
G01 X-131.242
G01 X-146.843
G01 X-151.242
G01 X-166.843
G01 X-171.242
G01 X-186.843
G01 X-191.242
G01 X-206.843
G01 X-211.242
G01 X-226.843
G01 X-231.242
G01 X-246.843
G01 X-251.242
G01 X-266.843
G01 X-271.243
G01 X-286.843
G01 X-291.243
G01 X-291.343 Y-101
G01 X-286.743
G01 X-271.343
G01 X-266.843
G01 X-251.343
G01 X-246.742
G01 X-231.343
G01 X-226.843
G01 X-211.343
G01 X-206.843
G01 X-191.343
G01 X-186.843
G01 X-171.343
G01 X-166.843
G01 X-151.343
G01 X-146.843
G01 X-131.343
G01 X-126.843
G01 X-111.343
G01 X-106.843
G01 X-91.343
G01 X-86.843
G01 X-71.343
G01 X-66.843
G01 X-51.342
G01 X-46.842
G01 X-31.342
G01 X-26.843
G01 X-11.343
G01 X-6.843
G01 X8.657
G01 X13.156
G01 X28.657
G01 X33.157
G01 X48.657
G01 X53.157
G01 X68.657
G01 X73.157
G01 X88.657
G01 X93.157
G01 X108.657
G01 X113.157
G01 X128.657
G01 X133.156
G01 X148.656
G01 X153.156
G01 X168.656
G01 X173.156
G01 X188.656
G01 X193.156
G01 X208.656
G01 X213.156
G01 X228.656
G01 X233.156
G01 X248.656
G01 X253.156
G01 X268.657
G01 X273.157
G01 X288.657
G01 X293.157
G01 X293.257 Y-100.9
G01 X288.557
G01 X273.257
G01 X268.557
G01 X253.257
G01 X248.557
G01 X233.257
G01 X228.557
G01 X213.257
G01 X208.557
G01 X193.257
G01 X188.557
G01 X173.257
G01 X168.557
G01 X153.257
G01 X148.557
G01 X133.257
G01 X128.556
G01 X113.257
G01 X108.556
G01 X93.257
G01 X88.556
G01 X73.257
G01 X68.556
G01 X53.256
G01 X48.657
G01 X33.256
G01 X28.557
G01 X13.257
G01 X8.657
G01 X-6.743
G01 X-11.343
G01 X-26.743
G01 X-31.342
G01 X-46.743
G01 X-51.342
G01 X-66.743
G01 X-71.343
G01 X-86.743
G01 X-91.343
G01 X-106.743
G01 X-111.343
G01 X-126.743
G01 X-131.343
G01 X-146.742
G01 X-151.343
G01 X-166.742
G01 X-171.343
G01 X-186.742
G01 X-191.343
G01 X-206.742
G01 X-211.343
G01 X-226.742
G01 X-231.343
G01 X-246.742
G01 X-251.343
G01 X-266.743
G01 X-271.343
G01 X-286.743
G01 X-291.343
G01 X-291.442 Y-100.8
G01 X-286.743
G01 X-271.442
G01 X-266.743
G01 X-251.443
G01 X-246.742
G01 X-231.443
G01 X-226.742
G01 X-211.443
G01 X-206.742
G01 X-191.443
G01 X-186.742
G01 X-171.443
G01 X-166.742
G01 X-151.443
G01 X-146.742
G01 X-131.443
G01 X-126.743
G01 X-111.443
G01 X-106.743
G01 X-91.443
G01 X-86.743
G01 X-71.443
G01 X-66.743
G01 X-51.443
G01 X-46.743
G01 X-31.443
G01 X-26.743
G01 X-11.443
G01 X-6.743
G01 X8.556
G01 X13.257
G01 X28.557
G01 X33.256
G01 X48.557
G01 X53.256
G01 X68.556
G01 X73.257
G01 X88.556
G01 X93.257
G01 X108.556
G01 X113.257
G01 X128.556
G01 X133.257
G01 X148.557
G01 X153.257
G01 X168.557
G01 X173.257
G01 X188.557
G01 X193.257
G01 X208.557
G01 X213.257
G01 X228.557
G01 X233.257
G01 X248.557
G01 X253.257
G01 X268.557
G01 X273.257
G01 X288.557
G01 X293.257
G01  Y-100.7
G01 X288.557
G01 X273.257
G01 X268.557
G01 X253.257
G01 X248.557
G01 X233.257
G01 X228.557
G01 X213.257
G01 X208.557
G01 X193.257
G01 X188.557
G01 X173.257
G01 X168.557
G01 X153.257
G01 X148.557
G01 X133.257
G01 X128.556
G01 X113.257
G01 X108.556
G01 X93.257
G01 X88.556
G01 X73.257
G01 X68.556
G01 X53.256
G01 X48.557
G01 X33.256
G01 X28.557
G01 X13.257
G01 X8.556
G01 X-6.743
G01 X-11.443
G01 X-26.643
G01 X-31.443
G01 X-46.743
G01 X-51.443
G01 X-66.642
G01 X-71.443
G01 X-86.642
G01 X-91.443
G01 X-106.642
G01 X-111.443
G01 X-126.642
G01 X-131.443
G01 X-146.643
G01 X-151.443
G01 X-166.643
G01 X-171.443
G01 X-186.643
G01 X-191.443
G01 X-206.643
G01 X-211.443
G01 X-226.643
G01 X-231.443
G01 X-246.643
G01 X-251.443
G01 X-266.643
G01 X-271.442
G01 X-286.643
G01 X-291.442
G01  Y-100.599
G01 X-286.643
G01 X-271.442
G01 X-266.643
G01 X-251.443
G01 X-246.643
G01 X-231.543
G01 X-226.643
G01 X-211.443
G01 X-206.643
G01 X-191.543
G01 X-186.643
G01 X-171.443
G01 X-166.643
G01 X-151.543
G01 X-146.643
G01 X-131.443
G01 X-126.642
G01 X-111.543
G01 X-106.642
G01 X-91.443
G01 X-86.642
G01 X-71.543
G01 X-66.642
G01 X-51.543
G01 X-46.643
G01 X-31.443
G01 X-26.643
G01 X-11.543
G01 X-6.642
G01 X8.556
G01 X13.357
G01 X28.457
G01 X33.357
G01 X48.557
G01 X53.357
G01 X68.457
G01 X73.357
G01 X88.556
G01 X93.357
G01 X108.457
G01 X113.357
G01 X128.556
G01 X133.357
G01 X148.457
G01 X153.257
G01 X168.457
G01 X173.357
G01 X188.457
G01 X193.257
G01 X208.457
G01 X213.357
G01 X228.457
G01 X233.257
G01 X248.457
G01 X253.357
G01 X268.457
G01 X273.257
G01 X288.457
G01 X293.356
G01  Y-100.5
G01 X288.457
G01 X273.356
G01 X268.457
G01 X253.357
G01 X248.457
G01 X233.357
G01 X228.457
G01 X213.357
G01 X208.457
G01 X193.357
G01 X188.457
G01 X173.357
G01 X168.457
G01 X153.357
G01 X148.457
G01 X133.357
G01 X128.457
G01 X113.357
G01 X108.457
G01 X93.357
G01 X88.457
G01 X73.357
G01 X68.457
G01 X53.357
G01 X48.457
G01 X33.357
G01 X28.457
G01 X13.357
G01 X8.457
G01 X-6.642
G01 X-11.543
G01 X-26.643
G01 X-31.543
G01 X-46.643
G01 X-51.543
G01 X-66.642
G01 X-71.443
G01 X-86.642
G01 X-91.543
G01 X-106.642
G01 X-111.443
G01 X-126.642
G01 X-131.543
G01 X-146.643
G01 X-151.443
G01 X-166.643
G01 X-171.543
G01 X-186.643
G01 X-191.443
G01 X-206.643
G01 X-211.543
G01 X-226.643
G01 X-231.443
G01 X-246.643
G01 X-251.443
G01 X-266.643
G01 X-271.442
G01 X-286.643
G01 X-291.442
G01 X-291.543 Y-100.4
G01 X-286.643
G01 X-271.543
G01 X-266.643
G01 X-251.543
G01 X-246.643
G01 X-231.543
G01 X-226.643
G01 X-211.543
G01 X-206.643
G01 X-191.543
G01 X-186.643
G01 X-171.543
G01 X-166.643
G01 X-151.543
G01 X-146.643
G01 X-131.543
G01 X-126.642
G01 X-111.543
G01 X-106.642
G01 X-91.543
G01 X-86.642
G01 X-71.543
G01 X-66.642
G01 X-51.543
G01 X-46.543
G01 X-31.543
G01 X-26.643
G01 X-11.543
G01 X-6.642
G01 X8.457
G01 X13.357
G01 X28.457
G01 X33.357
G01 X48.457
G01 X53.357
G01 X68.457
G01 X73.357
G01 X88.457
G01 X93.357
G01 X108.457
G01 X113.357
G01 X128.457
G01 X133.357
G01 X148.457
G01 X153.357
G01 X168.457
G01 X173.357
G01 X188.457
G01 X193.357
G01 X208.457
G01 X213.357
G01 X228.457
G01 X233.357
G01 X248.457
G01 X253.357
G01 X268.457
G01 X273.356
G01 X288.457
G01 X293.356
G01  Y-100.3
G01 X288.457
G01 X273.356
G01 X268.457
G01 X253.357
G01 X248.457
G01 X233.457
G01 X228.457
G01 X213.357
G01 X208.457
G01 X193.457
G01 X188.457
G01 X173.357
G01 X168.457
G01 X153.357
G01 X148.457
G01 X133.357
G01 X128.357
G01 X113.357
G01 X108.457
G01 X93.357
G01 X88.357
G01 X73.457
G01 X68.457
G01 X53.457
G01 X48.457
G01 X33.357
G01 X28.457
G01 X13.457
G01 X8.457
G01 X-6.642
G01 X-11.543
G01 X-26.643
G01 X-31.543
G01 X-46.643
G01 X-51.543
G01 X-66.642
G01 X-71.543
G01 X-86.642
G01 X-91.543
G01 X-106.543
G01 X-111.543
G01 X-126.642
G01 X-131.543
G01 X-146.643
G01 X-151.543
G01 X-166.643
G01 X-171.543
G01 X-186.543
G01 X-191.543
G01 X-206.543
G01 X-211.543
G01 X-226.543
G01 X-231.543
G01 X-246.543
G01 X-251.543
G01 X-266.643
G01 X-271.543
G01 X-286.543
G01 X-291.543
G01  Y-100.2
G01 X-286.643
G01 X-271.543
G01 X-266.543
G01 X-251.543
G01 X-246.643
G01 X-231.543
G01 X-226.643
G01 X-211.543
G01 X-206.543
G01 X-191.543
G01 X-186.643
G01 X-171.543
G01 X-166.543
G01 X-151.543
G01 X-146.543
G01 X-131.543
G01 X-126.543
G01 X-111.642
G01 X-106.642
G01 X-91.543
G01 X-86.543
G01 X-71.642
G01 X-66.543
G01 X-51.543
G01 X-46.643
G01 X-31.543
G01 X-26.643
G01 X-11.543
G01 X-6.543
G01 X8.457
G01 X13.357
G01 X28.457
G01 X33.357
G01 X48.457
G01 X53.357
G01 X68.457
G01 X73.357
G01 X88.457
G01 X93.457
G01 X108.457
G01 X113.457
G01 X128.457
G01 X133.357
G01 X148.457
G01 X153.357
G01 X168.357
G01 X173.457
G01 X188.457
G01 X193.357
G01 X208.357
G01 X213.357
G01 X228.457
G01 X233.357
G01 X248.357
G01 X253.357
G01 X268.457
G01 X273.356
G01 X288.356
G01 X293.356
G01  Y-100.099
G01 X288.356
G01 X273.457
G01 X268.356
G01 X253.457
G01 X248.357
G01 X233.357
G01 X228.457
G01 X213.357
G01 X208.357
G01 X193.357
G01 X188.457
G01 X173.357
G01 X168.457
G01 X153.457
G01 X148.357
G01 X133.457
G01 X128.457
G01 X113.357
G01 X108.357
G01 X93.357
G01 X88.457
G01 X73.357
G01 X68.457
G01 X53.357
G01 X48.457
G01 X33.457
G01 X28.457
G01 X13.357
G01 X8.357
G01 X-6.543
G01 X-11.543
G01 X-26.543
G01 X-31.643
G01 X-46.543
G01 X-51.543
G01 X-66.543
G01 X-71.543
G01 X-86.543
G01 X-91.543
G01 X-106.543
G01 X-111.543
G01 X-126.543
G01 X-131.543
G01 X-146.543
G01 X-151.543
G01 X-166.643
G01 X-171.543
G01 X-186.543
G01 X-191.543
G01 X-206.643
G01 X-211.543
G01 X-226.543
G01 X-231.543
G01 X-246.543
G01 X-251.543
G01 X-266.543
G01 X-271.543
G01 X-286.543
G01 X-291.543
G01  Y-100
G01 X-286.543
G01 X-271.543
G01 X-266.543
G01 X-251.543
G01 X-246.543
G01 X-231.543
G01 X-226.543
G01 X-211.543
G01 X-206.543
G01 X-191.643
G01 X-186.543
G01 X-171.543
G01 X-166.543
G01 X-151.643
G01 X-146.643
G01 X-131.543
G01 X-126.642
G01 X-111.543
G01 X-106.543
G01 X-91.543
G01 X-86.642
G01 X-71.543
G01 X-66.642
G01 X-51.643
G01 X-46.643
G01 X-31.543
G01 X-26.543
G01 X-11.643
G01 X-6.642
G01 X8.457
G01 X13.457
G01 X28.356
G01 X33.357
G01 X48.357
G01 X53.457
G01 X68.457
G01 X73.457
G01 X88.357
G01 X93.357
G01 X108.457
G01 X113.357
G01 X128.357
