;Header Start
;header_type: laser
;tool_head: 20W Laser Module
;machine: Ray
;gcode_flavor: grbl
;renderMethod: line
;max_power: 650
;file_total_lines: 45423
;estimated_time(s): 1812.089
;is_rotate: false
;diameter: 0
;max_x(mm): 293.457
;max_y(mm): 142.5
;max_z(mm): 0
;max_b(mm): 0
;min_x(mm): -291.543
;min_y(mm): -142.4
;min_b(mm): 0
;min_z(mm): 0
;work_speed(mm/minute): 15000
;jog_speed(mm/minute): 15000
;power(%): 65
;work_size_x: 600
;work_size_y: 400
;origin: center
M2003
M2004
;Header End
; G-code for laser engraving
; Generated by Snapmaker Luban
; G-code START <<<
G90 
G21 
M2000 W1P100
M2000 W2P100
M4 S0
M9 
M2000 L23P1
G0 F15000
G1 F15000
G1 X-289.643Y-142.4
G1 X-288.543S647.059
G1 X-269.643S0
G1 X-268.543S647.059
G1 X-249.643S0
G1 X-248.543S647.059
G1 X-229.643S0
G1 X-228.543S647.059
G1 X-209.643S0
G1 X-208.543S647.059
G1 X-189.643S0
G1 X-188.643S647.059
G1 X-169.643S0
G1 X-168.543S647.059
G1 X-149.643S0
G1 X-148.643S647.059
G1 X-129.643S0
G1 X-128.543S647.059
G1 X-109.642S0
G1 X-108.642S647.059
G1 X-89.642S0
G1 X-88.543S647.059
G1 X-69.642S0
G1 X-68.642S647.059
G1 X-49.643S0
G1 X-48.543S647.059
G1 X-29.643S0
G1 X-28.643S647.059
G1 X-9.643S0
G1 X-8.543S647.059
G1 X10.357S0
G1 X11.357S647.059
G1 X30.356S0
G1 X31.457S647.059
G1 X50.357S0
G1 X51.357S647.059
G1 X70.357S0
G1 X71.457S647.059
G1 X90.357S0
G1 X91.357S647.059
G1 X110.357S0
G1 X111.357S647.059
G1 X130.357S0
G1 X131.357S647.059
G1 X150.357S0
G1 X151.357S647.059
G1 X170.357S0
G1 X171.357S647.059
G1 X190.357S0
G1 X191.357S647.059
G1 X210.357S0
G1 X211.357S647.059
G1 X230.357S0
G1 X231.357S647.059
G1 X250.357S0
G1 X251.357S647.059
G1 X270.356S0
G1 X271.356S647.059
G1 X290.356S0
G1 X291.356S647.059
G1 X291.757Y-142.3S0
G1 X290.057S647.059
G1 X271.856S0
G1 X270.057S647.059
G1 X251.757S0
G1 X250.057S647.059
G1 X231.857S0
G1 X230.057S647.059
G1 X211.857S0
G1 X210.057S647.059
G1 X191.857S0
G1 X190.057S647.059
G1 X171.857S0
G1 X170.057S647.059
G1 X151.857S0
G1 X150.057S647.059
G1 X131.857S0
G1 X130.057S647.059
G1 X111.857S0
G1 X110.056S647.059
G1 X91.857S0
G1 X90.056S647.059
G1 X71.857S0
G1 X70.056S647.059
G1 X51.857S0
G1 X50.057S647.059
G1 X31.856S0
G1 X30.057S647.059
G1 X11.857S0
G1 X10.057S647.059
G1 X-8.143S0
G1 X-9.943S647.059
G1 X-28.143S0
G1 X-29.942S647.059
G1 X-48.143S0
G1 X-49.943S647.059
G1 X-68.142S0
G1 X-69.943S647.059
G1 X-88.142S0
G1 X-89.943S647.059
G1 X-108.142S0
G1 X-109.943S647.059
G1 X-128.143S0
G1 X-129.943S647.059
G1 X-148.143S0
G1 X-149.943S647.059
G1 X-168.143S0
G1 X-169.943S647.059
G1 X-188.143S0
G1 X-189.943S647.059
G1 X-208.143S0
G1 X-209.943S647.059
G1 X-228.143S0
G1 X-229.943S647.059
G1 X-248.143S0
G1 X-249.943S647.059
G1 X-268.143S0
G1 X-269.942S647.059
G1 X-288.143S0
G1 X-289.942S647.059
G1 X-290.143Y-142.199S0
G1 X-287.942S647.059
G1 X-270.143S0
G1 X-268.043S647.059
G1 X-250.143S0
G1 X-248.043S647.059
G1 X-230.143S0
G1 X-227.943S647.059
G1 X-210.143S0
G1 X-208.043S647.059
G1 X-190.143S0
G1 X-188.043S647.059
G1 X-170.143S0
G1 X-168.043S647.059
G1 X-150.143S0
G1 X-148.043S647.059
G1 X-130.143S0
G1 X-128.043S647.059
G1 X-110.142S0
G1 X-108.043S647.059
G1 X-90.142S0
G1 X-88.043S647.059
G1 X-70.142S0
G1 X-68.043S647.059
G1 X-50.143S0
G1 X-48.043S647.059
G1 X-30.143S0
G1 X-28.043S647.059
G1 X-10.242S0
G1 X-8.043S647.059
G1 X9.757S0
G1 X11.957S647.059
G1 X29.856S0
G1 X31.957S647.059
G1 X49.857S0
G1 X51.957S647.059
G1 X69.757S0
G1 X71.957S647.059
G1 X89.757S0
G1 X91.957S647.059
G1 X109.757S0
G1 X111.957S647.059
G1 X129.757S0
G1 X131.957S647.059
G1 X149.757S0
G1 X151.957S647.059
G1 X169.757S0
G1 X171.957S647.059
G1 X189.757S0
G1 X191.957S647.059
G1 X209.757S0
G1 X211.957S647.059
G1 X229.757S0
G1 X231.957S647.059
G1 X249.757S0
G1 X251.957S647.059
G1 X269.757S0
G1 X271.957S647.059
G1 X289.757S0
G1 X291.957S647.059
G1 X292.157Y-142.1S0
G1 X289.657S647.059
G1 X272.157S0
G1 X269.657S647.059
G1 X252.156S0
G1 X249.656S647.059
G1 X232.156S0
G1 X229.656S647.059
G1 X212.156S0
G1 X209.656S647.059
G1 X192.156S0
G1 X189.656S647.059
G1 X172.156S0
G1 X169.656S647.059
G1 X152.156S0
G1 X149.656S647.059
G1 X132.156S0
G1 X129.656S647.059
G1 X112.157S0
G1 X109.657S647.059
G1 X92.157S0
G1 X89.657S647.059
G1 X72.157S0
G1 X69.657S647.059
G1 X52.157S0
G1 X49.657S647.059
G1 X32.157S0
G1 X29.657S647.059
G1 X12.156S0
G1 X9.656S647.059
G1 X-7.843S0
G1 X-10.343S647.059
G1 X-27.843S0
G1 X-30.343S647.059
G1 X-47.842S0
G1 X-50.342S647.059
G1 X-67.843S0
G1 X-70.343S647.059
G1 X-87.843S0
G1 X-90.343S647.059
G1 X-107.843S0
G1 X-110.343S647.059
G1 X-127.742S0
G1 X-130.343S647.059
G1 X-147.742S0
G1 X-150.343S647.059
G1 X-167.742S0
G1 X-170.343S647.059
G1 X-187.742S0
G1 X-190.343S647.059
G1 X-207.742S0
G1 X-210.343S647.059
G1 X-227.742S0
G1 X-230.343S647.059
G1 X-247.742S0
G1 X-250.343S647.059
G1 X-267.743S0
G1 X-270.343S647.059
G1 X-287.743S0
G1 X-290.343S647.059
G1 X-290.442Y-142S0
G1 X-287.643S647.059
G1 X-270.442S0
G1 X-267.643S647.059
G1 X-250.543S0
G1 X-247.643S647.059
G1 X-230.543S0
G1 X-227.643S647.059
G1 X-210.543S0
G1 X-207.643S647.059
G1 X-190.543S0
G1 X-187.643S647.059
G1 X-170.543S0
G1 X-167.643S647.059
G1 X-150.543S0
G1 X-147.643S647.059
G1 X-130.543S0
G1 X-127.643S647.059
G1 X-110.543S0
G1 X-107.642S647.059
G1 X-90.543S0
G1 X-87.642S647.059
G1 X-70.543S0
G1 X-67.642S647.059
G1 X-50.543S0
G1 X-47.643S647.059
G1 X-30.543S0
G1 X-27.643S647.059
G1 X-10.543S0
G1 X-7.643S647.059
G1 X9.457S0
G1 X12.357S647.059
G1 X29.457S0
G1 X32.356S647.059
G1 X49.457S0
G1 X52.357S647.059
G1 X69.457S0
G1 X72.357S647.059
G1 X89.457S0
G1 X92.357S647.059
G1 X109.457S0
G1 X112.357S647.059
G1 X129.457S0
G1 X132.357S647.059
G1 X149.457S0
G1 X152.357S647.059
G1 X169.457S0
G1 X172.357S647.059
G1 X189.457S0
G1 X192.357S647.059
G1 X209.457S0
G1 X212.357S647.059
G1 X229.457S0
G1 X232.357S647.059
G1 X249.457S0
G1 X252.357S647.059
G1 X269.457S0
G1 X272.356S647.059
G1 X289.457S0
G1 X292.356S647.059
G1 X292.457Y-141.9S0
G1 X289.356S647.059
G1 X272.457S0
G1 X269.356S647.059
G1 X252.457S0
G1 X249.357S647.059
G1 X232.457S0
G1 X229.357S647.059
G1 X212.457S0
G1 X209.357S647.059
G1 X192.557S0
G1 X189.357S647.059
G1 X172.457S0
G1 X169.357S647.059
G1 X152.457S0
G1 X149.357S647.059
G1 X132.457S0
G1 X129.357S647.059
G1 X112.457S0
G1 X109.357S647.059
G1 X92.457S0
G1 X89.357S647.059
G1 X72.457S0
G1 X69.357S647.059
G1 X52.557S0
G1 X49.357S647.059
G1 X32.557S0
G1 X29.356S647.059
G1 X12.557S0
G1 X9.357S647.059
G1 X-7.543S0
G1 X-10.643S647.059
G1 X-27.543S0
G1 X-30.643S647.059
G1 X-47.443S0
G1 X-50.643S647.059
G1 X-67.543S0
G1 X-70.642S647.059
G1 X-87.443S0
G1 X-90.642S647.059
G1 X-107.443S0
G1 X-110.642S647.059
G1 X-127.443S0
G1 X-130.643S647.059
G1 X-147.443S0
G1 X-150.643S647.059
G1 X-167.443S0
G1 X-170.643S647.059
G1 X-187.443S0
G1 X-190.643S647.059
G1 X-207.443S0
G1 X-210.643S647.059
G1 X-227.543S0
G1 X-230.643S647.059
G1 X-247.443S0
G1 X-250.643S647.059
G1 X-267.442S0
G1 X-270.643S647.059
G1 X-287.543S0
G1 X-290.643S647.059
G1 X-290.743Y-141.8S0
G1 X-287.343S647.059
G1 X-270.743S0
G1 X-267.343S647.059
G1 X-250.742S0
G1 X-247.443S647.059
G1 X-230.742S0
G1 X-227.343S647.059
G1 X-210.742S0
G1 X-207.443S647.059
G1 X-190.742S0
G1 X-187.443S647.059
G1 X-170.742S0
G1 X-167.443S647.059
G1 X-150.742S0
G1 X-147.443S647.059
G1 X-130.742S0
G1 X-127.443S647.059
G1 X-110.743S0
G1 X-107.443S647.059
G1 X-90.743S0
G1 X-87.443S647.059
G1 X-70.743S0
G1 X-67.343S647.059
G1 X-50.743S0
G1 X-47.443S647.059
G1 X-30.743S0
G1 X-27.343S647.059
G1 X-10.742S0
G1 X-7.443S647.059
G1 X9.257S0
G1 X12.557S647.059
G1 X29.257S0
G1 X32.557S647.059
G1 X49.157S0
G1 X52.557S647.059
G1 X69.157S0
G1 X72.556S647.059
G1 X89.157S0
G1 X92.556S647.059
G1 X109.157S0
G1 X112.556S647.059
G1 X129.156S0
G1 X132.557S647.059
G1 X149.156S0
G1 X152.656S647.059
G1 X169.156S0
G1 X172.557S647.059
G1 X189.156S0
G1 X192.557S647.059
G1 X209.156S0
G1 X212.557S647.059
G1 X229.156S0
G1 X232.557S647.059
G1 X249.156S0
G1 X252.557S647.059
G1 X269.157S0
G1 X272.557S647.059
G1 X289.257S0
G1 X292.557S647.059
G1 X292.657Y-141.699S0
G1 X289.057S647.059
G1 X272.657S0
G1 X269.157S647.059
G1 X252.656S0
G1 X249.156S647.059
G1 X232.656S0
G1 X229.156S647.059
G1 X212.757S0
G1 X209.156S647.059
G1 X192.656S0
G1 X189.156S647.059
G1 X172.757S0
G1 X169.156S647.059
G1 X152.656S0
G1 X149.156S647.059
G1 X132.757S0
G1 X129.156S647.059
G1 X112.757S0
G1 X109.157S647.059
G1 X92.757S0
G1 X89.157S647.059
G1 X72.757S0
G1 X69.157S647.059
G1 X52.756S0
G1 X49.157S647.059
G1 X32.757S0
G1 X29.157S647.059
G1 X12.757S0
G1 X9.156S647.059
G1 X-7.242S0
G1 X-10.843S647.059
G1 X-27.343S0
G1 X-30.843S647.059
G1 X-47.243S0
G1 X-50.842S647.059
G1 X-67.343S0
G1 X-70.843S647.059
G1 X-87.243S0
G1 X-90.843S647.059
G1 X-107.243S0
G1 X-110.843S647.059
G1 X-127.242S0
G1 X-130.843S647.059
G1 X-147.242S0
G1 X-150.843S647.059
G1 X-167.242S0
G1 X-170.843S647.059
G1 X-187.242S0
G1 X-190.843S647.059
G1 X-207.242S0
G1 X-210.843S647.059
G1 X-227.242S0
G1 X-230.843S647.059
G1 X-247.242S0
G1 X-250.843S647.059
G1 X-267.243S0
G1 X-270.843S647.059
G1 X-287.243S0
G1 X-290.843S647.059
G1 X-290.942Y-141.6S0
G1 X-287.243S647.059
G1 X-270.942S0
G1 X-267.243S647.059
G1 X-250.943S0
G1 X-247.143S647.059
G1 X-230.943S0
G1 X-227.242S647.059
G1 X-210.943S0
G1 X-207.143S647.059
G1 X-190.943S0
G1 X-187.242S647.059
G1 X-170.943S0
G1 X-167.143S647.059
G1 X-150.943S0
G1 X-147.242S647.059
G1 X-130.943S0
G1 X-127.242S647.059
G1 X-110.943S0
G1 X-107.243S647.059
G1 X-90.943S0
G1 X-87.243S647.059
G1 X-70.943S0
G1 X-67.142S647.059
G1 X-50.943S0
G1 X-47.243S647.059
G1 X-30.942S0
G1 X-27.143S647.059
G1 X-10.943S0
G1 X-7.242S647.059
G1 X9.057S0
G1 X12.757S647.059
G1 X29.057S0
G1 X32.757S647.059
G1 X49.057S0
G1 X52.756S647.059
G1 X69.056S0
G1 X72.757S647.059
G1 X89.056S0
G1 X92.757S647.059
G1 X109.056S0
G1 X112.757S647.059
G1 X129.057S0
G1 X132.757S647.059
G1 X149.057S0
G1 X152.757S647.059
G1 X169.057S0
G1 X172.757S647.059
G1 X189.057S0
G1 X192.757S647.059
G1 X209.057S0
G1 X212.757S647.059
G1 X228.957S0
G1 X232.757S647.059
G1 X249.057S0
G1 X252.757S647.059
G1 X268.957S0
G1 X272.757S647.059
G1 X289.057S0
G1 X292.757S647.059
G1 X292.856Y-141.5S0
G1 X288.957S647.059
G1 X272.856S0
G1 X268.957S647.059
G1 X252.857S0
G1 X248.957S647.059
G1 X232.857S0
G1 X228.957S647.059
G1 X212.857S0
G1 X208.957S647.059
G1 X192.857S0
G1 X188.957S647.059
G1 X172.857S0
G1 X168.957S647.059
G1 X152.857S0
G1 X148.957S647.059
G1 X132.857S0
G1 X128.957S647.059
G1 X112.857S0
G1 X108.957S647.059
G1 X92.857S0
G1 X88.957S647.059
G1 X72.857S0
G1 X68.957S647.059
G1 X52.857S0
G1 X48.957S647.059
G1 X32.856S0
G1 X28.957S647.059
G1 X12.857S0
G1 X8.957S647.059
G1 X-7.143S0
G1 X-11.043S647.059
G1 X-27.143S0
G1 X-31.043S647.059
G1 X-47.143S0
G1 X-51.043S647.059
G1 X-67.142S0
G1 X-71.043S647.059
G1 X-87.142S0
G1 X-91.043S647.059
G1 X-107.043S0
G1 X-111.043S647.059
G1 X-127.143S0
G1 X-131.043S647.059
G1 X-147.043S0
G1 X-151.043S647.059
G1 X-167.143S0
G1 X-171.043S647.059
G1 X-187.043S0
G1 X-191.043S647.059
G1 X-207.143S0
G1 X-211.043S647.059
G1 X-227.043S0
G1 X-231.043S647.059
G1 X-247.143S0
G1 X-251.043S647.059
G1 X-267.043S0
G1 X-271.043S647.059
G1 X-287.043S0
G1 X-291.043S647.059
G1 X-291.143Y-141.4S0
G1 X-287.043S647.059
G1 X-271.143S0
G1 X-267.043S647.059
G1 X-251.143S0
G1 X-247.043S647.059
G1 X-231.143S0
G1 X-227.043S647.059
G1 X-211.143S0
G1 X-207.043S647.059
G1 X-191.143S0
G1 X-187.043S647.059
G1 X-171.143S0
G1 X-167.043S647.059
G1 X-151.143S0
G1 X-147.043S647.059
G1 X-131.143S0
G1 X-127.043S647.059
G1 X-111.142S0
G1 X-107.043S647.059
G1 X-91.142S0
G1 X-87.043S647.059
G1 X-71.142S0
G1 X-67.043S647.059
G1 X-51.143S0
G1 X-47.043S647.059
G1 X-31.143S0
G1 X-27.043S647.059
G1 X-11.143S0
G1 X-7.043S647.059
G1 X8.857S0
G1 X12.957S647.059
G1 X28.856S0
G1 X32.957S647.059
G1 X48.857S0
G1 X52.957S647.059
G1 X68.857S0
G1 X72.957S647.059
G1 X88.857S0
G1 X92.957S647.059
G1 X108.857S0
G1 X112.957S647.059
G1 X128.857S0
G1 X132.957S647.059
G1 X148.857S0
G1 X152.957S647.059
G1 X168.857S0
G1 X172.957S647.059
G1 X188.857S0
G1 X192.957S647.059
G1 X208.857S0
G1 X212.957S647.059
G1 X228.857S0
G1 X232.957S647.059
G1 X248.857S0
G1 X252.957S647.059
G1 X268.856S0
G1 X272.957S647.059
G1 X288.856S0
G1 X292.957S647.059
G1 Y-141.3S0
G1 X288.757S647.059
G1 X272.957S0
G1 X268.757S647.059
G1 X252.957S0
G1 X248.757S647.059
G1 X233.057S0
G1 X228.757S647.059
G1 X212.957S0
G1 X208.757S647.059
G1 X193.057S0
G1 X188.757S647.059
G1 X173.057S0
G1 X168.757S647.059
G1 X153.057S0
G1 X148.757S647.059
G1 X133.057S0
G1 X128.757S647.059
G1 X113.056S0
G1 X108.857S647.059
G1 X93.056S0
G1 X88.757S647.059
G1 X73.056S0
G1 X68.857S647.059
G1 X53.057S0
G1 X48.756S647.059
G1 X33.057S0
G1 X28.856S647.059
G1 X13.057S0
G1 X8.757S647.059
G1 X-6.943S0
G1 X-11.143S647.059
G1 X-26.942S0
G1 X-31.143S647.059
G1 X-46.943S0
G1 X-51.143S647.059
G1 X-66.943S0
G1 X-71.142S647.059
G1 X-86.943S0
G1 X-91.142S647.059
G1 X-106.943S0
G1 X-111.142S647.059
G1 X-126.943S0
G1 X-131.143S647.059
G1 X-146.943S0
G1 X-151.143S647.059
G1 X-166.943S0
G1 X-171.143S647.059
G1 X-186.943S0
G1 X-191.143S647.059
G1 X-206.943S0
G1 X-211.143S647.059
G1 X-226.943S0
G1 X-231.143S647.059
G1 X-246.943S0
G1 X-251.143S647.059
G1 X-266.942S0
G1 X-271.143S647.059
G1 X-286.942S0
G1 X-291.143S647.059
G1 X-291.243Y-141.199S0
G1 X-286.942S647.059
G1 X-271.243S0
G1 X-266.942S647.059
G1 X-251.242S0
G1 X-246.843S647.059
G1 X-231.242S0
G1 X-226.943S647.059
G1 X-211.242S0
G1 X-206.843S647.059
G1 X-191.242S0
G1 X-186.943S647.059
G1 X-171.242S0
G1 X-166.943S647.059
G1 X-151.242S0
G1 X-146.943S647.059
G1 X-131.242S0
G1 X-126.943S647.059
G1 X-111.243S0
G1 X-106.943S647.059
G1 X-91.243S0
G1 X-86.943S647.059
G1 X-71.243S0
G1 X-66.943S647.059
G1 X-51.243S0
G1 X-46.943S647.059
G1 X-31.243S0
G1 X-26.942S647.059
G1 X-11.242S0
G1 X-6.943S647.059
G1 X8.757S0
G1 X13.057S647.059
G1 X28.757S0
G1 X33.057S647.059
G1 X48.756S0
G1 X53.057S647.059
G1 X68.757S0
G1 X73.056S647.059
G1 X88.757S0
G1 X93.056S647.059
G1 X108.757S0
G1 X113.056S647.059
G1 X128.757S0
G1 X133.057S647.059
G1 X148.757S0
G1 X153.057S647.059
G1 X168.757S0
G1 X173.057S647.059
G1 X188.757S0
G1 X193.057S647.059
G1 X208.757S0
G1 X213.057S647.059
G1 X228.757S0
G1 X233.057S647.059
G1 X248.757S0
G1 X253.057S647.059
G1 X268.757S0
G1 X273.057S647.059
G1 X288.757S0
G1 X293.057S647.059
G1 X293.157Y-141.1S0
G1 X288.657S647.059
G1 X273.157S0
G1 X268.657S647.059
G1 X253.156S0
G1 X248.656S647.059
G1 X233.156S0
G1 X228.656S647.059
G1 X213.156S0
G1 X208.656S647.059
G1 X193.156S0
G1 X188.656S647.059
G1 X173.156S0
G1 X168.656S647.059
G1 X153.156S0
G1 X148.656S647.059
G1 X133.156S0
G1 X128.657S647.059
G1 X113.157S0
G1 X108.657S647.059
G1 X93.157S0
G1 X88.657S647.059
G1 X73.157S0
G1 X68.657S647.059
G1 X53.157S0
G1 X48.657S647.059
G1 X33.157S0
G1 X28.657S647.059
G1 X13.156S0
G1 X8.657S647.059
G1 X-6.843S0
G1 X-11.343S647.059
G1 X-26.843S0
G1 X-31.342S647.059
G1 X-46.842S0
G1 X-51.342S647.059
G1 X-66.843S0
G1 X-71.343S647.059
G1 X-86.843S0
G1 X-91.243S647.059
G1 X-106.843S0
G1 X-111.243S647.059
G1 X-126.843S0
G1 X-131.343S647.059
G1 X-146.843S0
G1 X-151.242S647.059
G1 X-166.843S0
G1 X-171.242S647.059
G1 X-186.843S0
G1 X-191.242S647.059
G1 X-206.843S0
G1 X-211.242S647.059
G1 X-226.843S0
G1 X-231.242S647.059
G1 X-246.843S0
G1 X-251.242S647.059
G1 X-266.843S0
G1 X-271.243S647.059
G1 X-286.843S0
G1 X-291.243S647.059
G1 X-291.343Y-141S0
G1 X-286.743S647.059
G1 X-271.343S0
G1 X-266.843S647.059
G1 X-251.343S0
G1 X-246.742S647.059
G1 X-231.343S0
G1 X-226.843S647.059
G1 X-211.343S0
G1 X-206.843S647.059
G1 X-191.343S0
G1 X-186.843S647.059
G1 X-171.343S0
G1 X-166.843S647.059
G1 X-151.343S0
G1 X-146.843S647.059
G1 X-131.343S0
G1 X-126.843S647.059
G1 X-111.343S0
G1 X-106.843S647.059
G1 X-91.343S0
G1 X-86.843S647.059
G1 X-71.343S0
G1 X-66.843S647.059
G1 X-51.342S0
G1 X-46.842S647.059
G1 X-31.342S0
G1 X-26.843S647.059
G1 X-11.343S0
G1 X-6.843S647.059
G1 X8.657S0
G1 X13.156S647.059
G1 X28.657S0
G1 X33.157S647.059
G1 X48.657S0
G1 X53.157S647.059
G1 X68.657S0
G1 X73.157S647.059
G1 X88.657S0
G1 X93.157S647.059
G1 X108.657S0
G1 X113.157S647.059
G1 X128.657S0
G1 X133.156S647.059
G1 X148.656S0
G1 X153.156S647.059
G1 X168.656S0
G1 X173.156S647.059
G1 X188.656S0
G1 X193.156S647.059
G1 X208.656S0
G1 X213.156S647.059
G1 X228.656S0
G1 X233.156S647.059
G1 X248.656S0
G1 X253.156S647.059
G1 X268.657S0
G1 X273.157S647.059
G1 X288.657S0
G1 X293.157S647.059
G1 Y-140.9S0
G1 X288.557S647.059
G1 X273.257S0
G1 X268.557S647.059
G1 X253.257S0
G1 X248.557S647.059
G1 X233.257S0
G1 X228.557S647.059
G1 X213.257S0
G1 X208.557S647.059
G1 X193.257S0
G1 X188.557S647.059
G1 X173.257S0
G1 X168.557S647.059
G1 X153.257S0
G1 X148.557S647.059
G1 X133.257S0
G1 X128.556S647.059
G1 X113.257S0
G1 X108.556S647.059
G1 X93.257S0
G1 X88.556S647.059
G1 X73.257S0
G1 X68.556S647.059
G1 X53.256S0
G1 X48.557S647.059
G1 X33.256S0
G1 X28.557S647.059
G1 X13.257S0
G1 X8.657S647.059
G1 X-6.743S0
G1 X-11.343S647.059
G1 X-26.743S0
G1 X-31.342S647.059
G1 X-46.743S0
G1 X-51.342S647.059
G1 X-66.743S0
G1 X-71.343S647.059
G1 X-86.743S0
G1 X-91.443S647.059
G1 X-106.743S0
G1 X-111.343S647.059
G1 X-126.743S0
G1 X-131.343S647.059
G1 X-146.742S0
G1 X-151.343S647.059
G1 X-166.742S0
G1 X-171.343S647.059
G1 X-186.742S0
G1 X-191.343S647.059
G1 X-206.742S0
G1 X-211.343S647.059
G1 X-226.742S0
G1 X-231.343S647.059
G1 X-246.742S0
G1 X-251.343S647.059
G1 X-266.743S0
G1 X-271.343S647.059
G1 X-286.743S0
G1 X-291.343S647.059
G1 X-291.442Y-140.8S0
G1 X-286.743S647.059
G1 X-271.442S0
G1 X-266.743S647.059
G1 X-251.443S0
G1 X-246.742S647.059
G1 X-231.443S0
G1 X-226.742S647.059
G1 X-211.443S0
G1 X-206.742S647.059
G1 X-191.443S0
G1 X-186.742S647.059
G1 X-171.443S0
G1 X-166.742S647.059
G1 X-151.443S0
G1 X-146.742S647.059
G1 X-131.443S0
G1 X-126.743S647.059
G1 X-111.443S0
G1 X-106.743S647.059
G1 X-91.443S0
G1 X-86.743S647.059
G1 X-71.443S0
G1 X-66.743S647.059
G1 X-51.443S0
G1 X-46.743S647.059
G1 X-31.443S0
G1 X-26.743S647.059
G1 X-11.443S0
G1 X-6.743S647.059
G1 X8.556S0
G1 X13.257S647.059
G1 X28.557S0
G1 X33.256S647.059
G1 X48.557S0
G1 X53.256S647.059
G1 X68.556S0
G1 X73.257S647.059
G1 X88.556S0
G1 X93.257S647.059
G1 X108.556S0
G1 X113.257S647.059
G1 X128.556S0
G1 X133.257S647.059
G1 X148.557S0
G1 X153.257S647.059
G1 X168.557S0
G1 X173.257S647.059
G1 X188.557S0
G1 X193.257S647.059
G1 X208.557S0
G1 X213.257S647.059
G1 X228.557S0
G1 X233.257S647.059
G1 X248.557S0
G1 X253.257S647.059
G1 X268.557S0
G1 X273.257S647.059
G1 X288.557S0
G1 X293.257S647.059
G1 Y-140.699S0
G1 X288.557S647.059
G1 X273.257S0
G1 X268.557S647.059
G1 X253.257S0
G1 X248.557S647.059
G1 X233.257S0
G1 X228.557S647.059
G1 X213.257S0
G1 X208.557S647.059
G1 X193.257S0
G1 X188.557S647.059
G1 X173.257S0
G1 X168.557S647.059
G1 X153.257S0
G1 X148.557S647.059
G1 X133.257S0
G1 X128.556S647.059
G1 X113.257S0
G1 X108.556S647.059
G1 X93.257S0
G1 X88.556S647.059
G1 X73.257S0
G1 X68.556S647.059
G1 X53.256S0
G1 X48.557S647.059
G1 X33.256S0
G1 X28.557S647.059
G1 X13.357S0
G1 X8.556S647.059
G1 X-6.743S0
G1 X-11.443S647.059
G1 X-26.643S0
G1 X-31.443S647.059
G1 X-46.743S0
G1 X-51.443S647.059
G1 X-66.642S0
G1 X-71.443S647.059
G1 X-86.743S0
G1 X-91.443S647.059
G1 X-106.642S0
G1 X-111.443S647.059
G1 X-126.743S0
G1 X-131.443S647.059
G1 X-146.643S0
G1 X-151.443S647.059
G1 X-166.643S0
G1 X-171.443S647.059
G1 X-186.643S0
G1 X-191.443S647.059
G1 X-206.643S0
G1 X-211.443S647.059
G1 X-226.643S0
G1 X-231.443S647.059
G1 X-246.643S0
G1 X-251.443S647.059
G1 X-266.643S0
G1 X-271.442S647.059
G1 X-286.643S0
G1 X-291.442S647.059
G1 Y-140.6S0
G1 X-286.643S647.059
G1 X-271.442S0
G1 X-266.643S647.059
G1 X-251.443S0
G1 X-246.643S647.059
G1 X-231.443S0
G1 X-226.643S647.059
G1 X-211.443S0
G1 X-206.643S647.059
G1 X-191.543S0
G1 X-186.643S647.059
G1 X-171.443S0
G1 X-166.643S647.059
G1 X-151.543S0
G1 X-146.643S647.059
G1 X-131.443S0
G1 X-126.642S647.059
G1 X-111.543S0
G1 X-106.642S647.059
G1 X-91.443S0
G1 X-86.642S647.059
G1 X-71.543S0
G1 X-66.642S647.059
G1 X-51.543S0
G1 X-46.643S647.059
G1 X-31.443S0
G1 X-26.643S647.059
G1 X-11.543S0
G1 X-6.642S647.059
G1 X8.556S0
G1 X13.357S647.059
G1 X28.457S0
G1 X33.357S647.059
G1 X48.557S0
G1 X53.357S647.059
G1 X68.457S0
G1 X73.357S647.059
G1 X88.556S0
G1 X93.357S647.059
G1 X108.457S0
G1 X113.357S647.059
G1 X128.457S0
G1 X133.357S647.059
G1 X148.457S0
G1 X153.357S647.059
G1 X168.457S0
G1 X173.357S647.059
G1 X188.457S0
G1 X193.257S647.059
G1 X208.457S0
G1 X213.357S647.059
G1 X228.457S0
G1 X233.257S647.059
G1 X248.457S0
G1 X253.357S647.059
G1 X268.457S0
G1 X273.257S647.059
G1 X288.457S0
G1 X293.356S647.059
G1 Y-140.5S0
G1 X288.457S647.059
G1 X273.356S0
G1 X268.457S647.059
G1 X253.357S0
G1 X248.457S647.059
G1 X233.357S0
G1 X228.457S647.059
G1 X213.357S0
G1 X208.457S647.059
G1 X193.357S0
G1 X188.457S647.059
G1 X173.357S0
G1 X168.457S647.059
G1 X153.357S0
G1 X148.457S647.059
G1 X133.357S0
G1 X128.457S647.059
G1 X113.357S0
G1 X108.457S647.059
G1 X93.357S0
G1 X88.457S647.059
G1 X73.357S0
G1 X68.457S647.059
G1 X53.357S0
G1 X48.457S647.059
G1 X33.357S0
G1 X28.457S647.059
G1 X13.357S0
G1 X8.457S647.059
G1 X-6.642S0
G1 X-11.543S647.059
G1 X-26.643S0
G1 X-31.543S647.059
G1 X-46.643S0
G1 X-51.543S647.059
G1 X-66.642S0
G1 X-71.443S647.059
G1 X-86.642S0
G1 X-91.543S647.059
G1 X-106.642S0
G1 X-111.443S647.059
G1 X-126.642S0
G1 X-131.543S647.059
G1 X-146.643S0
G1 X-151.443S647.059
G1 X-166.643S0
G1 X-171.543S647.059
G1 X-186.643S0
G1 X-191.443S647.059
G1 X-206.643S0
G1 X-211.543S647.059
G1 X-226.643S0
G1 X-231.443S647.059
G1 X-246.643S0
G1 X-251.543S647.059
G1 X-266.643S0
G1 X-271.442S647.059
G1 X-286.543S0
G1 X-291.442S647.059
G1 X-291.543Y-140.4S0
G1 X-286.643S647.059
G1 X-271.543S0
G1 X-266.643S647.059
G1 X-251.543S0
G1 X-246.643S647.059
G1 X-231.543S0
G1 X-226.643S647.059
G1 X-211.543S0
G1 X-206.543S647.059
G1 X-191.543S0
G1 X-186.643S647.059
G1 X-171.543S0
G1 X-166.643S647.059
G1 X-151.543S0
G1 X-146.643S647.059
G1 X-131.543S0
G1 X-126.543S647.059
G1 X-111.543S0
G1 X-106.642S647.059
G1 X-91.543S0
G1 X-86.543S647.059
G1 X-71.543S0
G1 X-66.642S647.059
G1 X-51.543S0
G1 X-46.543S647.059
G1 X-31.543S0
G1 X-26.643S647.059
G1 X-11.543S0
G1 X-6.642S647.059
G1 X8.457S0
G1 X13.357S647.059
G1 X28.457S0
G1 X33.357S647.059
G1 X48.457S0
G1 X53.357S647.059
G1 X68.457S0
G1 X73.357S647.059
G1 X88.457S0
G1 X93.357S647.059
G1 X108.457S0
G1 X113.357S647.059
G1 X128.457S0
G1 X133.357S647.059
G1 X148.457S0
G1 X153.357S647.059
G1 X168.457S0
G1 X173.357S647.059
G1 X188.457S0
G1 X193.357S647.059
G1 X208.457S0
G1 X213.357S647.059
G1 X228.457S0
G1 X233.357S647.059
G1 X248.457S0
G1 X253.357S647.059
G1 X268.457S0
G1 X273.356S647.059
G1 X288.457S0
G1 X293.356S647.059
G1 Y-140.3S0
G1 X288.457S647.059
G1 X273.356S0
G1 X268.457S647.059
G1 X253.357S0
G1 X248.457S647.059
G1 X233.357S0
G1 X228.457S647.059
G1 X213.357S0
G1 X208.457S647.059
G1 X193.457S0
G1 X188.457S647.059
G1 X173.357S0
G1 X168.457S647.059
G1 X153.357S0
G1 X148.457S647.059
G1 X133.357S0
G1 X128.457S647.059
G1 X113.357S0
G1 X108.457S647.059
G1 X93.357S0
G1 X88.357S647.059
G1 X73.357S0
G1 X68.457S647.059
G1 X53.457S0
G1 X48.457S647.059
G1 X33.357S0
G1 X28.457S647.059
G1 X13.357S0
G1 X8.457S647.059
G1 X-6.642S0
G1 X-11.543S647.059
G1 X-26.643S0
G1 X-31.543S647.059
G1 X-46.643S0
G1 X-51.543S647.059
G1 X-66.642S0
G1 X-71.543S647.059
G1 X-86.642S0
G1 X-91.543S647.059
G1 X-106.642S0
G1 X-111.543S647.059
G1 X-126.642S0
G1 X-131.543S647.059
G1 X-146.543S0
G1 X-151.543S647.059
G1 X-166.543S0
G1 X-171.543S647.059
G1 X-186.543S0
G1 X-191.543S647.059
G1 X-206.643S0
G1 X-211.543S647.059
G1 X-226.543S0
G1 X-231.543S647.059
G1 X-246.543S0
G1 X-251.543S647.059
G1 X-266.643S0
G1 X-271.543S647.059
G1 X-286.643S0
G1 X-291.543S647.059
G1 Y-140.199S0
G1 X-286.543S647.059
G1 X-271.543S0
G1 X-266.543S647.059
G1 X-251.543S0
G1 X-246.643S647.059
G1 X-231.543S0
G1 X-226.643S647.059
G1 X-211.543S0
G1 X-206.643S647.059
G1 X-191.543S0
G1 X-186.643S647.059
G1 X-171.543S0
G1 X-166.543S647.059
G1 X-151.543S0
G1 X-146.643S647.059
G1 X-131.543S0
G1 X-126.642S647.059
G1 X-111.543S0
G1 X-106.642S647.059
G1 X-91.543S0
G1 X-86.642S647.059
G1 X-71.642S0
G1 X-66.543S647.059
G1 X-51.543S0
G1 X-46.643S647.059
G1 X-31.543S0
G1 X-26.643S647.059
G1 X-11.543S0
G1 X-6.543S647.059
G1 X8.457S0
G1 X13.357S647.059
G1 X28.457S0
G1 X33.357S647.059
G1 X48.457S0
G1 X53.357S647.059
G1 X68.457S0
G1 X73.357S647.059
G1 X88.457S0
G1 X93.357S647.059
G1 X108.457S0
G1 X113.357S647.059
G1 X128.357S0
G1 X133.357S647.059
G1 X148.457S0
G1 X153.357S647.059
G1 X168.357S0
G1 X173.457S647.059
G1 X188.457S0
G1 X193.357S647.059
G1 X208.357S0
G1 X213.357S647.059
G1 X228.457S0
G1 X233.357S647.059
G1 X248.357S0
G1 X253.357S647.059
G1 X268.457S0
G1 X273.356S647.059
G1 X288.356S0
G1 X293.356S647.059
G1 X293.457Y-140.1S0
G1 X288.356S647.059
G1 X273.457S0
G1 X268.457S647.059
G1 X253.457S0
G1 X248.357S647.059
G1 X233.457S0
G1 X228.357S647.059
G1 X213.357S0
G1 X208.457S647.059
G1 X193.357S0
G1 X188.457S647.059
G1 X173.357S0
G1 X168.457S647.059
G1 X153.457S0
G1 X148.357S647.059
G1 X133.457S0
G1 X128.457S647.059
G1 X113.457S0
G1 X108.357S647.059
G1 X93.457S0
G1 X88.457S647.059
G1 X73.457S0
G1 X68.457S647.059
G1 X53.357S0
G1 X48.457S647.059
G1 X33.457S0
G1 X28.457S647.059
G1 X13.457S0
G1 X8.357S647.059
G1 X-6.543S0
G1 X-11.543S647.059
G1 X-26.543S0
G1 X-31.643S647.059
G1 X-46.543S0
G1 X-51.543S647.059
G1 X-66.543S0
G1 X-71.543S647.059
G1 X-86.543S0
G1 X-91.543S647.059
G1 X-106.543S0
G1 X-111.642S647.059
G1 X-126.543S0
G1 X-131.543S647.059
G1 X-146.543S0
G1 X-151.543S647.059
G1 X-166.643S0
G1 X-171.543S647.059
G1 X-186.543S0
G1 X-191.543S647.059
G1 X-206.543S0
G1 X-211.543S647.059
G1 X-226.543S0
G1 X-231.543S647.059
G1 X-246.543S0
G1 X-251.543S647.059
G1 X-266.543S0
G1 X-271.543S647.059
G1 X-286.543S0
G1 X-291.543S647.059
G1 Y-140S0
G1 X-286.643S647.059
G1 X-271.543S0
G1 X-266.543S647.059
G1 X-251.543S0
G1 X-246.543S647.059
G1 X-231.543S0
G1 X-226.543S647.059
G1 X-211.543S0
G1 X-206.543S647.059
G1 X-191.643S0
G1 X-186.543S647.059
G1 X-171.543S0
G1 X-166.543S647.059
G1 X-151.643S0
G1 X-146.543S647.059
G1 X-131.543S0
G1 X-126.543S647.059
G1 X-111.543S0
G1 X-106.543S647.059
G1 X-91.543S0
G1 X-86.642S647.059
G1 X-71.543S0
G1 X-66.642S647.059
G1 X-51.643S0
G1 X-46.643S647.059
G1 X-31.543S0
G1 X-26.543S647.059
G1 X-11.643S0
G1 X-6.642S647.059
G1 X8.457S0
G1 X13.457S647.059
G1 X28.356S0
G1 X33.357S647.059
G1 X48.357S0
G1 X53.457S647.059
G1 X68.457S0
G1 X73.357S647.059
G1 X88.357S0
G1 X93.457S647.059
G1 X108.457S0
G1 X113.457S647.059
G1 X128.457S0
G1 X133.357S647.059
G1 X148.457S0
G1 X153.457S647.059
G1 X168.357S0
G1 X173.357S647.059
G1 X188.357S0
G1 X193.457S647.059
G1 X208.457S0
G1 X213.357S647.059
G1 X228.457S0
G1 X233.357S647.059
G1 X248.457S0
G1 X253.357S647.059
G1 X268.356S0
G1 X273.356S647.059
G1 X288.457S0
G1 X293.356S647.059
G1 Y-139.9S0
G1 X288.356S647.059
G1 X273.356S0
G1 X268.356S647.059
G1 X253.357S0
G1 X248.357S647.059
G1 X233.357S0
G1 X228.357S647.059
G1 X213.457S0
G1 X208.357S647.059
G1 X193.357S0
G1 X188.457S647.059
G1 X173.457S0
G1 X168.457S647.059
G1 X153.357S0
G1 X148.457S647.059
G1 X133.357S0
G1 X128.357S647.059
G1 X113.357S0
G1 X108.457S647.059
G1 X93.357S0
G1 X88.457S647.059
G1 X73.457S0
G1 X68.357S647.059
G1 X53.457S0
G1 X48.457S647.059
G1 X33.457S0
G1 X28.457S647.059
G1 X13.357S0
G1 X8.457S647.059
G1 X-6.642S0
G1 X-11.543S647.059
G1 X-26.643S0
G1 X-31.543S647.059
G1 X-46.543S0
G1 X-51.543S647.059
G1 X-66.543S0
G1 X-71.642S647.059
G1 X-86.543S0
G1 X-91.543S647.059
G1 X-106.543S0
G1 X-111.543S647.059
G1 X-126.642S0
G1 X-131.543S647.059
G1 X-146.543S0
G1 X-151.543S647.059
G1 X-166.543S0
G1 X-171.543S647.059
G1 X-186.543S0
G1 X-191.543S647.059
G1 X-206.543S0
G1 X-211.543S647.059
G1 X-226.543S0
G1 X-231.543S647.059
G1 X-246.543S0
G1 X-251.543S647.059
G1 X-266.543S0
G1 X-271.543S647.059
G1 X-286.543S0
G1 X-291.543S647.059
G1 Y-139.8S0
G1 X-286.543S647.059
G1 X-271.543S0
G1 X-266.543S647.059
G1 X-251.543S0
G1 X-246.643S647.059
G1 X-231.543S0
G1 X-226.543S647.059
G1 X-211.543S0
G1 X-206.643S647.059
G1 X-191.543S0
G1 X-186.543S647.059
G1 X-171.543S0
G1 X-166.643S647.059
G1 X-151.543S0
G1 X-146.643S647.059
G1 X-131.543S0
G1 X-126.543S647.059
G1 X-111.642S0
G1 X-106.642S647.059
G1 X-91.543S0
G1 X-86.543S647.059
G1 X-71.543S0
G1 X-66.543S647.059
G1 X-51.543S0
G1 X-46.543S647.059
G1 X-31.643S0
G1 X-26.543S647.059
G1 X-11.543S0
G1 X-6.543S647.059
G1 X8.357S0
G1 X13.457S647.059
G1 X28.457S0
G1 X33.357S647.059
G1 X48.357S0
G1 X53.357S647.059
G1 X68.457S0
G1 X73.357S647.059
G1 X88.357S0
G1 X93.357S647.059
G1 X108.357S0
G1 X113.357S647.059
G1 X128.357S0
G1 X133.457S647.059
G1 X148.357S0
G1 X153.357S647.059
G1 X168.357S0
G1 X173.357S647.059
G1 X188.357S0
G1 X193.357S647.059
G1 X208.357S0
G1 X213.357S647.059
G1 X228.357S0
G1 X233.457S647.059
G1 X248.357S0
G1 X253.357S647.059
G1 X268.457S0
G1 X273.457S647.059
G1 X288.356S0
G1 X293.356S647.059
G1 Y-139.699S0
G1 X288.457S647.059
G1 X273.356S0
G1 X268.356S647.059
G1 X253.357S0
G1 X248.457S647.059
G1 X233.357S0
G1 X228.457S647.059
G1 X213.357S0
G1 X208.457S647.059
G1 X193.457S0
G1 X188.457S647.059
G1 X173.357S0
G1 X168.357S647.059
G1 X153.457S0
G1 X148.457S647.059
G1 X133.357S0
G1 X128.457S647.059
G1 X113.457S0
G1 X108.457S647.059
G1 X93.457S0
G1 X88.457S647.059
G1 X73.457S0
G1 X68.457S647.059
G1 X53.457S0
G1 X48.457S647.059
G1 X33.457S0
G1 X28.457S647.059
G1 X13.457S0
G1 X8.457S647.059
G1 X-6.543S0
G1 X-11.543S647.059
G1 X-26.543S0
G1 X-31.543S647.059
G1 X-46.643S0
G1 X-51.543S647.059
G1 X-66.543S0
G1 X-71.543S647.059
G1 X-86.642S0
G1 X-91.543S647.059
G1 X-106.543S0
G1 X-111.543S647.059
G1 X-126.543S0
G1 X-131.543S647.059
G1 X-146.543S0
G1 X-151.543S647.059
G1 X-166.543S0
G1 X-171.543S647.059
G1 X-186.543S0
G1 X-191.543S647.059
G1 X-206.543S0
G1 X-211.543S647.059
G1 X-226.543S0
G1 X-231.543S647.059
G1 X-246.543S0
G1 X-251.543S647.059
G1 X-266.543S0
G1 X-271.543S647.059
G1 X-286.543S0
G1 X-291.543S647.059
G1 Y-139.6S0
G1 X-286.543S647.059
G1 X-271.543S0
G1 X-266.543S647.059
G1 X-251.543S0
G1 X-246.543S647.059
G1 X-231.543S0
G1 X-226.643S647.059
G1 X-211.543S0
G1 X-206.543S647.059
G1 X-191.543S0
G1 X-186.543S647.059
G1 X-171.543S0
G1 X-166.543S647.059
G1 X-151.543S0
G1 X-146.543S647.059
G1 X-131.543S0
G1 X-126.642S647.059
G1 X-111.543S0
G1 X-106.543S647.059
G1 X-91.543S0
G1 X-86.543S647.059
G1 X-71.543S0
G1 X-66.642S647.059
G1 X-51.543S0
G1 X-46.543S647.059
G1 X-31.543S0
G1 X-26.643S647.059
G1 X-11.543S0
G1 X-6.642S647.059
G1 X8.457S0
G1 X13.357S647.059
G1 X28.457S0
G1 X33.357S647.059
G1 X48.457S0
G1 X53.357S647.059
G1 X68.457S0
G1 X73.357S647.059
G1 X88.457S0
G1 X93.357S647.059
G1 X108.457S0
G1 X113.357S647.059
G1 X128.457S0
G1 X133.357S647.059
G1 X148.457S0
G1 X153.357S647.059
G1 X168.457S0
G1 X173.357S647.059
G1 X188.457S0
G1 X193.357S647.059
G1 X208.357S0
G1 X213.357S647.059
G1 X228.457S0
G1 X233.357S647.059
G1 X248.357S0
G1 X253.357S647.059
G1 X268.457S0
G1 X273.356S647.059
G1 X288.356S0
G1 X293.356S647.059
G1 Y-139.5S0
G1 X288.457S647.059
G1 X273.356S0
G1 X268.457S647.059
G1 X253.357S0
G1 X248.457S647.059
G1 X233.357S0
G1 X228.457S647.059
G1 X213.357S0
G1 X208.457S647.059
G1 X193.357S0
G1 X188.457S647.059
G1 X173.357S0
G1 X168.457S647.059
G1 X153.357S0
G1 X148.457S647.059
G1 X133.357S0
G1 X128.457S647.059
G1 X113.357S0
G1 X108.457S647.059
G1 X93.357S0
G1 X88.457S647.059
G1 X73.357S0
G1 X68.457S647.059
G1 X53.357S0
G1 X48.457S647.059
G1 X33.357S0
G1 X28.457S647.059
G1 X13.357S0
G1 X8.457S647.059
G1 X-6.642S0
G1 X-11.543S647.059
G1 X-26.643S0
G1 X-31.543S647.059
G1 X-46.643S0
G1 X-51.543S647.059
G1 X-66.642S0
G1 X-71.543S647.059
G1 X-86.642S0
G1 X-91.543S647.059
G1 X-106.642S0
G1 X-111.443S647.059
G1 X-126.642S0
G1 X-131.543S647.059
G1 X-146.643S0
G1 X-151.543S647.059
G1 X-166.643S0
G1 X-171.543S647.059
G1 X-186.643S0
G1 X-191.543S647.059
G1 X-206.643S0
G1 X-211.543S647.059
G1 X-226.543S0
G1 X-231.543S647.059
G1 X-246.643S0
G1 X-251.543S647.059
G1 X-266.543S0
G1 X-271.543S647.059
G1 X-286.643S0
G1 X-291.543S647.059
G1 Y-139.4S0
G1 X-286.643S647.059
G1 X-271.543S0
G1 X-266.643S647.059
G1 X-251.543S0
G1 X-246.643S647.059
G1 X-231.543S0
G1 X-226.643S647.059
G1 X-211.543S0
G1 X-206.643S647.059
G1 X-191.543S0
G1 X-186.643S647.059
G1 X-171.543S0
G1 X-166.643S647.059
G1 X-151.543S0
G1 X-146.643S647.059
G1 X-131.543S0
G1 X-126.642S647.059
G1 X-111.543S0
G1 X-106.642S647.059
G1 X-91.543S0
G1 X-86.642S647.059
G1 X-71.543S0
G1 X-66.642S647.059
G1 X-51.543S0
G1 X-46.643S647.059
G1 X-31.543S0
G1 X-26.643S647.059
G1 X-11.543S0
G1 X-6.642S647.059
G1 X8.457S0
G1 X13.357S647.059
G1 X28.457S0
G1 X33.357S647.059
G1 X48.457S0
G1 X53.357S647.059
G1 X68.457S0
G1 X73.357S647.059
G1 X88.457S0
G1 X93.357S647.059
G1 X108.457S0
G1 X113.357S647.059
G1 X128.457S0
G1 X133.357S647.059
G1 X148.457S0
G1 X153.357S647.059
G1 X168.457S0
G1 X173.357S647.059
G1 X188.457S0
G1 X193.357S647.059
G1 X208.457S0
G1 X213.357S647.059
G1 X228.457S0
G1 X233.357S647.059
G1 X248.457S0
G1 X253.357S647.059
G1 X268.457S0
G1 X273.356S647.059
G1 X288.457S0
G1 X293.356S647.059
G1 Y-139.3S0
G1 X288.457S647.059
G1 X273.356S0
G1 X268.457S647.059
G1 X253.357S0
G1 X248.457S647.059
G1 X233.357S0
G1 X228.457S647.059
G1 X213.357S0
G1 X208.457S647.059
G1 X193.357S0
G1 X188.457S647.059
G1 X173.357S0
G1 X168.457S647.059
G1 X153.357S0
G1 X148.457S647.059
G1 X133.357S0
G1 X128.457S647.059
G1 X113.357S0
G1 X108.457S647.059
G1 X93.357S0
G1 X88.457S647.059
G1 X73.357S0
G1 X68.457S647.059
G1 X53.357S0
G1 X48.457S647.059
G1 X33.357S0
G1 X28.557S647.059
G1 X13.357S0
G1 X8.457S647.059
G1 X-6.642S0
G1 X-11.443S647.059
G1 X-26.643S0
G1 X-31.543S647.059
G1 X-46.643S0
G1 X-51.443S647.059
G1 X-66.642S0
G1 X-71.543S647.059
G1 X-86.642S0
G1 X-91.443S647.059
G1 X-106.642S0
G1 X-111.543S647.059
G1 X-126.642S0
G1 X-131.443S647.059
G1 X-146.643S0
G1 X-151.443S647.059
G1 X-166.643S0
G1 X-171.443S647.059
G1 X-186.643S0
G1 X-191.443S647.059
G1 X-206.643S0
G1 X-211.443S647.059
G1 X-226.643S0
G1 X-231.443S647.059
G1 X-246.643S0
G1 X-251.443S647.059
G1 X-266.643S0
G1 X-271.442S647.059
G1 X-286.643S0
G1 X-291.442S647.059
G1 Y-139.199S0
G1 X-286.643S647.059
G1 X-271.442S0
G1 X-266.643S647.059
G1 X-251.443S0
G1 X-246.643S647.059
G1 X-231.443S0
G1 X-226.643S647.059
G1 X-211.443S0
G1 X-206.643S647.059
G1 X-191.443S0
G1 X-186.643S647.059
G1 X-171.443S0
G1 X-166.643S647.059
G1 X-151.443S0
G1 X-146.643S647.059
G1 X-131.443S0
G1 X-126.642S647.059
G1 X-111.443S0
G1 X-106.642S647.059
G1 X-91.443S0
G1 X-86.743S647.059
G1 X-71.443S0
G1 X-66.642S647.059
G1 X-51.443S0
G1 X-46.743S647.059
G1 X-31.443S0
G1 X-26.643S647.059
G1 X-11.443S0
G1 X-6.743S647.059
G1 X8.556S0
G1 X13.357S647.059
G1 X28.557S0
G1 X33.256S647.059
G1 X48.557S0
G1 X53.256S647.059
G1 X68.556S0
G1 X73.257S647.059
G1 X88.556S0
G1 X93.257S647.059
G1 X108.556S0
G1 X113.257S647.059
G1 X128.556S0
G1 X133.257S647.059
G1 X148.557S0
G1 X153.257S647.059
G1 X168.557S0
G1 X173.257S647.059
G1 X188.557S0
G1 X193.257S647.059
G1 X208.557S0
G1 X213.257S647.059
G1 X228.557S0
G1 X233.257S647.059
G1 X248.557S0
G1 X253.257S647.059
G1 X268.557S0
G1 X273.257S647.059
G1 X288.557S0
G1 X293.257S647.059
G1 Y-139.1S0
G1 X288.557S647.059
G1 X273.257S0
G1 X268.557S647.059
G1 X253.257S0
G1 X248.557S647.059
G1 X233.257S0
G1 X228.557S647.059
G1 X213.257S0
G1 X208.557S647.059
G1 X193.257S0
G1 X188.557S647.059
G1 X173.257S0
G1 X168.557S647.059
G1 X153.257S0
G1 X148.557S647.059
G1 X133.257S0
G1 X128.556S647.059
G1 X113.257S0
G1 X108.556S647.059
G1 X93.257S0
G1 X88.556S647.059
G1 X73.257S0
G1 X68.556S647.059
G1 X53.256S0
G1 X48.557S647.059
G1 X33.256S0
G1 X28.557S647.059
G1 X13.257S0
G1 X8.556S647.059
G1 X-6.743S0
G1 X-11.443S647.059
G1 X-26.743S0
G1 X-31.443S647.059
G1 X-46.743S0
G1 X-51.443S647.059
G1 X-66.743S0
G1 X-71.443S647.059
G1 X-86.743S0
G1 X-91.443S647.059
G1 X-106.743S0
G1 X-111.443S647.059
G1 X-126.743S0
G1 X-131.443S647.059
G1 X-146.742S0
G1 X-151.443S647.059
G1 X-166.742S0
G1 X-171.443S647.059
G1 X-186.742S0
G1 X-191.443S647.059
G1 X-206.742S0
G1 X-211.443S647.059
G1 X-226.742S0
G1 X-231.443S647.059
G1 X-246.742S0
G1 X-251.443S647.059
G1 X-266.743S0
G1 X-271.442S647.059
G1 X-286.743S0
G1 X-291.442S647.059
G1 X-291.343Y-139S0
G1 X-286.743S647.059
G1 X-271.343S0
G1 X-266.743S647.059
G1 X-251.343S0
G1 X-246.742S647.059
G1 X-231.343S0
G1 X-226.742S647.059
G1 X-211.343S0
G1 X-206.742S647.059
G1 X-191.343S0
G1 X-186.742S647.059
G1 X-171.343S0
G1 X-166.742S647.059
G1 X-151.343S0
G1 X-146.742S647.059
G1 X-131.343S0
G1 X-126.743S647.059
G1 X-111.343S0
G1 X-106.743S647.059
G1 X-91.443S0
G1 X-86.743S647.059
G1 X-71.343S0
G1 X-66.743S647.059
G1 X-51.342S0
G1 X-46.743S647.059
G1 X-31.342S0
G1 X-26.743S647.059
G1 X-11.443S0
G1 X-6.743S647.059
G1 X8.657S0
G1 X13.257S647.059
G1 X28.557S0
G1 X33.256S647.059
G1 X48.657S0
G1 X53.256S647.059
G1 X68.556S0
G1 X73.257S647.059
G1 X88.556S0
G1 X93.257S647.059
G1 X108.556S0
G1 X113.257S647.059
G1 X128.556S0
G1 X133.257S647.059
G1 X148.557S0
G1 X153.156S647.059
G1 X168.557S0
G1 X173.257S647.059
G1 X188.557S0
G1 X193.156S647.059
G1 X208.557S0
G1 X213.257S647.059
G1 X228.557S0
G1 X233.156S647.059
G1 X248.557S0
G1 X253.257S647.059
G1 X268.557S0
G1 X273.157S647.059
G1 X288.557S0
G1 X293.157S647.059
G1 Y-138.9S0
G1 X288.657S647.059
G1 X273.157S0
G1 X268.657S647.059
G1 X253.156S0
G1 X248.656S647.059
G1 X233.156S0
G1 X228.656S647.059
G1 X213.156S0
G1 X208.656S647.059
G1 X193.156S0
G1 X188.656S647.059
G1 X173.156S0
G1 X168.656S647.059
G1 X153.156S0
G1 X148.656S647.059
G1 X133.156S0
G1 X128.657S647.059
G1 X113.157S0
G1 X108.657S647.059
G1 X93.157S0
G1 X88.657S647.059
G1 X73.157S0
G1 X68.657S647.059
G1 X53.157S0
G1 X48.657S647.059
G1 X33.157S0
G1 X28.657S647.059
G1 X13.156S0
G1 X8.657S647.059
G1 X-6.843S0
G1 X-11.343S647.059
G1 X-26.843S0
G1 X-31.342S647.059
G1 X-46.842S0
G1 X-51.342S647.059
G1 X-66.843S0
G1 X-71.343S647.059
G1 X-86.843S0
G1 X-91.343S647.059
G1 X-106.843S0
G1 X-111.343S647.059
G1 X-126.843S0
G1 X-131.343S647.059
G1 X-146.843S0
G1 X-151.343S647.059
G1 X-166.843S0
G1 X-171.343S647.059
G1 X-186.843S0
G1 X-191.343S647.059
G1 X-206.843S0
G1 X-211.343S647.059
G1 X-226.843S0
G1 X-231.343S647.059
G1 X-246.843S0
G1 X-251.343S647.059
G1 X-266.743S0
G1 X-271.343S647.059
G1 X-286.743S0
G1 X-291.343S647.059
G1 X-291.243Y-138.8S0
G1 X-286.843S647.059
G1 X-271.243S0
G1 X-266.843S647.059
G1 X-251.242S0
G1 X-246.843S647.059
G1 X-231.242S0
G1 X-226.843S647.059
G1 X-211.343S0
G1 X-206.843S647.059
G1 X-191.242S0
G1 X-186.843S647.059
G1 X-171.343S0
G1 X-166.843S647.059
G1 X-151.242S0
G1 X-146.843S647.059
G1 X-131.343S0
G1 X-126.843S647.059
G1 X-111.243S0
G1 X-106.843S647.059
G1 X-91.243S0
G1 X-86.843S647.059
G1 X-71.243S0
G1 X-66.843S647.059
G1 X-51.342S0
G1 X-46.842S647.059
G1 X-31.243S0
G1 X-26.843S647.059
G1 X-11.343S0
G1 X-6.843S647.059
G1 X8.657S0
G1 X13.156S647.059
G1 X28.657S0
G1 X33.157S647.059
G1 X48.657S0
G1 X53.157S647.059
G1 X68.657S0
G1 X73.157S647.059
G1 X88.657S0
G1 X93.157S647.059
G1 X108.657S0
G1 X113.157S647.059
G1 X128.657S0
G1 X133.156S647.059
G1 X148.656S0
G1 X153.156S647.059
G1 X168.656S0
G1 X173.156S647.059
G1 X188.656S0
G1 X193.156S647.059
G1 X208.656S0
G1 X213.156S647.059
G1 X228.656S0
G1 X233.156S647.059
G1 X248.656S0
G1 X253.156S647.059
G1 X268.657S0
G1 X273.157S647.059
G1 X288.657S0
G1 X293.157S647.059
G1 X293.057Y-138.699S0
G1 X288.757S647.059
G1 X273.057S0
G1 X268.757S647.059
G1 X253.057S0
G1 X248.757S647.059
G1 X233.057S0
G1 X228.757S647.059
G1 X213.057S0
G1 X208.757S647.059
G1 X193.057S0
G1 X188.757S647.059
G1 X173.057S0
G1 X168.757S647.059
G1 X153.057S0
G1 X148.757S647.059
G1 X133.057S0
G1 X128.757S647.059
G1 X113.056S0
G1 X108.757S647.059
G1 X93.056S0
G1 X88.757S647.059
G1 X73.056S0
G1 X68.757S647.059
G1 X53.057S0
G1 X48.756S647.059
G1 X33.057S0
G1 X28.757S647.059
G1 X13.057S0
G1 X8.757S647.059
G1 X-6.943S0
G1 X-11.242S647.059
G1 X-26.942S0
G1 X-31.243S647.059
G1 X-46.943S0
G1 X-51.243S647.059
G1 X-66.943S0
G1 X-71.243S647.059
G1 X-86.943S0
G1 X-91.243S647.059
G1 X-106.943S0
G1 X-111.243S647.059
G1 X-126.943S0
G1 X-131.242S647.059
G1 X-146.943S0
G1 X-151.242S647.059
G1 X-166.943S0
G1 X-171.242S647.059
G1 X-186.943S0
G1 X-191.242S647.059
G1 X-206.943S0
G1 X-211.242S647.059
G1 X-226.943S0
G1 X-231.242S647.059
G1 X-246.843S0
G1 X-251.242S647.059
G1 X-266.942S0
G1 X-271.243S647.059
G1 X-286.843S0
G1 X-291.243S647.059
G1 X-291.143Y-138.6S0
G1 X-286.942S647.059
G1 X-271.143S0
G1 X-266.942S647.059
G1 X-251.143S0
G1 X-246.943S647.059
G1 X-231.143S0
G1 X-226.943S647.059
G1 X-211.143S0
G1 X-206.943S647.059
G1 X-191.143S0
G1 X-186.943S647.059
G1 X-171.143S0
G1 X-166.943S647.059
G1 X-151.143S0
G1 X-146.943S647.059
G1 X-131.143S0
G1 X-126.943S647.059
G1 X-111.142S0
G1 X-106.943S647.059
G1 X-91.243S0
G1 X-86.943S647.059
G1 X-71.142S0
G1 X-66.943S647.059
G1 X-51.143S0
G1 X-46.943S647.059
G1 X-31.143S0
G1 X-26.942S647.059
G1 X-11.143S0
G1 X-6.943S647.059
G1 X8.857S0
G1 X12.957S647.059
G1 X28.856S0
G1 X33.057S647.059
G1 X48.857S0
G1 X52.957S647.059
G1 X68.857S0
G1 X73.056S647.059
G1 X88.857S0
G1 X92.957S647.059
G1 X108.857S0
G1 X113.056S647.059
G1 X128.757S0
G1 X132.957S647.059
G1 X148.857S0
G1 X152.957S647.059
G1 X168.757S0
G1 X172.957S647.059
G1 X188.857S0
G1 X192.957S647.059
G1 X208.757S0
G1 X212.957S647.059
G1 X228.857S0
G1 X232.957S647.059
G1 X248.757S0
G1 X252.957S647.059
G1 X268.757S0
G1 X272.957S647.059
G1 X288.757S0
G1 X292.957S647.059
G1 Y-138.5S0
G1 X288.856S647.059
G1 X272.957S0
G1 X268.856S647.059
G1 X252.957S0
G1 X248.857S647.059
G1 X232.957S0
G1 X228.857S647.059
G1 X212.957S0
G1 X208.857S647.059
G1 X192.957S0
G1 X188.857S647.059
G1 X172.957S0
G1 X168.857S647.059
G1 X152.957S0
G1 X148.857S647.059
G1 X132.957S0
G1 X128.857S647.059
G1 X112.957S0
G1 X108.857S647.059
G1 X92.957S0
G1 X88.857S647.059
G1 X72.957S0
G1 X68.857S647.059
G1 X52.957S0
G1 X48.857S647.059
G1 X32.957S0
G1 X28.856S647.059
G1 X12.957S0
G1 X8.857S647.059
G1 X-7.043S0
G1 X-11.143S647.059
G1 X-27.043S0
G1 X-31.143S647.059
G1 X-47.043S0
G1 X-51.143S647.059
G1 X-67.043S0
G1 X-71.142S647.059
G1 X-87.043S0
G1 X-91.043S647.059
G1 X-107.043S0
G1 X-111.142S647.059
G1 X-127.043S0
G1 X-131.043S647.059
G1 X-147.043S0
G1 X-151.043S647.059
G1 X-167.043S0
G1 X-171.043S647.059
G1 X-187.043S0
G1 X-191.043S647.059
G1 X-207.043S0
G1 X-211.043S647.059
G1 X-227.043S0
G1 X-231.043S647.059
G1 X-247.043S0
G1 X-251.043S647.059
G1 X-267.043S0
G1 X-271.043S647.059
G1 X-287.043S0
G1 X-291.043S647.059
G1 Y-138.4S0
G1 X-287.143S647.059
G1 X-271.043S0
G1 X-267.143S647.059
G1 X-251.043S0
G1 X-247.143S647.059
G1 X-231.043S0
G1 X-227.143S647.059
G1 X-211.043S0
G1 X-207.143S647.059
G1 X-191.043S0
G1 X-187.143S647.059
G1 X-171.043S0
G1 X-167.143S647.059
G1 X-151.043S0
G1 X-147.143S647.059
G1 X-131.043S0
G1 X-127.143S647.059
G1 X-111.043S0
G1 X-107.142S647.059
G1 X-91.043S0
G1 X-87.142S647.059
G1 X-71.043S0
G1 X-67.142S647.059
G1 X-51.043S0
G1 X-47.143S647.059
G1 X-31.043S0
G1 X-27.143S647.059
G1 X-11.043S0
G1 X-7.143S647.059
G1 X8.957S0
G1 X12.857S647.059
G1 X28.957S0
G1 X32.856S647.059
G1 X48.957S0
G1 X52.857S647.059
G1 X68.957S0
G1 X72.857S647.059
G1 X88.957S0
G1 X92.857S647.059
G1 X108.957S0
G1 X112.857S647.059
G1 X128.957S0
G1 X132.857S647.059
G1 X148.957S0
G1 X152.857S647.059
G1 X168.957S0
G1 X172.857S647.059
G1 X188.957S0
G1 X192.857S647.059
G1 X208.957S0
G1 X212.857S647.059
G1 X228.957S0
G1 X232.857S647.059
G1 X248.957S0
G1 X252.857S647.059
G1 X268.957S0
G1 X272.856S647.059
G1 X288.957S0
G1 X292.856S647.059
G1 X292.757Y-138.3S0
G1 X289.057S647.059
G1 X272.757S0
G1 X269.057S647.059
G1 X252.757S0
G1 X249.057S647.059
G1 X232.757S0
G1 X229.057S647.059
G1 X212.757S0
G1 X209.057S647.059
G1 X192.757S0
G1 X189.057S647.059
G1 X172.757S0
G1 X169.057S647.059
G1 X152.757S0
G1 X149.057S647.059
G1 X132.757S0
G1 X129.057S647.059
G1 X112.757S0
G1 X109.056S647.059
G1 X92.757S0
G1 X89.056S647.059
G1 X72.757S0
G1 X69.056S647.059
G1 X52.756S0
G1 X49.057S647.059
G1 X32.757S0
G1 X29.057S647.059
G1 X12.757S0
G1 X9.057S647.059
G1 X-7.242S0
G1 X-10.943S647.059
G1 X-27.143S0
G1 X-30.942S647.059
G1 X-47.243S0
G1 X-50.943S647.059
G1 X-67.142S0
G1 X-70.943S647.059
G1 X-87.243S0
G1 X-90.943S647.059
G1 X-107.142S0
G1 X-110.943S647.059
G1 X-127.242S0
G1 X-130.943S647.059
G1 X-147.143S0
G1 X-150.943S647.059
G1 X-167.143S0
G1 X-170.943S647.059
G1 X-187.143S0
G1 X-190.943S647.059
G1 X-207.143S0
G1 X-210.943S647.059
G1 X-227.143S0
G1 X-230.943S647.059
G1 X-247.143S0
G1 X-250.943S647.059
G1 X-267.143S0
G1 X-270.942S647.059
G1 X-287.243S0
G1 X-290.942S647.059
G1 X-290.843Y-138.199S0
G1 X-287.243S647.059
G1 X-270.843S0
G1 X-267.343S647.059
G1 X-250.843S0
G1 X-247.343S647.059
G1 X-230.843S0
G1 X-227.343S647.059
G1 X-210.843S0
G1 X-207.343S647.059
G1 X-190.843S0
G1 X-187.343S647.059
G1 X-170.843S0
G1 X-167.343S647.059
G1 X-150.843S0
G1 X-147.343S647.059
G1 X-130.843S0
G1 X-127.343S647.059
G1 X-110.843S0
G1 X-107.343S647.059
G1 X-90.843S0
G1 X-87.343S647.059
G1 X-70.843S0
G1 X-67.343S647.059
G1 X-50.842S0
G1 X-47.342S647.059
G1 X-30.843S0
G1 X-27.343S647.059
G1 X-10.843S0
G1 X-7.343S647.059
G1 X9.156S0
G1 X12.757S647.059
G1 X29.157S0
G1 X32.657S647.059
G1 X49.157S0
G1 X52.756S647.059
G1 X69.157S0
G1 X72.657S647.059
G1 X89.157S0
G1 X92.657S647.059
G1 X109.157S0
G1 X112.657S647.059
G1 X129.156S0
G1 X132.656S647.059
G1 X149.156S0
G1 X152.656S647.059
G1 X169.156S0
G1 X172.656S647.059
G1 X189.156S0
G1 X192.656S647.059
G1 X209.156S0
G1 X212.656S647.059
G1 X229.057S0
G1 X232.656S647.059
G1 X249.156S0
G1 X252.656S647.059
G1 X269.057S0
G1 X272.657S647.059
G1 X289.157S0
G1 X292.657S647.059
G1 X292.557Y-138.1S0
G1 X289.257S647.059
G1 X272.557S0
G1 X269.257S647.059
G1 X252.557S0
G1 X249.257S647.059
G1 X232.557S0
G1 X229.257S647.059
G1 X212.557S0
G1 X209.257S647.059
G1 X192.557S0
G1 X189.257S647.059
G1 X172.557S0
G1 X169.257S647.059
G1 X152.557S0
G1 X149.257S647.059
G1 X132.557S0
G1 X129.257S647.059
G1 X112.556S0
G1 X109.257S647.059
G1 X92.556S0
G1 X89.257S647.059
G1 X72.556S0
G1 X69.257S647.059
G1 X52.557S0
G1 X49.256S647.059
G1 X32.557S0
G1 X29.257S647.059
G1 X12.557S0
G1 X9.257S647.059
G1 X-7.443S0
G1 X-10.742S647.059
G1 X-27.442S0
G1 X-30.743S647.059
G1 X-47.342S0
G1 X-50.743S647.059
G1 X-67.343S0
G1 X-70.743S647.059
G1 X-87.343S0
G1 X-90.743S647.059
G1 X-107.343S0
G1 X-110.743S647.059
G1 X-127.343S0
G1 X-130.742S647.059
G1 X-147.343S0
G1 X-150.742S647.059
G1 X-167.343S0
G1 X-170.742S647.059
G1 X-187.343S0
G1 X-190.742S647.059
G1 X-207.343S0
G1 X-210.742S647.059
G1 X-227.343S0
G1 X-230.742S647.059
G1 X-247.343S0
G1 X-250.742S647.059
G1 X-267.343S0
G1 X-270.743S647.059
G1 X-287.343S0
G1 X-290.743S647.059
G1 X-290.643Y-138S0
G1 X-287.543S647.059
G1 X-270.643S0
G1 X-267.543S647.059
G1 X-250.643S0
G1 X-247.543S647.059
G1 X-230.643S0
G1 X-227.543S647.059
G1 X-210.643S0
G1 X-207.543S647.059
G1 X-190.643S0
G1 X-187.543S647.059
G1 X-170.643S0
G1 X-167.543S647.059
G1 X-150.643S0
G1 X-147.543S647.059
G1 X-130.643S0
G1 X-127.543S647.059
G1 X-110.642S0
G1 X-107.543S647.059
G1 X-90.642S0
G1 X-87.543S647.059
G1 X-70.642S0
G1 X-67.543S647.059
G1 X-50.643S0
G1 X-47.543S647.059
G1 X-30.643S0
G1 X-27.543S647.059
G1 X-10.643S0
G1 X-7.543S647.059
G1 X9.357S0
G1 X12.457S647.059
G1 X29.356S0
G1 X32.457S647.059
G1 X49.357S0
G1 X52.457S647.059
G1 X69.357S0
G1 X72.457S647.059
G1 X89.357S0
G1 X92.457S647.059
G1 X109.357S0
G1 X112.457S647.059
G1 X129.357S0
G1 X132.457S647.059
G1 X149.357S0
G1 X152.457S647.059
G1 X169.357S0
G1 X172.457S647.059
G1 X189.357S0
G1 X192.457S647.059
G1 X209.357S0
G1 X212.457S647.059
G1 X229.357S0
G1 X232.457S647.059
G1 X249.357S0
G1 X252.457S647.059
G1 X269.356S0
G1 X272.457S647.059
G1 X289.356S0
G1 X292.457S647.059
G1 X292.356Y-137.9S0
G1 X289.457S647.059
G1 X272.356S0
G1 X269.457S647.059
G1 X252.357S0
G1 X249.457S647.059
G1 X232.357S0
G1 X229.457S647.059
G1 X212.357S0
G1 X209.457S647.059
G1 X192.357S0
G1 X189.457S647.059
G1 X172.357S0
G1 X169.457S647.059
G1 X152.357S0
G1 X149.457S647.059
G1 X132.357S0
G1 X129.457S647.059
G1 X112.357S0
G1 X109.457S647.059
G1 X92.357S0
G1 X89.457S647.059
G1 X72.357S0
G1 X69.457S647.059
G1 X52.357S0
G1 X49.457S647.059
G1 X32.356S0
G1 X29.457S647.059
G1 X12.357S0
G1 X9.457S647.059
G1 X-7.643S0
G1 X-10.543S647.059
G1 X-27.643S0
G1 X-30.543S647.059
G1 X-47.643S0
G1 X-50.543S647.059
G1 X-67.642S0
G1 X-70.543S647.059
G1 X-87.642S0
G1 X-90.543S647.059
G1 X-107.642S0
G1 X-110.543S647.059
G1 X-127.643S0
G1 X-130.543S647.059
G1 X-147.643S0
G1 X-150.443S647.059
G1 X-167.643S0
G1 X-170.443S647.059
G1 X-187.643S0
G1 X-190.443S647.059
G1 X-207.643S0
G1 X-210.443S647.059
G1 X-227.643S0
G1 X-230.443S647.059
G1 X-247.643S0
G1 X-250.443S647.059
G1 X-267.643S0
G1 X-270.442S647.059
G1 X-287.643S0
G1 X-290.442S647.059
G1 X-290.343Y-137.8S0
G1 X-287.743S647.059
G1 X-270.343S0
G1 X-267.843S647.059
G1 X-250.343S0
G1 X-247.843S647.059
G1 X-230.343S0
G1 X-227.843S647.059
G1 X-210.343S0
G1 X-207.843S647.059
G1 X-190.343S0
G1 X-187.843S647.059
G1 X-170.343S0
G1 X-167.843S647.059
G1 X-150.343S0
G1 X-147.843S647.059
G1 X-130.343S0
G1 X-127.843S647.059
G1 X-110.343S0
G1 X-107.843S647.059
G1 X-90.343S0
G1 X-87.843S647.059
G1 X-70.343S0
G1 X-67.843S647.059
G1 X-50.342S0
G1 X-47.842S647.059
G1 X-30.343S0
G1 X-27.843S647.059
G1 X-10.343S0
G1 X-7.843S647.059
G1 X9.656S0
G1 X12.156S647.059
G1 X29.657S0
G1 X32.157S647.059
G1 X49.657S0
G1 X52.157S647.059
G1 X69.657S0
G1 X72.157S647.059
G1 X89.657S0
G1 X92.157S647.059
G1 X109.657S0
G1 X112.157S647.059
G1 X129.656S0
G1 X132.156S647.059
G1 X149.656S0
G1 X152.156S647.059
G1 X169.656S0
G1 X172.156S647.059
G1 X189.656S0
G1 X192.156S647.059
G1 X209.656S0
G1 X212.156S647.059
G1 X229.656S0
G1 X232.156S647.059
G1 X249.656S0
G1 X252.156S647.059
G1 X269.657S0
G1 X272.157S647.059
G1 X289.657S0
G1 X292.157S647.059
G1 X291.957Y-137.699S0
G1 X289.856S647.059
G1 X271.957S0
G1 X269.856S647.059
G1 X251.957S0
G1 X249.857S647.059
G1 X231.957S0
G1 X229.857S647.059
G1 X211.957S0
G1 X209.857S647.059
G1 X191.957S0
G1 X189.857S647.059
G1 X171.957S0
G1 X169.857S647.059
G1 X151.957S0
G1 X149.857S647.059
G1 X131.957S0
G1 X129.857S647.059
G1 X111.957S0
G1 X109.857S647.059
G1 X91.957S0
G1 X89.857S647.059
G1 X71.957S0
G1 X69.857S647.059
G1 X52.057S0
G1 X49.857S647.059
G1 X32.057S0
G1 X29.856S647.059
G1 X11.957S0
G1 X9.857S647.059
G1 X-7.943S0
G1 X-10.143S647.059
G1 X-28.043S0
G1 X-30.143S647.059
G1 X-47.943S0
G1 X-50.143S647.059
G1 X-67.943S0
G1 X-70.142S647.059
G1 X-87.943S0
G1 X-90.142S647.059
G1 X-107.943S0
G1 X-110.142S647.059
G1 X-127.943S0
G1 X-130.143S647.059
G1 X-147.943S0
G1 X-150.143S647.059
G1 X-167.943S0
G1 X-170.143S647.059
G1 X-187.943S0
G1 X-190.143S647.059
G1 X-207.943S0
G1 X-210.143S647.059
G1 X-227.943S0
G1 X-230.143S647.059
G1 X-247.943S0
G1 X-250.143S647.059
G1 X-267.942S0
G1 X-270.143S647.059
G1 X-287.942S0
G1 X-290.143S647.059
G1 X-289.942Y-137.6S0
G1 X-288.243S647.059
G1 X-269.942S0
G1 X-268.243S647.059
G1 X-249.943S0
G1 X-248.242S647.059
G1 X-229.943S0
G1 X-228.242S647.059
G1 X-209.943S0
G1 X-208.242S647.059
G1 X-189.943S0
G1 X-188.242S647.059
G1 X-169.943S0
G1 X-168.242S647.059
G1 X-149.943S0
G1 X-148.242S647.059
G1 X-129.943S0
G1 X-128.242S647.059
G1 X-109.943S0
G1 X-108.243S647.059
G1 X-89.943S0
G1 X-88.243S647.059
G1 X-69.943S0
G1 X-68.243S647.059
G1 X-49.943S0
G1 X-48.243S647.059
G1 X-29.942S0
G1 X-28.243S647.059
G1 X-9.943S0
G1 X-8.242S647.059
G1 X10.057S0
G1 X11.757S647.059
G1 X30.057S0
G1 X31.657S647.059
G1 X50.057S0
G1 X51.657S647.059
G1 X70.056S0
G1 X71.657S647.059
G1 X90.056S0
G1 X91.657S647.059
G1 X110.056S0
G1 X111.657S647.059
G1 X130.057S0
G1 X131.656S647.059
G1 X150.057S0
G1 X151.656S647.059
G1 X170.057S0
G1 X171.656S647.059
G1 X190.057S0
G1 X191.656S647.059
G1 X210.057S0
G1 X211.656S647.059
G1 X230.057S0
G1 X231.656S647.059
G1 X250.057S0
G1 X251.656S647.059
G1 X270.057S0
G1 X271.657S647.059
G1 X290.057S0
G1 X291.657S647.059
G1 X291.457Y-137.5S0
G1 X290.557S647.059
G1 X290.457S0
G1 X290.356S647.059
G1 X271.457S0
G1 X270.557S647.059
G1 X270.457S0
G1 X270.356S647.059
G1 X251.457S0
G1 X250.557S647.059
G1 X250.357S0
G1 X250.257S647.059
G1 X231.457S0
G1 X230.557S647.059
G1 X230.357S0
G1 X230.257S647.059
G1 X211.457S0
G1 X210.557S647.059
G1 X210.357S0
G1 X210.257S647.059
G1 X191.457S0
G1 X190.557S647.059
G1 X190.357S0
G1 X190.257S647.059
G1 X171.457S0
G1 X170.557S647.059
G1 X170.357S0
G1 X170.257S647.059
G1 X151.457S0
G1 X150.557S647.059
G1 X150.357S0
G1 X150.257S647.059
G1 X131.457S0
G1 X130.557S647.059
G1 X130.357S0
G1 X130.257S647.059
G1 X111.457S0
G1 X110.556S647.059
G1 X110.357S0
G1 X110.257S647.059
G1 X91.457S0
G1 X90.556S647.059
G1 X71.457S0
G1 X70.556S647.059
G1 X51.457S0
G1 X50.557S647.059
G1 X50.357S0
G1 X50.256S647.059
G1 X31.457S0
G1 X30.557S647.059
G1 X30.356S0
G1 X30.257S647.059
G1 X11.457S0
G1 X10.557S647.059
G1 X-8.543S0
G1 X-9.443S647.059
G1 X-28.543S0
G1 X-29.442S647.059
G1 X-48.543S0
G1 X-49.443S647.059
G1 X-49.643S0
G1 X-49.743S647.059
G1 X-68.543S0
G1 X-69.443S647.059
G1 X-88.543S0
G1 X-89.443S647.059
G1 X-108.543S0
G1 X-109.443S647.059
G1 X-128.543S0
G1 X-129.443S647.059
G1 X-148.543S0
G1 X-149.443S647.059
G1 X-168.543S0
G1 X-169.443S647.059
G1 X-188.543S0
G1 X-189.443S647.059
G1 X-208.543S0
G1 X-209.443S647.059
G1 X-228.543S0
G1 X-229.443S647.059
G1 X-248.543S0
G1 X-249.443S647.059
G1 X-268.543S0
G1 X-269.442S647.059
G1 X-288.543S0
G1 X-289.442S647.059
G1 X-289.643Y-122.4S0
G1 X-288.643S647.059
G1 X-269.643S0
G1 X-268.643S647.059
G1 X-249.643S0
G1 X-248.643S647.059
G1 X-229.643S0
G1 X-228.643S647.059
G1 X-209.643S0
G1 X-208.643S647.059
G1 X-189.643S0
G1 X-188.643S647.059
G1 X-169.643S0
G1 X-168.643S647.059
G1 X-149.643S0
G1 X-148.643S647.059
G1 X-129.643S0
G1 X-128.643S647.059
G1 X-109.642S0
G1 X-108.642S647.059
G1 X-89.642S0
G1 X-88.642S647.059
G1 X-69.642S0
G1 X-68.642S647.059
G1 X-49.643S0
G1 X-48.743S647.059
G1 X-48.643S0
G1 X-48.543S647.059
G1 X-29.643S0
G1 X-28.743S647.059
G1 X-9.643S0
G1 X-8.742S647.059
G1 X-8.643S0
G1 X-8.543S647.059
G1 X10.357S0
G1 X11.257S647.059
G1 X30.356S0
G1 X31.257S647.059
G1 X31.356S0
G1 X31.457S647.059
G1 X50.357S0
G1 X51.256S647.059
G1 X70.357S0
G1 X71.257S647.059
G1 X71.357S0
G1 X71.457S647.059
G1 X90.357S0
G1 X91.257S647.059
G1 X110.357S0
G1 X111.257S647.059
G1 X130.357S0
G1 X131.257S647.059
G1 X150.357S0
G1 X151.257S647.059
G1 X170.357S0
G1 X171.257S647.059
G1 X190.357S0
G1 X191.257S647.059
G1 X210.357S0
G1 X211.257S647.059
G1 X230.357S0
G1 X231.257S647.059
G1 X250.357S0
G1 X251.257S647.059
G1 X270.356S0
G1 X271.257S647.059
G1 X290.356S0
G1 X291.257S647.059
G1 X291.757Y-122.3S0
G1 X290.057S647.059
G1 X271.757S0
G1 X270.057S647.059
G1 X251.757S0
G1 X250.057S647.059
G1 X231.757S0
G1 X230.057S647.059
G1 X211.757S0
G1 X210.057S647.059
G1 X191.757S0
G1 X190.057S647.059
G1 X171.757S0
G1 X170.057S647.059
G1 X151.757S0
G1 X150.057S647.059
G1 X131.757S0
G1 X130.057S647.059
G1 X111.757S0
G1 X110.056S647.059
G1 X91.757S0
G1 X90.056S647.059
G1 X71.757S0
G1 X70.056S647.059
G1 X51.756S0
G1 X50.057S647.059
G1 X31.757S0
G1 X30.057S647.059
G1 X11.757S0
G1 X10.057S647.059
G1 X-8.242S0
G1 X-9.943S647.059
G1 X-28.243S0
G1 X-29.942S647.059
G1 X-48.243S0
G1 X-49.943S647.059
G1 X-68.243S0
G1 X-69.943S647.059
G1 X-88.243S0
G1 X-89.943S647.059
G1 X-108.243S0
G1 X-109.943S647.059
G1 X-128.242S0
G1 X-129.943S647.059
G1 X-148.242S0
G1 X-149.943S647.059
G1 X-168.242S0
G1 X-169.943S647.059
G1 X-188.242S0
G1 X-189.943S647.059
G1 X-208.242S0
G1 X-209.943S647.059
G1 X-228.242S0
G1 X-229.943S647.059
G1 X-248.242S0
G1 X-249.943S647.059
G1 X-268.243S0
G1 X-269.942S647.059
G1 X-288.243S0
G1 X-289.942S647.059
G1 X-290.143Y-122.2S0
G1 X-287.942S647.059
G1 X-270.143S0
G1 X-267.942S647.059
G1 X-250.143S0
G1 X-247.943S647.059
G1 X-230.143S0
G1 X-227.943S647.059
G1 X-210.143S0
G1 X-207.943S647.059
G1 X-190.143S0
G1 X-187.943S647.059
G1 X-170.143S0
G1 X-167.943S647.059
G1 X-150.143S0
G1 X-147.943S647.059
G1 X-130.143S0
G1 X-128.043S647.059
G1 X-110.142S0
G1 X-107.943S647.059
G1 X-90.142S0
G1 X-88.043S647.059
G1 X-70.142S0
G1 X-67.943S647.059
G1 X-50.143S0
G1 X-48.043S647.059
G1 X-30.143S0
G1 X-28.043S647.059
G1 X-10.242S0
G1 X-8.043S647.059
G1 X9.857S0
G1 X11.957S647.059
G1 X29.757S0
G1 X31.957S647.059
G1 X49.756S0
G1 X51.957S647.059
G1 X69.757S0
G1 X71.957S647.059
G1 X89.757S0
G1 X91.957S647.059
G1 X109.757S0
G1 X111.957S647.059
G1 X129.757S0
G1 X131.957S647.059
G1 X149.757S0
G1 X151.957S647.059
G1 X169.757S0
G1 X171.957S647.059
G1 X189.757S0
G1 X191.957S647.059
G1 X209.757S0
G1 X211.957S647.059
G1 X229.757S0
G1 X231.957S647.059
G1 X249.757S0
G1 X251.957S647.059
G1 X269.757S0
G1 X271.957S647.059
G1 X289.757S0
G1 X291.957S647.059
G1 X292.157Y-122.099S0
G1 X289.657S647.059
G1 X272.157S0
G1 X269.657S647.059
G1 X252.156S0
G1 X249.656S647.059
G1 X232.156S0
G1 X229.656S647.059
G1 X212.156S0
G1 X209.656S647.059
G1 X192.156S0
G1 X189.656S647.059
G1 X172.156S0
G1 X169.656S647.059
G1 X152.156S0
G1 X149.656S647.059
G1 X132.156S0
G1 X129.656S647.059
G1 X112.157S0
G1 X109.657S647.059
G1 X92.157S0
G1 X89.657S647.059
G1 X72.257S0
G1 X69.657S647.059
G1 X52.256S0
G1 X49.657S647.059
G1 X32.257S0
G1 X29.657S647.059
G1 X12.257S0
G1 X9.656S647.059
G1 X-7.742S0
G1 X-10.343S647.059
G1 X-27.743S0
G1 X-30.343S647.059
G1 X-47.743S0
G1 X-50.342S647.059
G1 X-67.743S0
G1 X-70.343S647.059
G1 X-87.743S0
G1 X-90.343S647.059
G1 X-107.743S0
G1 X-110.343S647.059
G1 X-127.742S0
G1 X-130.343S647.059
G1 X-147.742S0
G1 X-150.343S647.059
G1 X-167.742S0
G1 X-170.343S647.059
G1 X-187.742S0
G1 X-190.343S647.059
G1 X-207.742S0
G1 X-210.343S647.059
G1 X-227.742S0
G1 X-230.343S647.059
G1 X-247.742S0
G1 X-250.343S647.059
G1 X-267.743S0
G1 X-270.343S647.059
G1 X-287.743S0
G1 X-290.343S647.059
G1 X-290.442Y-122S0
G1 X-287.643S647.059
G1 X-270.442S0
G1 X-267.643S647.059
G1 X-250.543S0
G1 X-247.643S647.059
G1 X-230.543S0
G1 X-227.643S647.059
G1 X-210.543S0
G1 X-207.643S647.059
G1 X-190.443S0
G1 X-187.643S647.059
G1 X-170.543S0
G1 X-167.643S647.059
G1 X-150.543S0
G1 X-147.643S647.059
G1 X-130.543S0
G1 X-127.643S647.059
G1 X-110.543S0
G1 X-107.642S647.059
G1 X-90.543S0
G1 X-87.642S647.059
G1 X-70.543S0
G1 X-67.642S647.059
G1 X-50.543S0
G1 X-47.643S647.059
G1 X-30.543S0
G1 X-27.643S647.059
G1 X-10.543S0
G1 X-7.643S647.059
G1 X9.457S0
G1 X12.357S647.059
G1 X29.457S0
G1 X32.356S647.059
G1 X49.457S0
G1 X52.357S647.059
G1 X69.457S0
G1 X72.357S647.059
G1 X89.457S0
G1 X92.357S647.059
G1 X109.457S0
G1 X112.357S647.059
G1 X129.457S0
G1 X132.357S647.059
G1 X149.457S0
G1 X152.357S647.059
G1 X169.457S0
G1 X172.357S647.059
G1 X189.457S0
G1 X192.357S647.059
G1 X209.457S0
G1 X212.357S647.059
G1 X229.457S0
G1 X232.357S647.059
G1 X249.457S0
G1 X252.357S647.059
G1 X269.457S0
G1 X272.356S647.059
G1 X289.457S0
G1 X292.356S647.059
G1 X292.457Y-121.9S0
G1 X289.356S647.059
G1 X272.457S0
G1 X269.356S647.059
G1 X252.457S0
G1 X249.357S647.059
G1 X232.457S0
G1 X229.357S647.059
G1 X212.457S0
G1 X209.357S647.059
G1 X192.457S0
G1 X189.357S647.059
G1 X172.457S0
G1 X169.357S647.059
G1 X152.457S0
G1 X149.357S647.059
G1 X132.457S0
G1 X129.357S647.059
G1 X112.457S0
G1 X109.357S647.059
G1 X92.457S0
G1 X89.357S647.059
G1 X72.457S0
G1 X69.357S647.059
G1 X52.457S0
G1 X49.357S647.059
G1 X32.457S0
G1 X29.356S647.059
G1 X12.457S0
G1 X9.357S647.059
G1 X-7.543S0
G1 X-10.643S647.059
G1 X-27.543S0
G1 X-30.643S647.059
G1 X-47.443S0
G1 X-50.643S647.059
G1 X-67.543S0
G1 X-70.642S647.059
G1 X-87.443S0
G1 X-90.642S647.059
G1 X-107.543S0
G1 X-110.642S647.059
G1 X-127.443S0
G1 X-130.643S647.059
G1 X-147.443S0
G1 X-150.643S647.059
G1 X-167.443S0
G1 X-170.643S647.059
G1 X-187.543S0
G1 X-190.643S647.059
G1 X-207.543S0
G1 X-210.643S647.059
G1 X-227.443S0
G1 X-230.643S647.059
G1 X-247.543S0
G1 X-250.643S647.059
G1 X-267.442S0
G1 X-270.643S647.059
G1 X-287.543S0
G1 X-290.643S647.059
G1 X-290.743Y-121.8S0
G1 X-287.343S647.059
G1 X-270.743S0
G1 X-267.442S647.059
G1 X-250.742S0
G1 X-247.343S647.059
G1 X-230.742S0
G1 X-227.443S647.059
G1 X-210.742S0
G1 X-207.343S647.059
G1 X-190.742S0
G1 X-187.343S647.059
G1 X-170.742S0
G1 X-167.443S647.059
G1 X-150.742S0
G1 X-147.443S647.059
G1 X-130.742S0
G1 X-127.443S647.059
G1 X-110.743S0
G1 X-107.343S647.059
G1 X-90.743S0
G1 X-87.443S647.059
G1 X-70.743S0
G1 X-67.343S647.059
G1 X-50.743S0
G1 X-47.443S647.059
G1 X-30.743S0
G1 X-27.442S647.059
G1 X-10.742S0
G1 X-7.443S647.059
G1 X9.257S0
G1 X12.557S647.059
G1 X29.257S0
G1 X32.557S647.059
G1 X49.256S0
G1 X52.557S647.059
G1 X69.257S0
G1 X72.556S647.059
G1 X89.157S0
G1 X92.556S647.059
G1 X109.257S0
G1 X112.556S647.059
G1 X129.156S0
G1 X132.557S647.059
G1 X149.257S0
G1 X152.557S647.059
G1 X169.257S0
G1 X172.557S647.059
G1 X189.257S0
G1 X192.557S647.059
G1 X209.257S0
G1 X212.557S647.059
G1 X229.156S0
G1 X232.557S647.059
G1 X249.156S0
G1 X252.557S647.059
G1 X269.157S0
G1 X272.557S647.059
G1 X289.157S0
G1 X292.557S647.059
G1 X292.657Y-121.7S0
G1 X289.057S647.059
G1 X272.657S0
G1 X269.157S647.059
G1 X252.656S0
G1 X249.156S647.059
G1 X232.656S0
G1 X229.156S647.059
G1 X212.757S0
G1 X209.057S647.059
G1 X192.757S0
G1 X189.156S647.059
G1 X172.757S0
G1 X169.057S647.059
G1 X152.757S0
G1 X149.156S647.059
G1 X132.757S0
G1 X129.156S647.059
G1 X112.757S0
G1 X109.056S647.059
G1 X92.757S0
G1 X89.157S647.059
G1 X72.757S0
G1 X69.157S647.059
G1 X52.756S0
G1 X49.157S647.059
G1 X32.757S0
G1 X29.157S647.059
G1 X12.757S0
G1 X9.156S647.059
G1 X-7.242S0
G1 X-10.843S647.059
G1 X-27.243S0
G1 X-30.843S647.059
G1 X-47.243S0
G1 X-50.842S647.059
G1 X-67.343S0
G1 X-70.843S647.059
G1 X-87.243S0
G1 X-90.843S647.059
G1 X-107.343S0
G1 X-110.843S647.059
G1 X-127.242S0
G1 X-130.843S647.059
G1 X-147.242S0
G1 X-150.843S647.059
G1 X-167.242S0
G1 X-170.843S647.059
G1 X-187.242S0
G1 X-190.843S647.059
G1 X-207.242S0
G1 X-210.843S647.059
G1 X-227.242S0
G1 X-230.843S647.059
G1 X-247.242S0
G1 X-250.843S647.059
G1 X-267.243S0
G1 X-270.843S647.059
G1 X-287.243S0
G1 X-290.843S647.059
G1 X-290.942Y-121.599S0
G1 X-287.143S647.059
G1 X-270.942S0
G1 X-267.243S647.059
G1 X-250.943S0
G1 X-247.242S647.059
G1 X-230.943S0
G1 X-227.242S647.059
G1 X-210.943S0
G1 X-207.143S647.059
G1 X-190.943S0
G1 X-187.242S647.059
G1 X-170.943S0
G1 X-167.143S647.059
G1 X-150.943S0
G1 X-147.143S647.059
G1 X-130.943S0
G1 X-127.143S647.059
G1 X-110.943S0
G1 X-107.142S647.059
G1 X-90.943S0
G1 X-87.142S647.059
G1 X-70.943S0
G1 X-67.142S647.059
G1 X-50.943S0
G1 X-47.143S647.059
G1 X-30.942S0
G1 X-27.243S647.059
G1 X-10.943S0
G1 X-7.242S647.059
G1 X9.057S0
G1 X12.757S647.059
G1 X29.057S0
G1 X32.757S647.059
G1 X49.057S0
G1 X52.756S647.059
G1 X69.056S0
G1 X72.757S647.059
G1 X89.056S0
G1 X92.757S647.059
G1 X109.056S0
G1 X112.757S647.059
G1 X129.057S0
G1 X132.757S647.059
G1 X148.957S0
G1 X152.757S647.059
G1 X169.057S0
G1 X172.757S647.059
G1 X188.957S0
G1 X192.757S647.059
G1 X209.057S0
G1 X212.757S647.059
G1 X228.957S0
G1 X232.757S647.059
G1 X248.957S0
G1 X252.757S647.059
G1 X268.957S0
G1 X272.757S647.059
G1 X289.057S0
G1 X292.757S647.059
G1 X292.856Y-121.5S0
G1 X288.957S647.059
G1 X272.856S0
G1 X268.957S647.059
G1 X252.857S0
G1 X248.957S647.059
G1 X232.857S0
G1 X228.957S647.059
G1 X212.857S0
G1 X208.957S647.059
G1 X192.857S0
G1 X188.957S647.059
G1 X172.857S0
G1 X168.957S647.059
G1 X152.857S0
G1 X148.957S647.059
G1 X132.857S0
G1 X128.957S647.059
G1 X112.857S0
G1 X108.957S647.059
G1 X92.857S0
G1 X88.957S647.059
G1 X72.857S0
G1 X68.957S647.059
G1 X52.857S0
G1 X48.957S647.059
G1 X32.856S0
G1 X28.957S647.059
G1 X12.857S0
G1 X8.957S647.059
G1 X-7.143S0
G1 X-11.043S647.059
G1 X-27.143S0
G1 X-31.043S647.059
G1 X-47.143S0
G1 X-51.043S647.059
G1 X-67.142S0
G1 X-71.043S647.059
G1 X-87.142S0
G1 X-91.043S647.059
G1 X-107.142S0
G1 X-111.043S647.059
G1 X-127.143S0
G1 X-131.043S647.059
G1 X-147.143S0
G1 X-151.043S647.059
G1 X-167.143S0
G1 X-171.043S647.059
G1 X-187.043S0
G1 X-191.043S647.059
G1 X-207.143S0
G1 X-211.043S647.059
G1 X-227.043S0
G1 X-231.043S647.059
G1 X-247.043S0
G1 X-251.043S647.059
G1 X-267.043S0
G1 X-271.043S647.059
G1 X-287.043S0
G1 X-291.043S647.059
G1 Y-121.4S0
G1 X-287.043S647.059
G1 X-271.143S0
G1 X-267.043S647.059
G1 X-251.143S0
G1 X-247.043S647.059
G1 X-231.143S0
G1 X-227.043S647.059
G1 X-211.143S0
G1 X-207.043S647.059
G1 X-191.143S0
G1 X-187.043S647.059
G1 X-171.143S0
G1 X-167.043S647.059
G1 X-151.143S0
G1 X-147.043S647.059
G1 X-131.143S0
G1 X-127.043S647.059
G1 X-111.142S0
G1 X-107.043S647.059
G1 X-91.142S0
G1 X-87.043S647.059
G1 X-71.142S0
G1 X-67.043S647.059
G1 X-51.143S0
G1 X-47.043S647.059
G1 X-31.143S0
G1 X-27.043S647.059
G1 X-11.143S0
G1 X-7.043S647.059
G1 X8.857S0
G1 X12.957S647.059
G1 X28.856S0
G1 X32.957S647.059
G1 X48.857S0
G1 X52.957S647.059
G1 X68.857S0
G1 X72.957S647.059
G1 X88.857S0
G1 X92.957S647.059
G1 X108.857S0
G1 X112.957S647.059
G1 X128.857S0
G1 X132.957S647.059
G1 X148.857S0
G1 X152.957S647.059
G1 X168.857S0
G1 X172.957S647.059
G1 X188.857S0
G1 X192.957S647.059
G1 X208.857S0
G1 X212.957S647.059
G1 X228.857S0
G1 X232.957S647.059
G1 X248.857S0
G1 X252.957S647.059
G1 X268.856S0
G1 X272.957S647.059
G1 X288.856S0
G1 X292.957S647.059
G1 Y-121.3S0
G1 X288.757S647.059
G1 X273.057S0
G1 X268.757S647.059
G1 X252.957S0
G1 X248.757S647.059
G1 X233.057S0
G1 X228.757S647.059
G1 X212.957S0
G1 X208.757S647.059
G1 X193.057S0
G1 X188.857S647.059
G1 X172.957S0
G1 X168.757S647.059
G1 X153.057S0
G1 X148.857S647.059
G1 X133.057S0
G1 X128.757S647.059
G1 X113.056S0
G1 X108.857S647.059
G1 X93.056S0
G1 X88.757S647.059
G1 X73.056S0
G1 X68.857S647.059
G1 X53.057S0
G1 X48.756S647.059
G1 X33.057S0
G1 X28.856S647.059
G1 X13.057S0
G1 X8.757S647.059
G1 X-6.943S0
G1 X-11.143S647.059
G1 X-26.942S0
G1 X-31.143S647.059
G1 X-46.943S0
G1 X-51.143S647.059
G1 X-66.943S0
G1 X-71.142S647.059
G1 X-86.943S0
G1 X-91.142S647.059
G1 X-106.943S0
G1 X-111.142S647.059
G1 X-126.943S0
G1 X-131.143S647.059
G1 X-146.943S0
G1 X-151.143S647.059
G1 X-166.943S0
G1 X-171.143S647.059
G1 X-186.943S0
G1 X-191.143S647.059
G1 X-206.943S0
G1 X-211.143S647.059
G1 X-226.943S0
G1 X-231.143S647.059
G1 X-246.943S0
G1 X-251.143S647.059
G1 X-266.942S0
G1 X-271.143S647.059
G1 X-286.942S0
G1 X-291.143S647.059
G1 X-291.243Y-121.2S0
G1 X-286.942S647.059
G1 X-271.243S0
G1 X-266.843S647.059
G1 X-251.242S0
G1 X-246.943S647.059
G1 X-231.242S0
G1 X-226.943S647.059
G1 X-211.242S0
G1 X-206.843S647.059
G1 X-191.242S0
G1 X-186.943S647.059
G1 X-171.242S0
G1 X-166.943S647.059
G1 X-151.242S0
G1 X-146.943S647.059
G1 X-131.242S0
G1 X-126.943S647.059
G1 X-111.243S0
G1 X-106.943S647.059
G1 X-91.243S0
G1 X-86.943S647.059
G1 X-71.243S0
G1 X-66.943S647.059
G1 X-51.243S0
G1 X-46.943S647.059
G1 X-31.243S0
G1 X-26.942S647.059
G1 X-11.242S0
G1 X-6.943S647.059
G1 X8.757S0
G1 X13.057S647.059
G1 X28.757S0
G1 X33.057S647.059
G1 X48.756S0
G1 X53.057S647.059
G1 X68.757S0
G1 X73.056S647.059
G1 X88.757S0
G1 X93.056S647.059
G1 X108.757S0
G1 X113.056S647.059
G1 X128.757S0
G1 X133.057S647.059
G1 X148.757S0
G1 X153.057S647.059
G1 X168.757S0
G1 X173.057S647.059
G1 X188.757S0
G1 X193.057S647.059
G1 X208.757S0
G1 X213.057S647.059
G1 X228.757S0
G1 X233.057S647.059
G1 X248.757S0
G1 X253.057S647.059
G1 X268.757S0
G1 X273.057S647.059
G1 X288.757S0
G1 X293.057S647.059
G1 X293.157Y-121.099S0
G1 X288.657S647.059
G1 X273.157S0
G1 X268.657S647.059
G1 X253.156S0
G1 X248.656S647.059
G1 X233.156S0
G1 X228.656S647.059
G1 X213.156S0
G1 X208.656S647.059
G1 X193.156S0
G1 X188.656S647.059
G1 X173.156S0
G1 X168.656S647.059
G1 X153.156S0
G1 X148.656S647.059
G1 X133.156S0
G1 X128.657S647.059
G1 X113.157S0
G1 X108.657S647.059
G1 X93.157S0
G1 X88.657S647.059
G1 X73.157S0
G1 X68.657S647.059
G1 X53.157S0
G1 X48.657S647.059
G1 X33.157S0
G1 X28.657S647.059
G1 X13.156S0
G1 X8.657S647.059
G1 X-6.843S0
G1 X-11.343S647.059
G1 X-26.843S0
G1 X-31.342S647.059
G1 X-46.842S0
G1 X-51.243S647.059
G1 X-66.843S0
G1 X-71.343S647.059
G1 X-86.843S0
G1 X-91.243S647.059
G1 X-106.843S0
G1 X-111.343S647.059
G1 X-126.843S0
G1 X-131.242S647.059
G1 X-146.843S0
G1 X-151.242S647.059
G1 X-166.843S0
G1 X-171.242S647.059
G1 X-186.843S0
G1 X-191.242S647.059
G1 X-206.843S0
G1 X-211.242S647.059
G1 X-226.843S0
G1 X-231.242S647.059
G1 X-246.843S0
G1 X-251.242S647.059
G1 X-266.843S0
G1 X-271.243S647.059
G1 X-286.843S0
G1 X-291.243S647.059
G1 X-291.343Y-121S0
G1 X-286.743S647.059
G1 X-271.343S0
G1 X-266.843S647.059
G1 X-251.343S0
G1 X-246.742S647.059
G1 X-231.343S0
G1 X-226.843S647.059
G1 X-211.343S0
G1 X-206.843S647.059
G1 X-191.343S0
G1 X-186.843S647.059
G1 X-171.343S0
G1 X-166.843S647.059
G1 X-151.343S0
G1 X-146.843S647.059
G1 X-131.343S0
G1 X-126.843S647.059
G1 X-111.343S0
G1 X-106.843S647.059
G1 X-91.343S0
G1 X-86.843S647.059
G1 X-71.343S0
G1 X-66.843S647.059
G1 X-51.342S0
G1 X-46.842S647.059
G1 X-31.342S0
G1 X-26.843S647.059
G1 X-11.343S0
G1 X-6.843S647.059
G1 X8.657S0
G1 X13.156S647.059
G1 X28.657S0
G1 X33.157S647.059
G1 X48.657S0
G1 X53.157S647.059
G1 X68.657S0
G1 X73.157S647.059
G1 X88.657S0
G1 X93.157S647.059
G1 X108.657S0
G1 X113.157S647.059
G1 X128.657S0
G1 X133.156S647.059
G1 X148.656S0
G1 X153.156S647.059
G1 X168.656S0
G1 X173.156S647.059
G1 X188.656S0
G1 X193.156S647.059
G1 X208.656S0
G1 X213.156S647.059
G1 X228.656S0
G1 X233.156S647.059
G1 X248.656S0
G1 X253.156S647.059
G1 X268.657S0
G1 X273.157S647.059
G1 X288.657S0
G1 X293.157S647.059
G1 Y-120.9S0
G1 X288.557S647.059
G1 X273.257S0
G1 X268.557S647.059
G1 X253.257S0
G1 X248.557S647.059
G1 X233.257S0
G1 X228.557S647.059
G1 X213.257S0
G1 X208.557S647.059
G1 X193.257S0
G1 X188.557S647.059
G1 X173.257S0
G1 X168.557S647.059
G1 X153.257S0
G1 X148.557S647.059
G1 X133.257S0
G1 X128.556S647.059
G1 X113.257S0
G1 X108.556S647.059
G1 X93.257S0
G1 X88.556S647.059
G1 X73.257S0
G1 X68.556S647.059
G1 X53.256S0
G1 X48.657S647.059
G1 X33.256S0
G1 X28.557S647.059
G1 X13.257S0
G1 X8.657S647.059
G1 X-6.743S0
G1 X-11.343S647.059
G1 X-26.743S0
G1 X-31.342S647.059
G1 X-46.743S0
G1 X-51.443S647.059
G1 X-66.743S0
G1 X-71.343S647.059
G1 X-86.743S0
G1 X-91.443S647.059
G1 X-106.743S0
G1 X-111.343S647.059
G1 X-126.743S0
G1 X-131.343S647.059
G1 X-146.742S0
G1 X-151.343S647.059
G1 X-166.742S0
G1 X-171.343S647.059
G1 X-186.742S0
G1 X-191.343S647.059
G1 X-206.742S0
G1 X-211.343S647.059
G1 X-226.742S0
G1 X-231.343S647.059
G1 X-246.742S0
G1 X-251.343S647.059
G1 X-266.743S0
G1 X-271.343S647.059
G1 X-286.743S0
G1 X-291.343S647.059
G1 X-291.442Y-120.8S0
G1 X-286.743S647.059
G1 X-271.442S0
G1 X-266.743S647.059
G1 X-251.443S0
G1 X-246.742S647.059
G1 X-231.443S0
G1 X-226.742S647.059
G1 X-211.443S0
G1 X-206.742S647.059
G1 X-191.443S0
G1 X-186.742S647.059
G1 X-171.443S0
G1 X-166.742S647.059
G1 X-151.443S0
G1 X-146.742S647.059
G1 X-131.443S0
G1 X-126.743S647.059
G1 X-111.443S0
G1 X-106.743S647.059
G1 X-91.443S0
G1 X-86.743S647.059
G1 X-71.443S0
G1 X-66.743S647.059
G1 X-51.443S0
G1 X-46.743S647.059
G1 X-31.443S0
G1 X-26.743S647.059
G1 X-11.443S0
G1 X-6.743S647.059
G1 X8.556S0
G1 X13.257S647.059
G1 X28.557S0
G1 X33.256S647.059
G1 X48.557S0
G1 X53.256S647.059
G1 X68.556S0
G1 X73.257S647.059
G1 X88.556S0
G1 X93.257S647.059
G1 X108.556S0
G1 X113.257S647.059
G1 X128.556S0
G1 X133.257S647.059
G1 X148.557S0
G1 X153.257S647.059
G1 X168.557S0
G1 X173.257S647.059
G1 X188.557S0
G1 X193.257S647.059
G1 X208.557S0
G1 X213.257S647.059
G1 X228.557S0
G1 X233.257S647.059
G1 X248.557S0
G1 X253.257S647.059
G1 X268.557S0
G1 X273.257S647.059
G1 X288.557S0
G1 X293.257S647.059
G1 Y-120.7S0
G1 X288.557S647.059
G1 X273.257S0
G1 X268.557S647.059
G1 X253.257S0
G1 X248.557S647.059
G1 X233.257S0
G1 X228.557S647.059
G1 X213.257S0
G1 X208.557S647.059
G1 X193.257S0
G1 X188.557S647.059
G1 X173.257S0
G1 X168.557S647.059
G1 X153.257S0
G1 X148.557S647.059
G1 X133.257S0
G1 X128.556S647.059
G1 X113.257S0
G1 X108.556S647.059
G1 X93.257S0
G1 X88.556S647.059
G1 X73.257S0
G1 X68.556S647.059
G1 X53.256S0
G1 X48.557S647.059
G1 X33.256S0
G1 X28.557S647.059
G1 X13.357S0
G1 X8.556S647.059
G1 X-6.743S0
G1 X-11.443S647.059
G1 X-26.643S0
G1 X-31.443S647.059
G1 X-46.743S0
G1 X-51.443S647.059
G1 X-66.642S0
G1 X-71.443S647.059
G1 X-86.743S0
G1 X-91.443S647.059
G1 X-106.642S0
G1 X-111.443S647.059
G1 X-126.642S0
G1 X-131.443S647.059
G1 X-146.643S0
G1 X-151.443S647.059
G1 X-166.643S0
G1 X-171.443S647.059
G1 X-186.643S0
G1 X-191.443S647.059
G1 X-206.643S0
G1 X-211.443S647.059
G1 X-226.643S0
G1 X-231.443S647.059
G1 X-246.643S0
G1 X-251.443S647.059
G1 X-266.643S0
G1 X-271.442S647.059
G1 X-286.643S0
G1 X-291.442S647.059
G1 Y-120.599S0
G1 X-286.643S647.059
G1 X-271.442S0
G1 X-266.643S647.059
G1 X-251.443S0
G1 X-246.643S647.059
G1 X-231.443S0
G1 X-226.643S647.059
G1 X-211.443S0
G1 X-206.643S647.059
G1 X-191.543S0
G1 X-186.643S647.059
G1 X-171.443S0
G1 X-166.643S647.059
G1 X-151.443S0
G1 X-146.643S647.059
G1 X-131.443S0
G1 X-126.642S647.059
G1 X-111.443S0
G1 X-106.642S647.059
G1 X-91.443S0
G1 X-86.642S647.059
G1 X-71.543S0
G1 X-66.642S647.059
G1 X-51.443S0
G1 X-46.643S647.059
G1 X-31.443S0
G1 X-26.643S647.059
G1 X-11.543S0
G1 X-6.642S647.059
G1 X8.556S0
G1 X13.357S647.059
G1 X28.457S0
G1 X33.357S647.059
G1 X48.557S0
G1 X53.357S647.059
G1 X68.457S0
G1 X73.357S647.059
G1 X88.556S0
G1 X93.357S647.059
G1 X108.457S0
G1 X113.357S647.059
G1 X128.457S0
G1 X133.357S647.059
G1 X148.457S0
G1 X153.257S647.059
G1 X168.457S0
G1 X173.357S647.059
G1 X188.457S0
G1 X193.257S647.059
G1 X208.457S0
G1 X213.357S647.059
G1 X228.457S0
G1 X233.257S647.059
G1 X248.457S0
G1 X253.357S647.059
G1 X268.457S0
G1 X273.257S647.059
G1 X288.457S0
G1 X293.356S647.059
G1 Y-120.5S0
G1 X288.457S647.059
G1 X273.356S0
G1 X268.457S647.059
G1 X253.357S0
G1 X248.457S647.059
G1 X233.357S0
G1 X228.457S647.059
G1 X213.357S0
G1 X208.457S647.059
G1 X193.357S0
G1 X188.457S647.059
G1 X173.357S0
G1 X168.457S647.059
G1 X153.357S0
G1 X148.457S647.059
G1 X133.357S0
G1 X128.457S647.059
G1 X113.357S0
G1 X108.457S647.059
G1 X93.357S0
G1 X88.457S647.059
G1 X73.357S0
G1 X68.457S647.059
G1 X53.357S0
G1 X48.457S647.059
G1 X33.357S0
G1 X28.457S647.059
G1 X13.357S0
G1 X8.457S647.059
G1 X-6.642S0
G1 X-11.543S647.059
G1 X-26.643S0
G1 X-31.543S647.059
G1 X-46.643S0
G1 X-51.543S647.059
G1 X-66.642S0
G1 X-71.443S647.059
G1 X-86.642S0
G1 X-91.543S647.059
G1 X-106.642S0
G1 X-111.543S647.059
G1 X-126.642S0
G1 X-131.543S647.059
G1 X-146.643S0
G1 X-151.543S647.059
G1 X-166.643S0
G1 X-171.543S647.059
G1 X-186.643S0
G1 X-191.443S647.059
G1 X-206.643S0
G1 X-211.543S647.059
G1 X-226.643S0
G1 X-231.443S647.059
G1 X-246.643S0
G1 X-251.543S647.059
G1 X-266.643S0
G1 X-271.442S647.059
G1 X-286.643S0
G1 X-291.442S647.059
G1 X-291.543Y-120.4S0
G1 X-286.643S647.059
G1 X-271.543S0
G1 X-266.643S647.059
G1 X-251.543S0
G1 X-246.643S647.059
G1 X-231.543S0
G1 X-226.643S647.059
G1 X-211.543S0
G1 X-206.643S647.059
G1 X-191.543S0
G1 X-186.643S647.059
G1 X-171.543S0
G1 X-166.643S647.059
G1 X-151.543S0
G1 X-146.643S647.059
G1 X-131.543S0
G1 X-126.642S647.059
G1 X-111.543S0
G1 X-106.642S647.059
G1 X-91.543S0
G1 X-86.543S647.059
G1 X-71.543S0
G1 X-66.642S647.059
G1 X-51.543S0
G1 X-46.643S647.059
G1 X-31.543S0
G1 X-26.643S647.059
G1 X-11.543S0
G1 X-6.642S647.059
G1 X8.457S0
G1 X13.357S647.059
G1 X28.457S0
G1 X33.457S647.059
G1 X48.457S0
G1 X53.357S647.059
G1 X68.457S0
G1 X73.357S647.059
G1 X88.457S0
G1 X93.357S647.059
G1 X108.457S0
G1 X113.357S647.059
G1 X128.457S0
G1 X133.357S647.059
G1 X148.457S0
G1 X153.357S647.059
G1 X168.457S0
G1 X173.357S647.059
G1 X188.457S0
G1 X193.357S647.059
G1 X208.457S0
G1 X213.357S647.059
G1 X228.457S0
G1 X233.357S647.059
G1 X248.357S0
G1 X253.357S647.059
G1 X268.457S0
G1 X273.356S647.059
G1 X288.457S0
G1 X293.356S647.059
G1 Y-120.3S0
G1 X288.457S647.059
G1 X273.356S0
G1 X268.457S647.059
G1 X253.357S0
G1 X248.457S647.059
G1 X233.357S0
G1 X228.457S647.059
G1 X213.357S0
G1 X208.457S647.059
G1 X193.357S0
G1 X188.457S647.059
G1 X173.357S0
G1 X168.457S647.059
G1 X153.457S0
G1 X148.457S647.059
G1 X133.357S0
G1 X128.457S647.059
G1 X113.357S0
G1 X108.457S647.059
G1 X93.357S0
G1 X88.357S647.059
G1 X73.457S0
G1 X68.457S647.059
G1 X53.457S0
G1 X48.457S647.059
G1 X33.357S0
G1 X28.457S647.059
G1 X13.457S0
G1 X8.457S647.059
G1 X-6.642S0
G1 X-11.543S647.059
G1 X-26.643S0
G1 X-31.543S647.059
G1 X-46.543S0
G1 X-51.543S647.059
G1 X-66.642S0
G1 X-71.543S647.059
G1 X-86.642S0
G1 X-91.543S647.059
G1 X-106.642S0
G1 X-111.543S647.059
G1 X-126.642S0
G1 X-131.543S647.059
G1 X-146.543S0
G1 X-151.543S647.059
G1 X-166.543S0
G1 X-171.543S647.059
G1 X-186.543S0
G1 X-191.543S647.059
G1 X-206.543S0
G1 X-211.543S647.059
G1 X-226.643S0
G1 X-231.543S647.059
G1 X-246.543S0
G1 X-251.543S647.059
G1 X-266.643S0
G1 X-271.543S647.059
G1 X-286.543S0
G1 X-291.543S647.059
G1 Y-120.2S0
G1 X-286.643S647.059
G1 X-271.543S0
G1 X-266.543S647.059
G1 X-251.543S0
G1 X-246.643S647.059
G1 X-231.543S0
G1 X-226.543S647.059
G1 X-211.543S0
G1 X-206.543S647.059
G1 X-191.543S0
G1 X-186.643S647.059
G1 X-171.543S0
G1 X-166.543S647.059
G1 X-151.543S0
G1 X-146.643S647.059
G1 X-131.543S0
G1 X-126.543S647.059
G1 X-111.543S0
G1 X-106.543S647.059
G1 X-91.543S0
G1 X-86.642S647.059
G1 X-71.642S0
G1 X-66.543S647.059
G1 X-51.543S0
G1 X-46.643S647.059
G1 X-31.543S0
G1 X-26.643S647.059
G1 X-11.543S0
G1 X-6.543S647.059
G1 X8.457S0
G1 X13.357S647.059
G1 X28.457S0
G1 X33.357S647.059
G1 X48.457S0
G1 X53.357S647.059
G1 X68.457S0
G1 X73.357S647.059
G1 X88.457S0
G1 X93.457S647.059
G1 X108.457S0
G1 X113.457S647.059
G1 X128.357S0
G1 X133.357S647.059
G1 X148.457S0
G1 X153.357S647.059
G1 X168.357S0
G1 X173.457S647.059
G1 X188.457S0
G1 X193.357S647.059
G1 X208.357S0
G1 X213.357S647.059
G1 X228.357S0
G1 X233.357S647.059
G1 X248.457S0
G1 X253.357S647.059
G1 X268.457S0
G1 X273.356S647.059
G1 X288.356S0
G1 X293.356S647.059
G1 X293.457Y-120.099S0
G1 X288.356S647.059
G1 X273.457S0
G1 X268.356S647.059
G1 X253.457S0
G1 X248.357S647.059
G1 X233.457S0
G1 X228.457S647.059
G1 X213.357S0
G1 X208.357S647.059
G1 X193.457S0
G1 X188.457S647.059
G1 X173.357S0
G1 X168.457S647.059
G1 X153.357S0
G1 X148.457S647.059
G1 X133.457S0
G1 X128.457S647.059
G1 X113.357S0
G1 X108.357S647.059
G1 X93.357S0
G1 X88.457S647.059
G1 X73.357S0
G1 X68.457S647.059
G1 X53.357S0
G1 X48.457S647.059
G1 X33.457S0
G1 X28.457S647.059
G1 X13.357S0
G1 X8.357S647.059
G1 X-6.543S0
G1 X-11.543S647.059
G1 X-26.543S0
G1 X-31.643S647.059
G1 X-46.643S0
G1 X-51.543S647.059
G1 X-66.543S0
G1 X-71.543S647.059
G1 X-86.543S0
G1 X-91.543S647.059
G1 X-106.543S0
G1 X-111.543S647.059
G1 X-126.642S0
G1 X-131.543S647.059
G1 X-146.543S0
G1 X-151.543S647.059
G1 X-166.643S0
G1 X-171.543S647.059
G1 X-186.543S0
G1 X-191.543S647.059
G1 X-206.643S0
G1 X-211.543S647.059
G1 X-226.543S0
G1 X-231.543S647.059
G1 X-246.543S0
G1 X-251.543S647.059
G1 X-266.543S0
G1 X-271.543S647.059
G1 X-286.543S0
G1 X-291.543S647.059
G1 Y-120S0
G1 X-286.543S647.059
G1 X-271.543S0
G1 X-266.543S647.059
G1 X-251.543S0
G1 X-246.543S647.059
G1 X-231.543S0
G1 X-226.543S647.059
G1 X-211.543S0
G1 X-206.543S647.059
G1 X-191.643S0
G1 X-186.543S647.059
G1 X-171.543S0
G1 X-166.543S647.059
G1 X-151.643S0
G1 X-146.543S647.059
G1 X-131.543S0
G1 X-126.543S647.059
G1 X-111.543S0
G1 X-106.642S647.059
G1 X-91.543S0
G1 X-86.642S647.059
G1 X-71.543S0
G1 X-66.642S647.059
G1 X-51.643S0
G1 X-46.543S647.059
G1 X-31.543S0
G1 X-26.543S647.059
G1 X-11.543S0
G1 X-6.642S647.059
G1 X8.457S0
G1 X13.457S647.059
G1 X28.457S0
G1 X33.357S647.059
G1 X48.357S0
G1 X53.457S647.059
G1 X68.357S0
G1 X73.457S647.059
G1 X88.357S0
G1 X93.357S647.059
G1 X108.457S0
G1 X113.357S647.059
G1 X128.457S0
G1 X133.357S647.059
G1 X148.357S0
G1 X153.457S647.059
G1 X168.357S0
G1 X173.357S647.059
G1 X188.357S0
G1 X193.457S647.059
G1 X208.457S0
G1 X213.357S647.059
G1 X228.457S0
G1 X233.357S647.059
G1 X248.457S0
G1 X253.357S647.059
G1 X268.457S0
G1 X273.356S647.059
G1 X288.457S0
G1 X293.356S647.059
G1 Y-119.9S0
G1 X288.356S647.059
G1 X273.356S0
G1 X268.356S647.059
G1 X253.357S0
G1 X248.357S647.059
G1 X233.357S0
G1 X228.357S647.059
G1 X213.457S0
G1 X208.357S647.059
G1 X193.357S0
G1 X188.457S647.059
G1 X173.457S0
G1 X168.457S647.059
G1 X153.357S0
G1 X148.457S647.059
G1 X133.357S0
G1 X128.357S647.059
G1 X113.457S0
G1 X108.457S647.059
G1 X93.457S0
G1 X88.457S647.059
G1 X73.457S0
G1 X68.457S647.059
G1 X53.457S0
G1 X48.457S647.059
G1 X33.457S0
G1 X28.356S647.059
G1 X13.457S0
G1 X8.457S647.059
G1 X-6.642S0
G1 X-11.643S647.059
G1 X-26.643S0
G1 X-31.543S647.059
G1 X-46.543S0
G1 X-51.543S647.059
G1 X-66.543S0
G1 X-71.642S647.059
G1 X-86.543S0
G1 X-91.543S647.059
G1 X-106.543S0
G1 X-111.642S647.059
G1 X-126.543S0
G1 X-131.543S647.059
G1 X-146.543S0
G1 X-151.543S647.059
G1 X-166.543S0
G1 X-171.543S647.059
G1 X-186.543S0
G1 X-191.543S647.059
G1 X-206.543S0
G1 X-211.543S647.059
G1 X-226.543S0
G1 X-231.543S647.059
G1 X-246.543S0
G1 X-251.543S647.059
G1 X-266.543S0
G1 X-271.543S647.059
G1 X-286.543S0
G1 X-291.543S647.059
G1 Y-119.8S0
G1 X-286.543S647.059
G1 X-271.543S0
G1 X-266.543S647.059
G1 X-251.543S0
G1 X-246.643S647.059
G1 X-231.543S0
G1 X-226.543S647.059
G1 X-211.543S0
G1 X-206.643S647.059
G1 X-191.543S0
G1 X-186.543S647.059
G1 X-171.543S0
G1 X-166.643S647.059
G1 X-151.543S0
G1 X-146.643S647.059
G1 X-131.543S0
G1 X-126.642S647.059
G1 X-111.543S0
G1 X-106.543S647.059
G1 X-91.543S0
G1 X-86.543S647.059
G1 X-71.543S0
G1 X-66.543S647.059
G1 X-51.543S0
G1 X-46.643S647.059
G1 X-31.643S0
G1 X-26.543S647.059
G1 X-11.543S0
G1 X-6.543S647.059
G1 X8.357S0
G1 X13.357S647.059
G1 X28.457S0
G1 X33.357S647.059
G1 X48.357S0
G1 X53.357S647.059
G1 X68.457S0
G1 X73.357S647.059
G1 X88.357S0
G1 X93.457S647.059
G1 X108.357S0
G1 X113.357S647.059
G1 X128.357S0
G1 X133.457S647.059
G1 X148.357S0
G1 X153.357S647.059
G1 X168.357S0
G1 X173.357S647.059
G1 X188.357S0
G1 X193.357S647.059
G1 X208.357S0
G1 X213.357S647.059
G1 X228.357S0
G1 X233.457S647.059
G1 X248.357S0
G1 X253.357S647.059
G1 X268.356S0
G1 X273.457S647.059
G1 X288.356S0
G1 X293.356S647.059
G1 Y-119.7S0
G1 X288.457S647.059
G1 X273.356S0
G1 X268.457S647.059
G1 X253.357S0
G1 X248.457S647.059
G1 X233.357S0
G1 X228.457S647.059
G1 X213.357S0
G1 X208.457S647.059
G1 X193.457S0
G1 X188.457S647.059
G1 X173.357S0
G1 X168.357S647.059
G1 X153.457S0
G1 X148.457S647.059
G1 X133.357S0
G1 X128.457S647.059
G1 X113.457S0
G1 X108.457S647.059
G1 X93.357S0
G1 X88.457S647.059
G1 X73.457S0
G1 X68.457S647.059
G1 X53.457S0
G1 X48.457S647.059
G1 X33.457S0
G1 X28.457S647.059
G1 X13.457S0
G1 X8.457S647.059
G1 X-6.543S0
G1 X-11.543S647.059
G1 X-26.543S0
G1 X-31.543S647.059
G1 X-46.643S0
G1 X-51.543S647.059
G1 X-66.543S0
G1 X-71.543S647.059
G1 X-86.642S0
G1 X-91.543S647.059
G1 X-106.543S0
G1 X-111.543S647.059
G1 X-126.543S0
G1 X-131.543S647.059
G1 X-146.543S0
G1 X-151.543S647.059
G1 X-166.543S0
G1 X-171.543S647.059
G1 X-186.543S0
G1 X-191.543S647.059
G1 X-206.543S0
G1 X-211.543S647.059
G1 X-226.543S0
G1 X-231.543S647.059
G1 X-246.543S0
G1 X-251.543S647.059
G1 X-266.543S0
G1 X-271.543S647.059
G1 X-286.543S0
G1 X-291.543S647.059
G1 Y-119.599S0
G1 X-286.643S647.059
G1 X-271.543S0
G1 X-266.543S647.059
G1 X-251.543S0
G1 X-246.543S647.059
G1 X-231.543S0
G1 X-226.543S647.059
G1 X-211.543S0
G1 X-206.543S647.059
G1 X-191.543S0
G1 X-186.543S647.059
G1 X-171.543S0
G1 X-166.543S647.059
G1 X-151.543S0
G1 X-146.543S647.059
G1 X-131.543S0
G1 X-126.543S647.059
G1 X-111.543S0
G1 X-106.642S647.059
G1 X-91.543S0
G1 X-86.543S647.059
G1 X-71.543S0
G1 X-66.642S647.059
G1 X-51.543S0
G1 X-46.543S647.059
G1 X-31.543S0
G1 X-26.643S647.059
G1 X-11.543S0
G1 X-6.642S647.059
G1 X8.457S0
G1 X13.357S647.059
G1 X28.457S0
G1 X33.357S647.059
G1 X48.457S0
G1 X53.357S647.059
G1 X68.457S0
G1 X73.357S647.059
G1 X88.457S0
G1 X93.357S647.059
G1 X108.457S0
G1 X113.357S647.059
G1 X128.457S0
G1 X133.357S647.059
G1 X148.457S0
G1 X153.357S647.059
G1 X168.457S0
G1 X173.357S647.059
G1 X188.457S0
G1 X193.357S647.059
G1 X208.357S0
G1 X213.357S647.059
G1 X228.457S0
G1 X233.357S647.059
G1 X248.357S0
G1 X253.357S647.059
G1 X268.457S0
G1 X273.356S647.059
G1 X288.356S0
G1 X293.356S647.059
G1 Y-119.5S0
G1 X288.457S647.059
G1 X273.356S0
G1 X268.457S647.059
G1 X253.357S0
G1 X248.457S647.059
G1 X233.357S0
G1 X228.457S647.059
G1 X213.357S0
G1 X208.457S647.059
G1 X193.357S0
G1 X188.457S647.059
G1 X173.357S0
G1 X168.457S647.059
G1 X153.357S0
G1 X148.457S647.059
G1 X133.357S0
G1 X128.457S647.059
G1 X113.357S0
G1 X108.457S647.059
G1 X93.357S0
G1 X88.457S647.059
G1 X73.357S0
G1 X68.457S647.059
G1 X53.357S0
G1 X48.457S647.059
G1 X33.357S0
G1 X28.457S647.059
G1 X13.357S0
G1 X8.457S647.059
G1 X-6.642S0
G1 X-11.543S647.059
G1 X-26.643S0
G1 X-31.543S647.059
G1 X-46.643S0
G1 X-51.543S647.059
G1 X-66.642S0
G1 X-71.543S647.059
G1 X-86.642S0
G1 X-91.543S647.059
G1 X-106.642S0
G1 X-111.443S647.059
G1 X-126.642S0
G1 X-131.543S647.059
G1 X-146.643S0
G1 X-151.543S647.059
G1 X-166.643S0
G1 X-171.543S647.059
G1 X-186.643S0
G1 X-191.543S647.059
G1 X-206.643S0
G1 X-211.543S647.059
G1 X-226.643S0
G1 X-231.543S647.059
G1 X-246.643S0
G1 X-251.543S647.059
G1 X-266.543S0
G1 X-271.543S647.059
G1 X-286.543S0
G1 X-291.543S647.059
G1 Y-119.4S0
G1 X-286.643S647.059
G1 X-271.543S0
G1 X-266.643S647.059
G1 X-251.543S0
G1 X-246.643S647.059
G1 X-231.543S0
G1 X-226.643S647.059
G1 X-211.543S0
G1 X-206.643S647.059
G1 X-191.543S0
G1 X-186.643S647.059
G1 X-171.543S0
G1 X-166.643S647.059
G1 X-151.543S0
G1 X-146.643S647.059
G1 X-131.543S0
G1 X-126.642S647.059
G1 X-111.543S0
G1 X-106.642S647.059
G1 X-91.543S0
G1 X-86.642S647.059
G1 X-71.543S0
G1 X-66.642S647.059
G1 X-51.543S0
G1 X-46.643S647.059
G1 X-31.543S0
G1 X-26.643S647.059
G1 X-11.543S0
G1 X-6.642S647.059
G1 X8.457S0
G1 X13.357S647.059
G1 X28.457S0
G1 X33.357S647.059
G1 X48.457S0
G1 X53.357S647.059
G1 X68.457S0
G1 X73.357S647.059
G1 X88.457S0
G1 X93.357S647.059
G1 X108.457S0
G1 X113.357S647.059
G1 X128.457S0
G1 X133.357S647.059
G1 X148.457S0
G1 X153.357S647.059
G1 X168.457S0
G1 X173.357S647.059
G1 X188.457S0
G1 X193.357S647.059
G1 X208.457S0
G1 X213.357S647.059
G1 X228.457S0
G1 X233.357S647.059
G1 X248.457S0
G1 X253.357S647.059
G1 X268.457S0
G1 X273.356S647.059
G1 X288.457S0
G1 X293.356S647.059
G1 Y-119.3S0
G1 X288.457S647.059
G1 X273.356S0
G1 X268.457S647.059
G1 X253.357S0
G1 X248.457S647.059
G1 X233.357S0
G1 X228.457S647.059
G1 X213.357S0
G1 X208.457S647.059
G1 X193.357S0
G1 X188.457S647.059
G1 X173.357S0
G1 X168.457S647.059
G1 X153.357S0
G1 X148.457S647.059
G1 X133.357S0
G1 X128.457S647.059
G1 X113.357S0
G1 X108.457S647.059
G1 X93.357S0
G1 X88.457S647.059
G1 X73.357S0
G1 X68.457S647.059
G1 X53.357S0
G1 X48.457S647.059
G1 X33.357S0
G1 X28.557S647.059
G1 X13.357S0
G1 X8.457S647.059
G1 X-6.642S0
G1 X-11.443S647.059
G1 X-26.643S0
G1 X-31.543S647.059
G1 X-46.643S0
G1 X-51.443S647.059
G1 X-66.642S0
G1 X-71.543S647.059
G1 X-86.642S0
G1 X-91.443S647.059
G1 X-106.642S0
G1 X-111.543S647.059
G1 X-126.642S0
G1 X-131.443S647.059
G1 X-146.643S0
G1 X-151.443S647.059
G1 X-166.643S0
G1 X-171.443S647.059
G1 X-186.643S0
G1 X-191.443S647.059
G1 X-206.643S0
G1 X-211.443S647.059
G1 X-226.643S0
G1 X-231.443S647.059
G1 X-246.643S0
G1 X-251.443S647.059
G1 X-266.643S0
G1 X-271.442S647.059
G1 X-286.643S0
G1 X-291.442S647.059
G1 Y-119.2S0
G1 X-286.643S647.059
G1 X-271.442S0
G1 X-266.643S647.059
G1 X-251.443S0
G1 X-246.643S647.059
G1 X-231.443S0
G1 X-226.643S647.059
G1 X-211.443S0
G1 X-206.643S647.059
G1 X-191.443S0
G1 X-186.643S647.059
G1 X-171.443S0
G1 X-166.643S647.059
G1 X-151.443S0
G1 X-146.643S647.059
G1 X-131.443S0
G1 X-126.642S647.059
G1 X-111.443S0
G1 X-106.642S647.059
G1 X-91.443S0
G1 X-86.642S647.059
G1 X-71.443S0
G1 X-66.642S647.059
G1 X-51.443S0
G1 X-46.743S647.059
G1 X-31.443S0
G1 X-26.643S647.059
G1 X-11.443S0
G1 X-6.743S647.059
G1 X8.556S0
G1 X13.357S647.059
G1 X28.557S0
G1 X33.256S647.059
G1 X48.557S0
G1 X53.256S647.059
G1 X68.556S0
G1 X73.257S647.059
G1 X88.556S0
G1 X93.257S647.059
G1 X108.556S0
G1 X113.257S647.059
G1 X128.556S0
G1 X133.257S647.059
G1 X148.557S0
G1 X153.257S647.059
G1 X168.557S0
G1 X173.257S647.059
G1 X188.557S0
G1 X193.257S647.059
G1 X208.557S0
G1 X213.257S647.059
G1 X228.557S0
G1 X233.257S647.059
G1 X248.557S0
G1 X253.257S647.059
G1 X268.457S0
G1 X273.257S647.059
G1 X288.557S0
G1 X293.257S647.059
G1 Y-119.099S0
G1 X288.557S647.059
G1 X273.257S0
G1 X268.557S647.059
G1 X253.257S0
G1 X248.557S647.059
G1 X233.257S0
G1 X228.557S647.059
G1 X213.257S0
G1 X208.557S647.059
G1 X193.257S0
G1 X188.557S647.059
G1 X173.257S0
G1 X168.557S647.059
G1 X153.257S0
G1 X148.557S647.059
G1 X133.257S0
G1 X128.556S647.059
G1 X113.257S0
G1 X108.556S647.059
G1 X93.257S0
G1 X88.556S647.059
G1 X73.257S0
G1 X68.556S647.059
G1 X53.256S0
G1 X48.557S647.059
G1 X33.256S0
G1 X28.557S647.059
G1 X13.257S0
G1 X8.556S647.059
G1 X-6.743S0
G1 X-11.443S647.059
G1 X-26.743S0
G1 X-31.443S647.059
G1 X-46.743S0
G1 X-51.443S647.059
G1 X-66.743S0
G1 X-71.443S647.059
G1 X-86.743S0
G1 X-91.443S647.059
G1 X-106.743S0
G1 X-111.443S647.059
G1 X-126.743S0
G1 X-131.443S647.059
G1 X-146.742S0
G1 X-151.443S647.059
G1 X-166.742S0
G1 X-171.443S647.059
G1 X-186.742S0
G1 X-191.443S647.059
G1 X-206.742S0
G1 X-211.443S647.059
G1 X-226.742S0
G1 X-231.443S647.059
G1 X-246.742S0
G1 X-251.443S647.059
G1 X-266.743S0
G1 X-271.442S647.059
G1 X-286.743S0
G1 X-291.442S647.059
G1 X-291.343Y-119S0
G1 X-286.743S647.059
G1 X-271.343S0
G1 X-266.743S647.059
G1 X-251.343S0
G1 X-246.742S647.059
G1 X-231.343S0
G1 X-226.742S647.059
G1 X-211.343S0
G1 X-206.742S647.059
G1 X-191.343S0
G1 X-186.742S647.059
G1 X-171.343S0
G1 X-166.742S647.059
G1 X-151.343S0
G1 X-146.742S647.059
G1 X-131.443S0
G1 X-126.743S647.059
G1 X-111.343S0
G1 X-106.743S647.059
G1 X-91.443S0
G1 X-86.743S647.059
G1 X-71.343S0
G1 X-66.743S647.059
G1 X-51.443S0
G1 X-46.743S647.059
G1 X-31.342S0
G1 X-26.743S647.059
G1 X-11.443S0
G1 X-6.743S647.059
G1 X8.657S0
G1 X13.257S647.059
G1 X28.557S0
G1 X33.256S647.059
G1 X48.557S0
G1 X53.256S647.059
G1 X68.556S0
G1 X73.257S647.059
G1 X88.657S0
G1 X93.257S647.059
G1 X108.556S0
G1 X113.257S647.059
G1 X128.556S0
G1 X133.257S647.059
G1 X148.557S0
G1 X153.257S647.059
G1 X168.557S0
G1 X173.257S647.059
G1 X188.557S0
G1 X193.257S647.059
G1 X208.557S0
G1 X213.257S647.059
G1 X228.557S0
G1 X233.257S647.059
G1 X248.557S0
G1 X253.257S647.059
G1 X268.557S0
G1 X273.157S647.059
G1 X288.557S0
G1 X293.257S647.059
G1 X293.157Y-118.9S0
G1 X288.657S647.059
G1 X273.157S0
G1 X268.657S647.059
G1 X253.156S0
G1 X248.656S647.059
G1 X233.156S0
G1 X228.656S647.059
G1 X213.156S0
G1 X208.656S647.059
G1 X193.156S0
G1 X188.656S647.059
G1 X173.156S0
G1 X168.656S647.059
G1 X153.156S0
G1 X148.656S647.059
G1 X133.156S0
G1 X128.657S647.059
G1 X113.157S0
G1 X108.657S647.059
G1 X93.157S0
G1 X88.657S647.059
G1 X73.157S0
G1 X68.657S647.059
G1 X53.157S0
G1 X48.657S647.059
G1 X33.157S0
G1 X28.657S647.059
G1 X13.156S0
G1 X8.657S647.059
G1 X-6.843S0
G1 X-11.343S647.059
G1 X-26.843S0
G1 X-31.342S647.059
G1 X-46.842S0
G1 X-51.342S647.059
G1 X-66.843S0
G1 X-71.343S647.059
G1 X-86.843S0
G1 X-91.343S647.059
G1 X-106.843S0
G1 X-111.343S647.059
G1 X-126.843S0
G1 X-131.343S647.059
G1 X-146.843S0
G1 X-151.343S647.059
G1 X-166.843S0
G1 X-171.343S647.059
G1 X-186.843S0
G1 X-191.343S647.059
G1 X-206.843S0
G1 X-211.343S647.059
G1 X-226.742S0
G1 X-231.343S647.059
G1 X-246.843S0
G1 X-251.343S647.059
G1 X-266.743S0
G1 X-271.343S647.059
G1 X-286.743S0
G1 X-291.343S647.059
G1 X-291.243Y-118.8S0
G1 X-286.843S647.059
G1 X-271.243S0
G1 X-266.843S647.059
G1 X-251.242S0
G1 X-246.843S647.059
G1 X-231.242S0
G1 X-226.843S647.059
G1 X-211.242S0
G1 X-206.843S647.059
G1 X-191.242S0
G1 X-186.843S647.059
G1 X-171.242S0
G1 X-166.843S647.059
G1 X-151.242S0
G1 X-146.843S647.059
G1 X-131.242S0
G1 X-126.843S647.059
G1 X-111.243S0
G1 X-106.843S647.059
G1 X-91.243S0
G1 X-86.843S647.059
G1 X-71.243S0
G1 X-66.843S647.059
G1 X-51.342S0
G1 X-46.842S647.059
G1 X-31.243S0
G1 X-26.843S647.059
G1 X-11.343S0
G1 X-6.843S647.059
G1 X8.657S0
G1 X13.156S647.059
G1 X28.657S0
G1 X33.157S647.059
G1 X48.657S0
G1 X53.157S647.059
G1 X68.657S0
G1 X73.157S647.059
G1 X88.657S0
G1 X93.157S647.059
G1 X108.657S0
G1 X113.157S647.059
G1 X128.657S0
G1 X133.156S647.059
G1 X148.656S0
G1 X153.156S647.059
G1 X168.656S0
G1 X173.156S647.059
G1 X188.656S0
G1 X193.156S647.059
G1 X208.656S0
G1 X213.156S647.059
G1 X228.656S0
G1 X233.156S647.059
G1 X248.656S0
G1 X253.156S647.059
G1 X268.657S0
G1 X273.157S647.059
G1 X288.657S0
G1 X293.157S647.059
G1 X293.057Y-118.7S0
G1 X288.757S647.059
G1 X273.057S0
G1 X268.757S647.059
G1 X253.057S0
G1 X248.757S647.059
G1 X233.057S0
G1 X228.757S647.059
G1 X213.057S0
G1 X208.757S647.059
G1 X193.057S0
G1 X188.757S647.059
G1 X173.057S0
G1 X168.757S647.059
G1 X153.057S0
G1 X148.757S647.059
G1 X133.057S0
G1 X128.757S647.059
G1 X113.056S0
G1 X108.757S647.059
G1 X93.056S0
G1 X88.757S647.059
G1 X73.056S0
G1 X68.757S647.059
G1 X53.057S0
G1 X48.756S647.059
G1 X33.057S0
G1 X28.757S647.059
G1 X13.057S0
G1 X8.757S647.059
G1 X-6.943S0
G1 X-11.242S647.059
G1 X-26.942S0
G1 X-31.243S647.059
G1 X-46.943S0
G1 X-51.243S647.059
G1 X-66.943S0
G1 X-71.243S647.059
G1 X-86.943S0
G1 X-91.243S647.059
G1 X-106.943S0
G1 X-111.243S647.059
G1 X-126.943S0
G1 X-131.242S647.059
G1 X-146.943S0
G1 X-151.242S647.059
G1 X-166.943S0
G1 X-171.242S647.059
G1 X-186.943S0
G1 X-191.242S647.059
G1 X-206.943S0
G1 X-211.242S647.059
G1 X-226.943S0
G1 X-231.242S647.059
G1 X-246.843S0
G1 X-251.242S647.059
G1 X-266.942S0
G1 X-271.243S647.059
G1 X-286.843S0
G1 X-291.243S647.059
G1 X-291.143Y-118.599S0
G1 X-286.942S647.059
G1 X-271.143S0
G1 X-266.942S647.059
G1 X-251.143S0
G1 X-246.943S647.059
G1 X-231.143S0
G1 X-226.943S647.059
G1 X-211.143S0
G1 X-206.943S647.059
G1 X-191.143S0
G1 X-186.943S647.059
G1 X-171.143S0
G1 X-166.943S647.059
G1 X-151.143S0
G1 X-146.943S647.059
G1 X-131.242S0
G1 X-126.943S647.059
G1 X-111.142S0
G1 X-106.943S647.059
G1 X-91.243S0
G1 X-86.943S647.059
G1 X-71.142S0
G1 X-66.943S647.059
G1 X-51.143S0
G1 X-46.943S647.059
G1 X-31.143S0
G1 X-26.942S647.059
G1 X-11.143S0
G1 X-6.943S647.059
G1 X8.857S0
G1 X13.057S647.059
G1 X28.856S0
G1 X33.057S647.059
G1 X48.857S0
G1 X52.957S647.059
G1 X68.857S0
G1 X73.056S647.059
G1 X88.757S0
G1 X92.957S647.059
G1 X108.857S0
G1 X113.056S647.059
G1 X128.757S0
G1 X132.957S647.059
G1 X148.857S0
G1 X152.957S647.059
G1 X168.757S0
G1 X172.957S647.059
G1 X188.857S0
G1 X192.957S647.059
G1 X208.757S0
G1 X212.957S647.059
G1 X228.757S0
G1 X232.957S647.059
G1 X248.757S0
G1 X252.957S647.059
G1 X268.757S0
G1 X272.957S647.059
G1 X288.757S0
G1 X292.957S647.059
G1 Y-118.5S0
G1 X288.856S647.059
G1 X272.957S0
G1 X268.856S647.059
G1 X252.957S0
G1 X248.857S647.059
G1 X232.957S0
G1 X228.857S647.059
G1 X212.957S0
G1 X208.857S647.059
G1 X192.957S0
G1 X188.857S647.059
G1 X172.957S0
G1 X168.857S647.059
G1 X152.957S0
G1 X148.857S647.059
G1 X132.957S0
G1 X128.857S647.059
G1 X112.957S0
G1 X108.857S647.059
G1 X92.957S0
G1 X88.857S647.059
G1 X72.957S0
G1 X68.857S647.059
G1 X52.957S0
G1 X48.857S647.059
G1 X32.957S0
G1 X28.856S647.059
G1 X12.957S0
G1 X8.857S647.059
G1 X-7.043S0
G1 X-11.143S647.059
G1 X-27.043S0
G1 X-31.143S647.059
G1 X-47.043S0
G1 X-51.143S647.059
G1 X-67.043S0
G1 X-71.142S647.059
G1 X-87.043S0
G1 X-91.043S647.059
G1 X-107.043S0
G1 X-111.142S647.059
G1 X-127.043S0
G1 X-131.043S647.059
G1 X-147.043S0
G1 X-151.143S647.059
G1 X-167.043S0
G1 X-171.043S647.059
G1 X-187.043S0
G1 X-191.143S647.059
G1 X-207.043S0
G1 X-211.043S647.059
G1 X-227.043S0
G1 X-231.143S647.059
G1 X-247.043S0
G1 X-251.043S647.059
G1 X-267.043S0
G1 X-271.043S647.059
G1 X-287.043S0
G1 X-291.043S647.059
G1 Y-118.4S0
G1 X-287.143S647.059
G1 X-271.043S0
G1 X-267.143S647.059
G1 X-251.043S0
G1 X-247.143S647.059
G1 X-231.043S0
G1 X-227.143S647.059
G1 X-211.043S0
G1 X-207.143S647.059
G1 X-191.043S0
G1 X-187.143S647.059
G1 X-171.043S0
G1 X-167.143S647.059
G1 X-151.043S0
G1 X-147.143S647.059
G1 X-131.043S0
G1 X-127.143S647.059
G1 X-111.043S0
G1 X-107.142S647.059
G1 X-91.043S0
G1 X-87.142S647.059
G1 X-71.043S0
G1 X-67.142S647.059
G1 X-51.043S0
G1 X-47.143S647.059
G1 X-31.043S0
G1 X-27.143S647.059
G1 X-11.043S0
G1 X-7.143S647.059
G1 X8.957S0
G1 X12.857S647.059
G1 X28.957S0
G1 X32.856S647.059
G1 X48.957S0
G1 X52.857S647.059
G1 X68.957S0
G1 X72.857S647.059
G1 X88.957S0
G1 X92.857S647.059
G1 X108.957S0
G1 X112.857S647.059
G1 X128.957S0
G1 X132.857S647.059
G1 X148.957S0
G1 X152.857S647.059
G1 X168.957S0
G1 X172.857S647.059
G1 X188.957S0
G1 X192.857S647.059
G1 X208.957S0
G1 X212.857S647.059
G1 X228.957S0
G1 X232.857S647.059
G1 X248.957S0
G1 X252.857S647.059
G1 X268.957S0
G1 X272.856S647.059
G1 X288.957S0
G1 X292.856S647.059
G1 X292.757Y-118.3S0
G1 X289.057S647.059
G1 X272.757S0
G1 X269.057S647.059
G1 X252.757S0
G1 X249.057S647.059
G1 X232.757S0
G1 X229.057S647.059
G1 X212.757S0
G1 X209.057S647.059
G1 X192.757S0
G1 X189.057S647.059
G1 X172.757S0
G1 X169.057S647.059
G1 X152.757S0
G1 X149.057S647.059
G1 X132.757S0
G1 X129.057S647.059
G1 X112.757S0
G1 X109.056S647.059
G1 X92.757S0
G1 X89.056S647.059
G1 X72.757S0
G1 X69.056S647.059
G1 X52.756S0
G1 X49.057S647.059
G1 X32.757S0
G1 X29.057S647.059
G1 X12.757S0
G1 X9.057S647.059
G1 X-7.143S0
G1 X-10.943S647.059
G1 X-27.243S0
G1 X-30.942S647.059
G1 X-47.143S0
G1 X-50.943S647.059
G1 X-67.142S0
G1 X-70.943S647.059
G1 X-87.142S0
G1 X-90.943S647.059
G1 X-107.142S0
G1 X-110.943S647.059
G1 X-127.143S0
G1 X-130.943S647.059
G1 X-147.143S0
G1 X-150.943S647.059
G1 X-167.143S0
G1 X-170.943S647.059
G1 X-187.143S0
G1 X-190.943S647.059
G1 X-207.242S0
G1 X-210.943S647.059
G1 X-227.143S0
G1 X-230.943S647.059
G1 X-247.242S0
G1 X-250.943S647.059
G1 X-267.143S0
G1 X-270.942S647.059
G1 X-287.243S0
G1 X-290.942S647.059
G1 X-290.843Y-118.2S0
G1 X-287.243S647.059
G1 X-270.843S0
G1 X-267.343S647.059
G1 X-250.843S0
G1 X-247.242S647.059
G1 X-230.843S0
G1 X-227.343S647.059
G1 X-210.843S0
G1 X-207.242S647.059
G1 X-190.843S0
G1 X-187.343S647.059
G1 X-170.843S0
G1 X-167.343S647.059
G1 X-150.843S0
G1 X-147.343S647.059
G1 X-130.843S0
G1 X-127.343S647.059
G1 X-110.843S0
G1 X-107.343S647.059
G1 X-90.843S0
G1 X-87.343S647.059
G1 X-70.843S0
G1 X-67.343S647.059
G1 X-50.842S0
G1 X-47.342S647.059
G1 X-30.843S0
G1 X-27.243S647.059
G1 X-10.843S0
G1 X-7.343S647.059
G1 X9.156S0
G1 X12.757S647.059
G1 X29.157S0
G1 X32.657S647.059
G1 X49.157S0
G1 X52.756S647.059
G1 X69.157S0
G1 X72.657S647.059
G1 X89.157S0
G1 X92.657S647.059
G1 X109.157S0
G1 X112.657S647.059
G1 X129.156S0
G1 X132.656S647.059
G1 X149.057S0
G1 X152.656S647.059
G1 X169.057S0
G1 X172.656S647.059
G1 X189.057S0
G1 X192.656S647.059
G1 X209.057S0
G1 X212.656S647.059
G1 X229.057S0
G1 X232.656S647.059
G1 X249.057S0
G1 X252.656S647.059
G1 X269.057S0
G1 X272.657S647.059
G1 X289.157S0
G1 X292.657S647.059
G1 X292.557Y-118.099S0
G1 X289.157S647.059
G1 X272.557S0
G1 X269.257S647.059
G1 X252.557S0
G1 X249.257S647.059
G1 X232.557S0
G1 X229.257S647.059
G1 X212.557S0
G1 X209.257S647.059
G1 X192.557S0
G1 X189.257S647.059
G1 X172.557S0
G1 X169.257S647.059
G1 X152.557S0
G1 X149.257S647.059
G1 X132.557S0
G1 X129.257S647.059
G1 X112.556S0
G1 X109.257S647.059
G1 X92.556S0
G1 X89.257S647.059
G1 X72.657S0
G1 X69.257S647.059
G1 X52.557S0
G1 X49.256S647.059
G1 X32.657S0
G1 X29.257S647.059
G1 X12.557S0
G1 X9.257S647.059
G1 X-7.343S0
G1 X-10.742S647.059
G1 X-27.442S0
G1 X-30.743S647.059
G1 X-47.342S0
G1 X-50.743S647.059
G1 X-67.343S0
G1 X-70.743S647.059
G1 X-87.343S0
G1 X-90.743S647.059
G1 X-107.343S0
G1 X-110.743S647.059
G1 X-127.343S0
G1 X-130.742S647.059
G1 X-147.343S0
G1 X-150.742S647.059
G1 X-167.343S0
G1 X-170.742S647.059
G1 X-187.343S0
G1 X-190.742S647.059
G1 X-207.343S0
G1 X-210.742S647.059
G1 X-227.343S0
G1 X-230.742S647.059
G1 X-247.343S0
G1 X-250.742S647.059
G1 X-267.343S0
G1 X-270.743S647.059
G1 X-287.343S0
G1 X-290.743S647.059
G1 X-290.643Y-118S0
G1 X-287.543S647.059
G1 X-270.643S0
G1 X-267.543S647.059
G1 X-250.643S0
G1 X-247.543S647.059
G1 X-230.643S0
G1 X-227.543S647.059
G1 X-210.643S0
G1 X-207.543S647.059
G1 X-190.643S0
G1 X-187.543S647.059
G1 X-170.643S0
G1 X-167.543S647.059
G1 X-150.643S0
G1 X-147.543S647.059
G1 X-130.643S0
G1 X-127.543S647.059
G1 X-110.642S0
G1 X-107.543S647.059
G1 X-90.642S0
G1 X-87.543S647.059
G1 X-70.642S0
G1 X-67.543S647.059
G1 X-50.643S0
G1 X-47.543S647.059
G1 X-30.643S0
G1 X-27.543S647.059
G1 X-10.643S0
G1 X-7.543S647.059
G1 X9.357S0
G1 X12.457S647.059
G1 X29.356S0
G1 X32.457S647.059
G1 X49.357S0
G1 X52.457S647.059
G1 X69.357S0
G1 X72.457S647.059
G1 X89.357S0
G1 X92.457S647.059
G1 X109.357S0
G1 X112.457S647.059
G1 X129.357S0
G1 X132.457S647.059
G1 X149.357S0
G1 X152.457S647.059
G1 X169.357S0
G1 X172.457S647.059
G1 X189.357S0
G1 X192.457S647.059
G1 X209.357S0
G1 X212.457S647.059
G1 X229.357S0
G1 X232.457S647.059
G1 X249.357S0
G1 X252.457S647.059
G1 X269.356S0
G1 X272.457S647.059
G1 X289.356S0
G1 X292.457S647.059
G1 X292.356Y-117.9S0
G1 X289.557S647.059
G1 X272.356S0
G1 X269.557S647.059
G1 X252.357S0
G1 X249.457S647.059
G1 X232.357S0
G1 X229.457S647.059
G1 X212.357S0
G1 X209.457S647.059
G1 X192.357S0
G1 X189.457S647.059
G1 X172.357S0
G1 X169.457S647.059
G1 X152.357S0
G1 X149.457S647.059
G1 X132.357S0
G1 X129.457S647.059
G1 X112.357S0
G1 X109.457S647.059
G1 X92.357S0
G1 X89.457S647.059
G1 X72.357S0
G1 X69.457S647.059
G1 X52.357S0
G1 X49.457S647.059
G1 X32.356S0
G1 X29.457S647.059
G1 X12.357S0
G1 X9.457S647.059
G1 X-7.643S0
G1 X-10.543S647.059
G1 X-27.643S0
G1 X-30.543S647.059
G1 X-47.643S0
G1 X-50.543S647.059
G1 X-67.642S0
G1 X-70.543S647.059
G1 X-87.642S0
G1 X-90.443S647.059
G1 X-107.642S0
G1 X-110.543S647.059
G1 X-127.643S0
G1 X-130.543S647.059
G1 X-147.643S0
